<?xml version="1.0" encoding="UTF-8"?>
<map version="1.10" tiledversion="1.10.2" orientation="orthogonal" renderorder="right-down" width="80" height="57" tilewidth="16" tileheight="16" infinite="0" nextlayerid="16" nextobjectid="4">
 <editorsettings>
  <export target="m.csv" format="csv"/>
 </editorsettings>
 <tileset firstgid="1" source="scn2_1_back_tileset.tsx"/>
 <tileset firstgid="521" source="scn2_1_fore_tileset.tsx"/>
 <tileset firstgid="585" source="scn2_1_events_tileset.tsx"/>
 <tileset firstgid="617" source="scn2_1_hotspot_tileset.tsx"/>
 <tileset firstgid="649" source="scn2_1_col_tileset.tsx"/>
 <tileset firstgid="665" source="scn2_1_mask_tileset.tsx"/>
 <tileset firstgid="729" source="scn2_1_anim_tileset.tsx"/>
 <layer id="1" name="back" width="80" height="57">
  <data encoding="csv">
196,105,105,105,105,105,105,105,105,195,1,1,196,105,105,105,105,105,105,105,105,105,105,105,195,1,196,105,105,105,105,105,105,105,105,105,105,1,1,1,86,7,2,2,7,7,2,7,7,7,7,102,128,128,128,86,7,2,7,36,32,7,36,8,36,36,8,12,2,3,4,5,6,12,2,3,4,5,6,36,
86,35,36,36,83,84,7,36,7,102,1,1,86,7,36,7,36,35,7,7,36,7,7,7,102,1,86,7,36,7,36,7,7,35,7,36,7,102,1,1,86,7,7,14,7,2,3,4,5,6,7,102,128,128,1,86,36,9,10,36,7,36,14,7,7,14,7,12,22,23,24,25,26,27,22,23,24,25,26,27,
86,7,2,3,106,107,6,35,36,102,1,1,86,7,7,8,2,3,4,5,6,35,36,7,102,1,86,7,8,2,3,4,5,6,36,7,7,102,297,298,86,7,36,7,36,22,23,24,25,26,27,102,128,128,1,86,51,29,30,50,56,50,50,50,56,56,51,52,42,43,44,45,46,47,42,43,44,45,46,47,
86,36,22,23,126,127,26,27,36,102,1,1,86,9,10,36,22,23,24,25,26,27,36,8,102,1,86,36,36,22,23,24,25,26,27,36,8,102,317,318,86,56,56,56,56,42,43,44,45,46,47,102,128,1,1,86,61,67,67,67,67,67,67,67,67,67,67,67,67,63,64,65,66,67,67,63,64,65,66,67,
86,56,42,43,146,147,46,47,56,102,1,1,86,29,30,56,42,43,44,45,46,47,56,56,102,1,86,56,31,42,43,44,45,46,47,56,56,89,105,105,90,61,67,67,68,67,63,64,65,66,68,102,128,1,128,86,81,21,21,2684354561,112,69,85,85,85,85,85,85,85,85,85,85,85,85,85,85,85,85,85,85,
86,61,67,63,64,65,66,67,67,102,1,1,86,61,68,67,67,63,64,65,66,67,67,67,102,1,86,61,68,67,63,64,65,66,67,68,67,7,36,7,36,101,21,2684354561,2684354561,21,112,21,205,206,21,102,128,1,128,86,101,2684354561,2684354561,21,2684354561,102,1,1,1,1,1,1,1,1,1,1,1,1,1,1,1,1,1,1,
86,81,21,21,21,21,21,21,21,102,1,1,86,101,112,192,192,112,21,21,2684354561,192,2684354561,21,89,105,90,81,21,21,21,21,21,21,192,21,21,56,56,56,56,101,21,21,69,85,85,85,85,85,85,175,128,1,1,86,101,112,21,69,85,175,1,196,105,105,105,105,105,105,105,105,105,105,105,105,105,105,105,195,
86,101,21,112,21,112,21,21,21,102,1,1,86,101,2684354561,69,85,85,85,85,85,70,21,21,36,7,36,101,21,2684354561,192,21,21,192,192,192,21,62,67,67,67,67,21,21,102,1,1,1,1,1,1,1,1,1,1,86,98,99,100,102,1,1,1,86,35,36,2,36,7,36,7,36,35,36,2,36,2,32,36,102,
176,85,70,21,21,69,85,85,85,175,297,298,86,101,21,102,297,298,2684354561,297,298,86,21,2684354561,56,56,56,101,21,21,192,112,21,2684354561,112,192,21,21,21,2684354561,2684354561,2684354561,2684354561,21,89,105,105,105,105,105,105,105,105,195,1,86,118,119,120,89,105,105,105,90,56,56,56,31,56,56,56,56,56,56,56,56,56,56,56,102,
297,298,86,21,21,102,2684354561,2684354561,1,1,317,318,86,98,100,102,317,318,2684354561,317,318,86,82,21,62,67,68,67,21,2684354561,2684354561,2684354561,192,2684354561,21,21,21,69,85,85,70,82,2684354561,21,36,36,2,36,36,7,36,7,36,102,1,86,101,67,67,36,2,36,35,36,61,67,67,67,67,67,67,67,67,67,67,68,67,67,68,102,
317,318,86,82,21,102,2684354561,196,105,105,105,105,90,118,120,102,2684354561,2684354561,2684354561,2684354561,2684354561,86,101,2684354561,112,2684354561,21,21,21,112,192,2684354561,21,21,112,192,21,102,297,298,86,101,132,2684354561,56,56,56,56,56,56,56,56,56,102,1,86,101,2684354561,21,56,56,56,56,56,81,192,112,2684354561,21,21,192,132,132,21,112,21,21,2684354561,21,102,
297,298,86,98,100,102,2684354561,86,36,35,7,35,36,101,67,102,2684354561,2684354561,2684354561,2684354561,2684354561,176,85,85,85,85,70,21,2684354561,2684354561,112,21,21,21,2684354561,2684354561,21,102,317,318,86,101,21,2684354561,62,67,68,67,67,67,68,67,67,102,1,86,81,2684354561,112,62,67,67,67,67,130,21,132,69,85,85,85,85,85,85,85,85,70,41,2684354561,102,
317,318,86,118,120,102,2684354561,86,56,56,56,56,56,101,21,102,2684354561,2684354561,2684354561,2684354561,2684354561,2684354561,2684354561,2684354561,2684354561,2684354561,86,21,21,21,2684354561,21,2684354561,21,2684354561,112,21,102,1,1,86,81,132,21,21,21,2684354561,21,132,112,2684354561,132,132,102,1,86,81,112,21,2684354561,21,2684354561,2684354561,21,21,132,21,102,1,1,1,1,1,1,1,1,86,82,41,102,
196,105,90,101,67,102,2684354561,86,61,68,68,67,67,67,2684354561,102,2684354561,2684354561,2684354561,2684354561,2684354561,2684354561,2684354561,2684354561,2684354561,2684354561,176,85,85,85,85,85,85,70,21,21,21,102,1,2684354561,176,85,85,85,85,85,85,85,85,70,2684354561,2684354561,21,102,1,176,85,85,85,85,85,85,85,70,2684354561,192,21,89,105,105,105,105,105,105,105,195,86,101,128,102,
86,36,35,101,21,102,2684354561,86,81,205,206,21,2684354561,112,21,102,2684354561,196,105,105,105,105,105,195,2684354561,2684354561,2684354561,2684354561,2684354561,2684354561,2684354561,297,298,86,98,99,100,102,2684354561,2684354561,1,1,1,1,1,1,1,1,1,86,98,99,100,102,1,1,1,1,1,1,1,1,1,86,82,192,2684354561,36,38,7,36,35,32,14,36,102,86,101,128,102,
86,56,56,101,21,102,2684354561,176,85,85,85,85,85,85,85,175,2684354561,86,35,36,7,36,7,102,2684354561,2684354561,2684354561,2684354561,2684354561,2684354561,2684354561,317,318,86,118,119,120,102,2684354561,2684354561,196,105,105,105,105,105,105,105,105,90,118,119,120,89,105,105,105,105,105,105,105,195,1,86,81,21,2684354561,56,56,56,31,56,56,56,56,102,86,101,21,102,
86,61,67,68,21,102,297,298,2684354561,2684354561,2684354561,2684354561,2684354561,2684354561,2684354561,297,298,86,56,31,56,56,56,89,105,105,105,105,105,105,105,105,105,90,101,67,67,102,2684354561,2684354561,86,35,36,36,7,36,2,7,7,36,81,67,67,35,7,36,7,2,7,36,7,102,1,86,81,21,112,62,67,67,67,67,67,67,67,102,86,101,21,102,
86,81,21,112,21,102,317,318,2684354561,2684354561,2684354561,2684354561,2684354561,2684354561,2684354561,317,318,86,61,68,67,67,67,36,35,36,7,36,7,36,7,36,36,7,101,21,21,102,2684354561,2684354561,86,55,56,56,56,56,56,56,56,56,81,21,21,55,56,56,56,56,56,56,56,102,1,176,85,85,85,85,85,85,85,85,85,85,85,175,86,101,128,102,
86,101,21,21,21,89,105,105,105,105,105,105,105,105,105,105,105,90,101,2684354561,41,41,41,56,56,56,56,56,56,56,56,56,56,56,101,2684354561,21,102,2684354561,2684354561,86,61,67,67,67,68,67,68,67,67,67,21,2684354561,62,67,68,67,67,67,68,67,102,1,1,1,1,1,1,1,1,1,1,1,1,1,1,86,101,132,102,
86,101,192,112,21,36,7,7,36,35,35,36,7,36,35,35,36,36,101,41,192,192,41,62,67,67,68,67,67,67,67,67,67,67,67,21,21,102,2684354561,2684354561,86,81,21,21,21,2684354561,21,132,2684354561,21,132,21,2684354561,2684354561,21,21,132,132,21,132,132,102,1,196,105,105,105,105,105,105,105,105,105,105,105,105,90,81,112,102,
86,101,21,21,21,56,56,56,56,56,56,56,56,56,56,56,56,56,101,21,112,192,2684354561,21,112,2684354561,192,192,21,2684354561,192,21,2684354561,192,21,2684354561,21,102,297,298,176,85,85,85,85,85,85,85,85,85,85,85,85,85,85,85,85,85,85,85,85,175,1,86,2,7,35,36,32,36,35,2,36,35,36,38,36,101,21,102,
86,101,21,21,192,62,67,67,67,67,67,67,67,67,71,72,67,67,67,112,21,2684354561,112,21,21,21,21,112,21,21,2684354561,112,21,2684354561,2684354561,112,21,102,317,318,196,105,105,105,105,105,105,105,105,105,105,105,105,105,105,105,105,105,105,105,105,195,1,86,56,56,56,56,56,56,56,56,56,31,56,56,56,81,128,102,
86,101,21,21,21,112,21,21,21,41,112,41,41,41,71,72,41,41,21,2684354561,2684354561,21,21,69,85,85,85,85,85,85,85,85,85,70,192,192,21,102,2684354561,2684354561,86,35,36,7,36,7,7,35,7,8,35,7,8,7,36,36,83,84,7,35,7,102,1,86,61,67,67,68,67,67,67,67,68,67,67,67,67,67,21,102,
176,85,85,85,85,85,85,85,85,85,85,85,85,85,85,85,85,85,85,85,85,85,85,175,297,298,1,1,1,1,1,297,298,86,21,192,21,102,2684354561,2684354561,86,35,8,2,3,4,5,6,7,7,36,7,32,7,2,3,106,107,6,7,36,102,1,86,101,21,112,2684354561,21,2684354561,21,21,2684354561,21,2684354561,2684354561,21,192,21,102,
196,105,105,105,105,105,105,105,105,105,105,105,105,105,105,195,297,298,1,1,1,297,298,1,317,318,1,1,1,1,1,317,318,86,82,2684354561,21,102,2684354561,2684354561,86,36,36,22,23,24,25,26,27,36,9,10,36,36,22,23,126,127,26,27,36,102,1,86,101,21,192,69,85,85,85,85,85,85,85,70,21,112,2684354561,102,
86,36,7,36,36,7,7,36,36,83,84,7,36,7,7,102,317,318,1,1,1,317,318,196,105,105,105,105,105,105,195,2684354561,2684354561,86,101,21,21,102,2684354561,2684354561,86,56,56,42,43,44,45,46,47,56,29,30,56,56,42,43,146,147,46,47,56,102,1,86,101,192,192,102,297,298,1,1,1,297,298,86,82,21,112,102,
86,7,36,7,7,36,7,2,3,106,107,6,7,36,36,102,196,105,105,105,105,105,105,90,36,35,9,10,35,36,102,2684354561,2684354561,86,101,21,21,102,2684354561,2684354561,86,61,67,67,63,64,65,66,67,67,67,67,67,67,67,63,64,65,66,67,67,102,1,86,101,2684354561,21,102,317,318,1,1,1,317,318,86,81,21,2684354561,102,
86,36,36,9,10,36,36,22,23,126,127,26,27,36,36,102,86,36,35,35,36,36,35,36,56,56,29,30,56,56,102,2684354561,2684354561,86,98,99,100,102,2684354561,2684354561,86,101,21,21,21,21,21,21,21,21,21,21,21,21,21,21,21,21,21,21,21,102,1,86,101,21,2684354561,102,1,1,1,1,21,1,1,86,101,21,21,102,
86,56,56,29,30,56,56,42,43,146,147,46,47,56,56,102,86,56,56,56,56,56,56,56,61,67,67,68,67,67,102,2684354561,2684354561,86,118,119,120,102,1,2684354561,86,101,21,21,2684354561,21,21,21,21,21,2684354561,2684354561,2684354561,21,21,21,21,21,21,2684354561,21,102,1,86,98,99,100,102,1,1,1,1,1,1,1,86,98,99,100,102,
86,61,67,67,68,67,67,67,63,64,65,66,67,67,67,102,86,61,67,68,67,67,68,67,67,41,41,41,41,41,102,2684354561,2684354561,86,101,67,67,102,1,1,86,101,21,21,112,2684354561,112,112,21,21,21,21,21,21,21,2684354561,21,2684354561,21,2684354561,2684354561,102,1,86,118,119,120,102,297,298,1,1,1,297,298,86,118,119,120,102,
86,81,21,21,21,21,21,21,1,1,1,21,21,21,21,102,86,81,21,21,21,21,41,41,41,41,41,41,112,41,102,297,298,86,101,21,21,102,1,1,86,81,21,21,132,21,192,21,21,2684354561,112,21,21,192,112,21,192,21,21,21,112,102,1,86,101,67,67,102,317,318,1,1,1,317,318,176,85,85,85,175,
86,101,1,1,1,1,112,1,1,21,1,1,1,1,21,102,86,101,21,21,69,85,85,70,21,2684354561,192,192,21,21,102,317,318,86,101,2684354561,112,102,1,1,86,81,21,21,132,132,132,21,192,21,132,21,2684354561,132,192,21,192,21,21,21,2684354561,102,1,86,101,21,2684354561,89,105,105,105,105,105,105,105,105,105,105,105,195,
86,101,21,21,1,21,21,1,1,1,21,192,1,192,21,102,86,101,21,1,102,297,298,86,21,112,192,21,21,21,89,105,105,90,101,112,2684354561,102,1,1,86,101,21,2684354561,132,2684354561,21,112,132,21,21,192,2684354561,21,2684354561,112,21,21,21,21,2684354561,102,1,86,101,2684354561,2684354561,35,2,32,35,2,9,10,2,36,2,35,36,102,
86,101,1,1,1,1,192,1,192,21,21,112,192,1,1,102,86,101,21,21,102,317,318,86,82,2684354561,192,2684354561,21,21,36,7,7,7,101,2684354561,2684354561,102,1,1,86,101,21,112,21,2684354561,21,21,21,192,132,2684354561,112,132,132,21,21,21,2684354561,112,21,102,1,86,101,2684354561,21,51,51,51,51,51,29,30,51,51,51,51,51,102,
86,101,21,21,1,1,1,112,1,1,21,1,21,1,21,102,86,101,21,1,102,1,1,86,101,21,112,112,2684354561,21,56,56,31,56,101,2684354561,21,102,1,1,86,101,21,2684354561,21,21,112,2684354561,2684354561,21,132,132,2684354561,2684354561,2684354561,2684354561,21,112,2684354561,21,21,102,1,86,101,192,2684354561,62,67,68,67,67,67,67,67,68,67,68,67,102,
86,101,21,21,192,1,192,192,192,1,1,1,21,1,21,102,86,101,1,21,102,1,1,86,101,21,2684354561,21,21,2684354561,62,67,67,67,67,21,2684354561,102,297,298,86,101,21,2684354561,2684354561,21,2684354561,2684354561,21,112,2684354561,21,21,21,2684354561,21,21,2684354561,2684354561,21,21,102,1,86,101,21,21,192,21,192,21,21,2684354561,192,2684354561,21,192,192,21,102,
86,101,21,1,1,1,1,192,1,1,21,1,192,192,1,102,86,101,21,1,102,1,1,86,101,21,2684354561,21,112,21,21,2684354561,21,2684354561,21,2684354561,21,102,317,318,86,81,21,21,21,21,21,21,21,21,21,21,21,21,21,21,21,21,21,21,21,102,1,86,81,21,2684354561,2684354561,21,192,2684354561,192,192,2684354561,192,2684354561,21,192,2684354561,102,
86,101,21,1,21,1,1,1,1,192,21,1,1,1,21,102,86,101,21,21,102,1,1,176,85,85,70,21,21,21,69,85,85,85,85,85,85,175,1,1,176,85,85,85,70,21,21,21,69,85,85,85,85,85,85,85,85,85,85,85,85,175,1,176,85,85,85,85,70,21,192,2684354561,69,85,85,70,21,2684354561,192,102,
86,101,21,1,1,1,192,1,1,1,1,1,112,1,21,102,86,101,21,1,89,105,105,195,1,1,86,98,99,100,102,297,298,1,1,1,1,1,1,1,1,1,297,298,176,85,85,85,175,196,105,105,105,105,105,105,105,195,1,1,1,1,1,1,1,1,1,1,86,82,192,2684354561,102,297,298,86,82,21,21,102,
86,101,21,21,21,1,21,112,21,1,21,1,1,21,1,102,86,101,1,21,36,35,36,102,1,1,86,118,119,120,102,317,318,1,1,1,1,1,1,1,1,1,317,318,196,105,105,105,195,86,35,36,2,36,35,2,36,102,297,298,1,1,1,1,1,1,297,298,86,81,2684354561,21,102,317,318,86,101,2684354561,192,102,
176,85,85,85,85,85,85,85,70,21,1,1,69,85,85,175,86,101,21,21,56,56,56,102,1,1,176,85,85,85,175,1,1,1,1,1,1,1,1,1,1,1,1,1,86,81,21,21,102,86,36,2,36,2,36,36,2,102,317,318,1,1,1,1,1,1,317,318,86,81,21,2684354561,102,1,1,86,81,21,2684354561,102,
196,105,105,105,105,105,105,105,90,21,1,21,102,297,298,1,86,101,21,21,62,67,67,89,105,105,105,105,105,105,195,1,1,1,1,1,1,1,1,1,1,1,1,1,86,81,21,21,102,86,287,287,287,287,287,287,287,89,105,105,105,105,105,105,105,105,105,105,90,81,21,21,102,1,1,86,81,21,2684354561,102,
86,36,36,35,36,36,35,35,36,202,21,21,102,317,318,1,86,287,287,287,287,287,287,36,36,35,36,7,35,36,102,1,1,1,1,1,1,1,1,1,1,1,1,1,86,287,287,287,102,86,245,242,242,242,242,369,369,36,2,35,7,35,36,36,36,36,35,2,36,287,287,287,102,1,1,86,287,287,287,102,
86,36,35,36,36,35,36,35,35,287,287,287,102,1,1,1,86,245,349,349,349,349,350,36,36,7,36,7,36,36,102,1,1,1,1,1,1,1,1,1,1,1,1,1,86,245,369,369,102,86,245,242,242,242,242,369,369,36,2,35,7,35,9,10,36,36,35,2,36,245,369,369,102,1,1,86,245,369,369,102,
86,287,287,287,287,287,287,287,287,245,242,242,102,1,1,1,1,85,85,70,242,242,242,287,287,287,287,287,287,287,102,1,1,1,1,1,1,1,1,1,1,1,1,1,86,245,369,369,102,86,245,369,369,369,369,369,369,287,287,287,287,287,29,30,287,287,287,287,287,245,369,369,102,1,1,86,245,369,369,102,
86,245,242,242,242,242,242,242,242,242,242,242,102,1,1,1,1,1,1,86,242,242,242,242,242,242,242,242,242,242,102,1,1,1,1,1,1,1,1,1,1,1,1,1,86,245,369,369,102,86,245,369,369,369,369,369,369,369,369,369,369,369,369,369,369,369,369,369,369,369,369,369,102,1,1,86,245,369,369,102,
86,245,242,242,69,85,85,85,85,85,85,85,1,297,298,1,1,297,298,176,85,85,85,85,85,85,70,242,242,242,102,297,298,1,1,1,1,1,1,1,1,1,297,298,86,245,369,369,102,86,245,369,369,369,369,369,369,69,85,85,85,85,85,85,85,85,85,85,85,85,85,85,175,297,298,86,245,369,369,102,
86,98,99,100,102,21,1,1,1,1,1,1,1,317,318,1,1,317,318,1,1,1,1,1,1,1,86,98,99,100,102,317,318,1,1,1,1,1,1,1,1,1,317,318,86,98,99,100,102,176,85,85,85,85,85,85,85,175,1,1,1,1,1,1,1,1,1,1,1,1,1,1,1,317,318,86,98,99,100,102,
86,118,119,120,89,105,105,105,105,105,105,105,105,105,105,105,105,105,105,105,105,105,105,105,105,105,90,118,119,120,89,105,105,105,105,195,1,1,1,196,105,105,105,105,90,118,119,120,89,105,105,105,105,105,105,105,105,105,105,105,105,105,105,105,105,105,105,105,105,105,105,105,105,105,105,90,118,119,120,102,
86,348,248,248,2,246,251,252,257,250,244,258,247,257,252,251,257,258,247,252,252,244,258,252,251,243,36,348,248,248,56,246,251,243,56,102,1,1,1,86,2,246,251,243,56,348,248,248,2,246,251,252,257,250,244,258,247,257,252,251,257,258,247,244,252,257,258,247,252,244,247,252,252,251,243,36,348,248,248,102,
86,245,242,242,8,266,268,261,261,270,264,278,267,261,261,268,277,278,267,261,261,264,278,261,268,263,56,245,242,242,56,266,268,263,56,102,1,1,1,86,8,266,268,263,56,245,369,369,8,266,268,261,261,270,264,278,267,261,261,268,277,278,267,264,261,277,278,267,261,264,267,261,261,268,263,56,245,369,369,102,
86,245,242,242,286,287,288,289,287,287,287,287,287,287,287,288,287,287,287,287,287,287,287,287,288,289,287,245,242,242,283,281,288,283,283,102,1,1,1,86,286,281,288,283,283,245,369,369,286,286,288,289,287,287,287,287,287,287,287,288,287,287,287,287,287,287,287,287,287,287,283,283,283,288,287,287,245,369,369,102,
86,245,242,242,248,307,308,309,248,248,248,248,248,248,307,308,309,248,248,248,248,248,248,307,308,309,248,368,242,242,248,304,308,303,248,102,1,1,1,86,348,304,308,303,248,368,369,369,248,307,308,309,248,248,248,248,248,248,307,308,309,248,248,248,248,248,248,248,248,248,248,248,307,308,309,248,368,369,369,102,
86,245,242,242,369,369,369,369,369,369,369,369,369,369,369,369,369,369,369,369,369,369,369,369,242,242,242,242,242,242,242,242,242,242,242,102,1,1,1,86,245,369,369,369,369,369,369,369,369,369,369,369,369,369,369,369,369,369,369,369,369,369,369,369,369,369,369,369,369,369,369,369,369,369,369,369,369,369,369,102,
86,245,242,242,242,369,369,369,369,369,369,369,369,369,369,369,369,369,369,369,369,369,369,242,242,242,242,242,242,242,242,242,242,242,242,102,1,1,1,86,245,369,369,369,369,369,369,369,369,369,369,369,369,369,369,369,369,369,369,369,369,369,369,369,369,369,369,369,369,369,369,369,369,369,369,369,369,369,369,102,
176,85,85,85,85,85,85,85,85,85,85,85,85,85,85,85,85,85,85,85,85,85,85,85,85,85,85,85,85,85,85,85,85,85,85,175,1,1,1,176,85,85,85,85,85,85,85,85,85,85,85,85,85,85,85,85,85,85,85,85,85,85,85,85,85,85,85,85,85,85,85,85,85,85,85,85,85,85,85,175,
1,1,1,1,1,1,1,1,1,1,1,1,1,1,1,1,1,1,1,1,1,1,1,1,1,1,1,1,1,1,1,1,1,1,1,1,1,1,1,1,1,1,1,1,1,1,1,1,1,1,1,1,1,1,1,1,1,1,1,1,1,1,1,1,1,1,1,1,1,1,1,1,1,1,1,1,1,1,1,1
</data>
 </layer>
 <layer id="2" name="fore" width="80" height="57">
  <data encoding="csv">
0,0,0,0,0,0,0,0,0,0,0,0,0,0,0,0,0,0,0,0,0,0,0,0,0,0,0,0,0,0,0,0,0,0,0,0,0,0,0,0,0,561,561,561,561,561,561,561,561,561,561,0,0,0,0,0,561,561,561,561,0,561,561,561,561,561,561,0,561,562,563,564,565,0,561,562,563,564,565,566,
0,561,561,561,0,0,561,561,561,0,0,0,0,561,561,561,561,561,561,561,561,561,561,561,0,0,0,566,566,566,566,566,566,566,566,566,566,0,0,0,0,561,561,0,561,561,562,563,564,565,561,0,0,0,0,0,561,0,0,561,561,561,0,561,561,0,561,0,569,570,571,572,573,0,569,570,571,572,573,574,
0,561,561,0,0,0,0,561,561,0,0,0,0,566,566,526,561,562,563,564,565,561,561,561,0,0,0,566,526,561,562,563,564,565,566,566,566,0,0,0,0,561,561,561,561,0,570,571,572,573,0,0,0,0,0,0,0,0,0,0,0,0,0,0,0,0,0,0,0,0,0,0,0,0,0,0,0,0,0,0,
0,561,0,0,0,0,0,0,561,0,0,0,0,0,0,566,569,570,571,572,573,0,561,526,0,0,0,566,566,569,570,571,572,573,574,566,526,0,0,0,0,0,0,0,0,0,0,0,0,0,0,0,0,0,0,0,0,0,0,0,0,0,0,0,0,0,0,0,0,0,0,0,0,0,0,0,0,0,0,0,
0,0,0,0,0,0,0,0,0,0,0,0,0,0,0,0,0,0,0,0,0,0,0,0,0,0,0,0,0,0,0,0,0,0,0,0,0,0,0,0,0,0,0,0,0,0,0,0,0,0,0,0,0,0,0,0,0,0,0,0,0,0,0,0,0,0,0,0,0,0,0,0,0,0,0,0,0,0,0,0,
0,0,0,0,0,0,0,0,0,0,0,0,0,0,0,0,0,0,0,0,0,0,0,0,0,0,0,0,0,0,0,0,0,0,0,0,0,566,566,566,566,0,0,0,0,0,0,0,0,0,0,0,0,0,0,0,0,0,0,0,0,0,0,0,0,0,0,0,0,0,0,0,0,0,0,0,0,0,0,0,
0,0,0,0,0,0,0,0,0,0,0,0,0,0,0,0,0,0,0,0,0,0,0,0,0,0,0,0,0,0,0,0,0,0,0,0,0,0,0,0,0,0,0,0,0,0,0,0,0,0,0,0,0,0,0,0,0,0,0,0,0,0,0,0,0,0,0,0,0,0,0,0,0,0,0,0,0,0,0,0,
0,0,0,0,0,0,0,0,0,0,0,0,0,0,0,0,0,0,0,0,0,0,0,0,566,566,566,0,0,0,0,0,0,0,0,0,0,0,0,0,0,0,0,0,0,0,0,0,0,0,0,0,0,0,0,0,0,0,0,0,0,0,0,0,561,561,561,561,561,561,561,561,561,561,561,561,561,0,561,0,
0,0,0,0,0,0,0,0,0,0,0,0,0,0,0,0,0,0,0,0,0,0,0,0,0,0,0,0,0,0,0,0,0,0,0,0,0,0,0,0,0,0,0,0,0,0,0,0,0,0,0,0,0,0,0,0,0,0,0,0,0,0,0,0,0,0,0,0,0,0,0,0,0,0,0,0,0,0,0,0,
0,0,0,0,0,0,0,0,0,0,0,0,0,0,0,0,0,0,0,0,0,0,0,0,0,0,0,0,0,0,0,0,0,0,0,0,0,0,0,0,0,0,0,0,561,561,561,561,561,561,561,561,561,0,0,0,0,0,0,561,561,561,561,561,0,0,0,0,0,0,0,0,0,0,0,0,0,0,0,0,
0,0,0,0,0,0,0,0,0,0,0,0,0,0,0,0,0,0,0,0,0,0,0,0,0,0,0,0,0,0,0,0,0,0,0,0,0,0,0,0,0,0,0,0,0,0,0,0,0,0,0,0,0,0,0,0,0,0,0,0,0,0,0,0,0,0,0,0,0,0,0,0,0,0,0,0,0,0,0,0,
0,0,0,0,0,0,0,0,561,561,561,561,561,0,0,0,0,0,0,0,0,0,0,0,0,0,0,0,0,0,0,0,0,0,0,0,0,0,0,0,0,0,0,0,0,0,0,0,0,0,0,0,0,0,0,0,0,0,0,0,0,0,0,0,0,0,0,0,0,0,0,0,0,0,0,0,0,0,0,0,
0,0,0,0,0,0,0,0,0,0,0,0,0,0,0,0,0,0,0,0,0,0,0,0,0,0,0,0,0,0,0,0,0,0,0,0,0,0,0,0,0,0,0,0,0,0,0,0,0,0,0,0,0,0,0,0,0,0,0,0,0,0,0,0,0,0,0,0,0,0,0,0,0,0,0,0,0,0,0,0,
0,0,0,0,0,0,0,0,0,0,0,0,0,0,0,0,0,0,0,0,0,0,0,0,0,0,0,0,0,0,0,0,0,0,0,0,0,0,0,0,0,0,0,0,0,0,0,0,0,0,0,0,0,0,0,0,0,0,0,0,0,0,0,0,0,0,0,0,0,0,0,0,0,0,0,0,0,0,0,0,
0,561,561,0,0,0,0,0,0,0,0,0,0,0,0,0,0,0,0,0,0,0,0,0,0,0,0,0,0,0,0,0,0,0,0,0,0,0,0,0,0,0,0,0,0,0,0,0,0,0,0,0,0,0,0,0,0,0,0,0,0,0,0,0,0,0,0,561,0,561,561,561,0,0,561,0,0,0,0,0,
0,0,0,0,0,0,0,0,0,0,0,0,0,0,0,0,0,0,561,561,561,561,561,0,0,0,0,0,0,0,0,0,0,0,0,0,0,0,0,0,0,0,0,0,0,0,0,0,0,0,0,0,0,0,0,0,0,0,0,0,0,0,0,0,0,0,0,0,0,0,0,0,0,0,0,0,0,0,0,0,
0,0,0,0,0,0,0,0,0,0,0,0,0,0,0,0,0,0,0,0,0,0,0,0,0,0,0,0,0,0,0,0,0,0,0,0,0,0,0,0,0,561,561,561,561,561,561,561,561,561,0,0,0,561,561,561,561,561,561,561,561,0,0,0,0,0,0,0,0,0,0,0,0,0,0,0,0,0,0,0,
0,0,0,0,0,0,0,0,0,0,0,0,0,0,0,0,0,0,0,0,0,0,0,561,561,561,561,561,561,561,561,561,561,561,0,0,0,0,0,0,0,0,0,0,0,0,0,0,0,0,0,0,0,0,0,0,0,0,0,0,0,0,0,0,0,0,0,0,0,0,0,0,0,0,0,0,0,0,0,0,
0,0,0,0,0,0,0,0,0,0,0,0,0,0,0,0,0,0,0,0,0,0,0,0,0,0,0,0,0,0,0,0,0,0,0,0,0,0,0,0,0,0,0,0,0,0,0,0,0,0,0,0,0,0,0,0,0,0,0,0,0,0,0,0,0,0,0,0,0,0,0,0,0,0,0,0,0,0,0,0,
0,0,0,0,0,561,561,561,561,561,561,561,561,561,561,561,561,561,0,0,0,0,0,0,0,0,0,0,0,0,0,0,0,0,0,0,0,0,0,0,0,0,0,0,0,0,0,0,0,0,0,0,0,0,0,0,0,0,0,0,0,0,0,0,0,0,0,0,0,0,0,0,0,0,0,0,0,0,0,0,
0,0,0,0,0,0,0,0,0,0,0,0,0,0,0,0,0,0,0,0,0,0,0,0,0,0,0,0,0,0,0,0,0,0,0,0,0,0,0,0,0,0,0,0,0,0,0,0,0,0,0,0,0,0,0,0,0,0,0,0,0,0,0,0,561,561,561,561,0,561,561,561,561,561,561,0,561,0,0,0,
0,0,0,0,0,0,0,0,0,0,0,0,0,0,0,0,0,0,0,0,0,0,0,0,0,0,0,0,0,0,0,0,0,0,0,0,0,0,0,0,0,0,0,0,0,0,0,0,0,0,0,0,0,0,0,0,0,0,0,0,0,0,0,0,0,0,0,0,0,0,0,0,0,0,0,0,0,0,0,0,
0,0,0,0,0,0,0,0,0,0,0,0,0,0,0,0,0,0,0,0,0,0,0,0,0,0,0,0,0,0,0,0,0,0,0,0,0,0,0,0,0,561,561,561,561,561,561,561,561,526,561,561,526,561,561,561,0,0,561,561,561,0,0,0,0,0,0,0,0,0,0,0,0,0,0,0,0,0,0,0,
0,0,0,0,0,0,0,0,0,0,0,0,0,0,0,0,0,0,0,0,0,0,0,0,0,0,0,0,0,0,0,0,0,0,0,0,0,0,0,0,0,561,526,561,562,563,564,565,561,561,561,561,0,561,561,0,0,0,0,561,561,0,0,0,0,0,0,0,0,0,0,0,0,0,0,0,0,0,0,0,
0,0,0,0,0,0,0,0,0,0,0,0,0,0,0,0,0,0,0,0,0,0,0,0,0,0,0,0,0,0,0,0,0,0,0,0,0,0,0,0,0,561,561,0,570,571,572,573,0,561,0,0,561,561,0,0,529,530,0,0,561,0,0,0,0,0,0,0,0,0,0,0,0,0,0,0,0,0,0,0,
0,566,566,566,566,566,566,566,566,0,0,566,566,566,566,0,0,0,0,0,0,0,0,0,0,0,0,0,0,0,0,0,0,0,0,0,0,0,0,0,0,0,0,0,0,0,0,0,0,0,0,0,0,0,0,0,537,538,0,0,0,0,0,0,0,0,0,0,0,0,0,0,0,0,0,0,0,0,0,0,
0,566,566,566,566,566,566,566,0,0,0,0,566,566,566,0,0,0,0,0,0,0,0,0,566,566,0,0,566,566,0,0,0,0,0,0,0,0,0,0,0,0,0,0,0,0,0,0,0,0,0,0,0,0,0,0,0,0,0,0,0,0,0,0,0,0,0,0,0,0,0,0,0,0,0,0,0,0,0,0,
0,566,566,0,0,566,566,0,0,529,530,0,0,566,566,0,0,566,566,566,566,566,566,566,0,0,0,0,0,0,0,0,0,0,0,0,0,0,0,0,0,0,0,0,0,0,0,0,0,0,0,0,0,0,0,0,0,0,0,0,0,0,0,0,0,0,0,0,0,0,0,0,0,0,0,0,0,0,0,0,
0,0,0,0,0,0,0,0,0,537,538,0,0,0,0,0,0,0,0,0,0,0,0,0,0,0,0,0,0,0,0,0,0,0,0,0,0,0,0,0,0,0,0,0,0,0,0,0,0,0,0,0,0,0,0,0,0,0,0,0,0,0,0,0,0,0,0,0,0,0,0,0,0,0,0,0,0,0,0,0,
0,0,0,0,0,0,0,0,0,0,0,0,0,0,0,0,0,0,0,0,0,0,0,0,0,0,0,0,0,0,0,0,0,0,0,0,0,0,0,0,0,0,0,0,0,0,0,0,0,0,0,0,0,0,0,0,0,0,0,0,0,0,0,0,0,0,0,0,0,0,0,0,0,0,0,0,0,0,0,0,
0,0,0,0,0,0,0,0,0,0,0,0,0,0,0,0,0,0,0,0,0,0,0,0,0,0,0,0,0,0,0,0,0,0,0,0,0,0,0,0,0,0,0,0,0,0,0,0,0,0,0,0,0,0,0,0,0,0,0,0,0,0,0,0,0,0,0,0,0,0,0,0,0,0,0,0,0,0,0,0,
0,0,0,0,0,0,0,0,0,0,0,0,0,0,0,0,0,0,0,0,0,0,0,0,0,0,0,0,0,0,0,0,0,0,545,549,547,0,0,0,0,0,0,0,0,0,0,0,0,0,0,0,0,0,0,0,0,0,0,0,0,0,0,0,0,0,0,0,0,0,0,0,0,0,0,0,0,0,0,0,
0,0,0,0,0,0,0,0,0,0,0,0,0,0,0,0,0,0,0,0,0,0,0,0,0,0,0,0,0,0,0,0,0,0,553,557,555,0,0,0,0,0,0,0,0,0,0,0,0,0,0,0,0,0,0,0,0,0,0,0,0,0,0,0,0,0,0,561,561,0,561,561,0,0,561,561,561,561,561,0,
0,0,0,0,0,0,0,0,0,0,0,0,0,0,0,0,0,0,0,0,0,0,0,0,0,0,0,0,0,0,566,566,566,566,0,0,0,0,0,0,0,0,0,0,0,0,0,0,0,0,0,0,0,0,0,0,0,0,0,0,0,0,0,0,0,0,0,0,0,0,0,0,0,0,0,0,0,0,0,0,
0,0,0,0,0,0,0,0,0,0,0,0,0,0,0,0,0,0,0,0,0,0,0,0,0,0,0,0,0,0,0,0,0,0,0,0,0,0,0,0,0,0,0,0,0,0,0,0,0,0,0,0,0,0,0,0,0,0,0,0,0,0,0,0,0,0,0,0,0,0,0,0,0,0,0,0,0,0,0,0,
0,0,0,0,0,0,0,0,0,0,0,0,0,0,0,0,0,0,0,0,0,0,0,0,0,0,0,0,0,0,0,0,0,0,0,0,0,0,0,0,0,0,0,0,0,0,0,0,0,0,0,0,0,0,0,0,0,0,0,0,0,0,0,0,0,0,0,0,0,0,0,0,0,0,0,0,0,0,0,0,
0,0,0,0,0,0,0,0,0,0,0,0,0,0,0,0,0,0,0,0,0,0,0,0,0,0,0,0,0,0,0,0,0,0,0,0,0,0,0,0,0,0,0,0,0,0,0,0,0,0,0,0,0,0,0,0,0,0,0,0,0,0,0,0,0,0,0,0,0,0,0,0,0,0,0,0,0,0,0,0,
0,0,0,0,0,0,0,0,0,0,0,0,0,0,0,0,0,0,0,0,0,0,0,0,0,0,0,0,0,0,0,0,0,0,0,0,0,0,0,0,0,0,0,0,0,0,0,0,0,0,0,0,0,0,0,0,0,0,0,0,0,0,0,0,0,0,0,0,0,0,0,0,0,0,0,0,0,0,0,0,
0,0,0,0,0,0,0,0,0,0,0,0,0,0,0,0,0,0,0,0,0,0,0,0,0,0,0,0,0,0,0,0,0,0,0,0,0,0,0,0,0,0,0,0,0,0,0,0,0,0,0,0,0,0,0,0,0,0,0,0,0,0,0,0,0,0,0,0,0,0,0,0,0,0,0,0,0,0,0,0,
0,0,0,0,0,0,0,0,0,0,0,0,0,0,0,0,0,0,0,0,566,566,566,0,0,0,0,0,0,0,0,0,0,0,0,0,0,0,0,0,0,0,0,0,0,0,0,0,0,0,561,561,561,561,561,561,561,0,0,0,0,0,0,0,0,0,0,0,0,0,0,0,0,0,0,0,0,0,0,0,
0,0,0,0,0,0,0,0,0,0,0,0,0,0,0,0,0,0,0,0,0,0,0,0,0,0,0,0,0,0,0,0,0,0,0,0,0,0,0,0,0,0,0,0,0,545,548,547,0,0,561,561,561,561,561,561,561,0,0,0,0,0,0,0,0,0,0,0,0,545,546,547,0,0,0,0,0,0,0,0,
0,0,0,0,0,0,0,0,0,545,550,547,0,0,0,0,0,0,0,0,0,0,0,0,0,0,0,0,0,0,0,0,0,0,0,0,0,0,0,0,0,0,0,0,0,553,556,555,0,0,0,0,0,0,0,0,0,0,0,0,0,0,0,0,0,0,0,0,0,553,554,555,0,0,0,0,0,0,0,0,
0,566,566,566,566,566,566,566,566,553,558,555,0,0,0,0,0,0,0,0,0,0,0,566,566,566,566,566,566,566,0,0,0,0,0,0,0,0,0,0,0,0,0,0,0,0,0,0,0,0,0,523,0,523,0,523,0,561,561,561,561,561,561,561,561,561,561,561,561,0,0,0,0,0,0,0,0,0,0,0,
0,566,566,566,566,566,566,566,566,0,0,0,0,0,0,0,0,0,0,523,523,0,0,566,566,566,566,566,566,566,0,0,0,0,0,0,0,0,0,0,0,0,0,0,0,0,523,523,0,0,0,0,523,0,523,0,0,561,561,561,561,561,0,0,561,561,561,561,561,0,523,0,0,0,0,0,0,523,523,0,
0,0,0,0,0,0,0,0,0,0,523,523,0,0,0,0,0,0,0,0,0,0,523,0,0,0,0,0,0,0,0,0,0,0,0,0,0,0,0,0,0,0,0,0,0,0,0,0,0,0,0,0,0,523,0,0,523,0,0,0,0,0,0,0,0,0,0,0,0,0,0,523,0,0,0,0,0,0,523,0,
0,0,523,0,523,0,523,523,0,0,0,0,0,0,0,0,0,0,0,0,0,0,0,0,0,523,523,0,523,0,0,0,0,0,0,0,0,0,0,0,0,0,0,0,0,0,523,0,0,0,0,0,523,0,0,0,0,0,0,523,523,0,523,0,523,523,0,523,0,523,0,0,0,0,0,0,0,0,523,0,
0,0,0,0,0,0,0,0,0,0,0,0,0,0,0,0,0,0,0,0,0,0,0,0,0,0,0,0,523,0,0,0,0,0,0,0,0,0,0,0,0,0,0,0,0,0,0,0,0,0,0,0,0,0,523,523,0,0,0,0,0,0,0,0,0,0,0,0,0,0,0,0,0,0,0,0,0,523,0,0,
0,0,0,0,0,0,0,0,0,0,0,0,0,0,0,0,0,0,0,0,0,0,0,0,0,0,0,0,0,0,0,0,0,0,0,0,0,0,0,0,0,0,0,0,0,0,0,0,0,0,0,0,0,0,0,0,0,0,0,0,0,0,0,0,0,0,0,0,0,0,0,0,0,0,0,0,0,0,0,0,
0,0,0,0,0,0,0,0,0,0,0,0,0,0,0,0,0,0,0,0,0,0,0,0,0,0,0,0,0,0,0,0,0,0,0,0,0,0,0,0,0,0,0,0,0,0,0,0,0,0,0,0,0,0,0,0,0,0,0,0,0,0,0,0,0,0,0,0,0,0,0,0,0,0,0,0,0,0,0,0,
0,0,0,0,566,525,0,535,0,0,535,0,0,0,535,0,0,0,0,535,535,535,0,535,0,533,566,0,0,0,0,525,0,533,0,0,0,0,0,0,0,525,0,533,0,0,0,0,561,525,0,534,0,0,535,0,0,0,534,0,0,0,0,534,534,0,0,0,534,534,0,534,534,0,533,561,0,0,0,0,
0,0,523,0,526,0,524,543,0,0,543,0,0,0,543,524,0,0,0,543,543,543,0,543,524,0,0,0,0,0,0,0,524,0,0,0,0,0,0,0,0,0,524,0,0,0,523,0,526,0,524,542,0,0,543,0,0,0,542,524,0,0,0,542,542,0,0,0,542,542,0,542,542,524,0,0,0,0,523,0,
0,0,0,0,0,0,532,0,0,0,0,0,0,0,0,532,0,0,0,0,0,0,0,0,532,0,0,0,523,0,0,0,532,0,0,0,0,0,0,0,0,0,532,0,0,0,0,523,0,0,532,0,0,0,0,0,0,0,0,532,0,0,0,0,0,0,0,0,0,0,0,0,0,532,0,0,0,0,523,0,
0,0,523,0,0,539,540,541,0,0,0,0,0,0,539,540,541,0,0,0,0,0,0,539,540,541,0,0,0,0,0,539,540,541,0,0,0,0,0,0,0,539,540,541,0,0,0,523,0,539,540,541,0,0,0,0,0,0,539,540,541,0,0,0,0,0,0,0,0,0,0,0,539,540,541,0,0,0,523,0,
0,0,0,0,523,0,0,0,0,523,0,0,0,0,0,0,0,0,0,0,523,0,0,0,0,0,0,0,0,523,0,0,0,0,0,0,0,0,0,0,0,0,0,523,0,0,523,523,523,0,0,0,0,0,0,0,0,0,0,0,0,523,523,0,0,523,0,0,0,0,0,0,0,0,523,0,0,0,0,0,
0,0,0,0,0,0,0,0,0,0,0,0,0,523,0,0,0,0,0,523,0,0,0,0,0,0,523,0,0,0,523,0,0,0,0,0,0,0,0,0,0,0,523,0,523,0,0,0,0,0,523,523,523,523,523,523,0,0,0,0,0,0,0,0,523,523,0,523,0,0,523,523,523,0,0,523,523,0,0,0,
0,0,0,0,0,0,0,0,0,0,0,0,0,0,0,0,0,0,0,0,0,0,0,0,0,0,0,0,0,0,0,0,0,0,0,0,0,0,0,0,0,0,0,0,0,0,0,0,0,0,0,0,0,0,0,0,0,0,0,0,0,0,0,0,0,0,0,0,0,0,0,0,0,0,0,0,0,0,0,0,
0,0,0,0,0,0,0,0,0,0,0,0,0,0,0,0,0,0,0,0,0,0,0,0,0,0,0,0,0,0,0,0,0,0,0,0,0,0,0,0,0,0,0,0,0,0,0,0,0,0,0,0,0,0,0,0,0,0,0,0,0,0,0,0,0,0,0,0,0,0,0,0,0,0,0,0,0,0,0,0
</data>
 </layer>
 <layer id="12" name="mask" width="80" height="57" opacity="0.5">
  <data encoding="csv">
0,0,0,0,0,0,0,0,0,0,0,0,0,0,0,0,0,0,0,0,0,0,0,0,0,0,0,0,0,0,0,0,0,0,0,0,0,0,0,0,0,0,0,0,0,0,0,0,0,0,0,0,0,0,0,0,0,0,0,0,0,0,0,0,0,0,0,0,0,0,0,0,0,0,0,0,0,0,0,0,
0,0,0,0,0,0,0,0,0,0,0,0,0,0,0,0,0,0,0,0,0,0,0,0,0,0,0,0,0,0,0,0,0,0,0,0,0,0,0,0,0,0,0,0,0,0,0,0,0,0,0,0,0,0,0,0,0,0,0,0,0,0,0,0,0,0,0,0,0,0,0,0,0,0,0,0,0,0,0,0,
0,0,0,0,666,667,0,0,0,0,0,0,0,0,0,0,0,0,0,0,0,0,0,0,0,0,0,0,0,0,0,0,0,0,0,0,0,0,0,0,0,0,0,0,0,0,0,0,0,0,0,0,0,0,0,0,0,0,0,0,0,0,0,0,0,0,0,0,0,0,0,0,0,0,0,0,0,0,0,0,
0,0,0,0,0,0,0,0,0,0,0,0,0,0,0,0,0,0,0,0,0,0,0,0,0,0,0,0,0,0,0,0,0,0,0,0,0,0,0,0,0,0,0,0,0,0,0,0,0,0,0,0,0,0,0,0,0,0,0,0,0,0,0,0,0,0,0,0,0,0,0,0,0,0,0,0,0,0,0,0,
0,0,0,0,0,0,0,0,0,0,0,0,0,0,0,0,0,0,0,0,0,0,0,0,0,0,0,0,0,0,0,0,0,0,0,0,0,0,0,0,0,0,0,0,0,0,0,0,0,0,0,0,0,0,0,0,0,0,0,0,0,668,668,668,668,668,668,668,668,668,668,668,668,668,668,668,668,668,668,668,
0,0,0,0,0,0,0,0,0,0,0,0,0,0,0,0,0,0,0,0,0,0,0,0,0,0,0,0,0,0,0,0,0,0,0,0,0,0,0,0,0,0,0,0,0,0,0,0,0,0,0,0,0,0,0,0,0,0,0,0,0,668,668,668,668,668,668,668,668,668,668,668,668,668,668,668,668,668,668,668,
0,0,0,0,0,0,0,0,0,0,0,0,0,0,0,0,0,0,0,0,0,0,0,0,0,0,0,0,0,0,0,0,0,0,0,0,0,0,0,0,0,0,0,0,668,668,668,668,668,668,668,0,0,0,0,0,0,0,0,668,668,668,0,0,0,0,0,0,0,0,0,0,0,0,0,0,0,0,0,0,
0,0,0,0,0,0,0,0,0,0,0,0,0,0,0,668,668,668,668,668,668,668,0,0,0,0,0,0,0,0,0,0,0,0,0,0,0,0,0,0,0,0,0,0,668,668,668,668,668,668,668,0,0,0,0,0,670,671,672,668,668,0,0,0,0,0,0,0,0,0,0,0,0,0,0,0,0,0,0,0,
0,668,668,0,0,668,668,668,668,0,0,0,0,0,0,668,668,668,668,668,668,668,0,0,0,0,0,0,0,0,0,0,0,0,0,0,0,0,0,0,0,0,0,0,0,0,0,0,0,0,0,0,0,0,0,0,678,679,680,0,0,0,0,0,0,0,0,0,0,0,0,0,0,0,0,0,0,0,0,0,
0,668,668,0,0,668,668,668,668,0,0,0,0,670,672,0,0,0,0,0,0,0,0,0,0,0,0,0,0,0,0,0,0,0,0,0,0,668,668,668,668,0,0,0,0,0,0,0,0,0,0,0,0,0,0,0,0,0,0,0,0,0,0,0,0,0,0,0,0,0,0,0,0,0,0,0,0,0,0,0,
0,0,0,0,0,0,0,0,0,0,0,0,0,678,680,0,0,0,0,0,0,0,0,0,0,0,0,0,0,0,0,0,0,0,0,0,0,668,668,668,668,0,0,0,0,0,0,0,0,0,0,0,0,0,0,0,0,0,0,0,0,0,0,0,0,0,0,0,0,0,0,0,0,0,0,0,0,0,0,0,
0,0,0,670,672,0,0,0,0,0,0,0,0,0,0,0,0,0,0,0,0,0,668,668,668,668,668,0,0,0,0,0,0,0,0,0,0,0,0,0,0,0,0,0,0,0,0,0,0,0,0,0,0,0,0,0,0,0,0,0,0,0,0,0,0,0,0,668,668,668,668,668,668,668,668,668,668,0,0,0,
0,0,0,678,680,0,0,0,0,0,0,0,0,0,0,0,0,0,0,0,0,0,668,668,668,668,668,0,0,0,0,0,0,0,0,0,0,0,0,0,0,0,0,0,0,0,0,0,0,0,0,0,0,0,0,0,0,0,0,0,0,0,0,0,0,0,0,668,668,668,668,668,668,668,668,668,668,0,0,0,
0,0,0,0,0,0,0,0,0,0,0,0,0,0,0,0,0,0,0,0,0,0,0,0,0,0,0,668,668,668,668,668,668,668,0,0,0,0,0,0,0,668,668,668,668,668,668,668,668,668,0,0,0,0,0,0,668,668,668,668,668,668,668,668,0,0,0,0,0,0,0,0,0,0,0,0,0,0,0,0,
0,0,0,0,0,0,0,0,0,0,0,0,0,0,0,0,0,0,0,0,0,0,0,0,0,0,0,668,668,668,668,668,668,668,670,671,672,0,0,0,0,668,668,668,668,668,668,668,668,668,670,671,672,0,0,0,668,668,668,668,668,668,668,668,0,0,0,0,0,0,0,0,0,0,0,0,0,0,0,0,
0,0,0,0,0,0,0,0,668,668,668,668,668,668,668,0,0,0,0,0,0,0,0,0,0,0,0,0,0,0,0,0,0,0,678,679,680,0,0,0,0,0,0,0,0,0,0,0,0,0,678,679,680,0,0,0,0,0,0,0,0,0,0,0,0,0,0,0,0,0,0,0,0,0,0,0,0,0,0,0,
0,0,0,0,0,0,0,0,668,668,668,668,668,668,668,0,0,0,0,0,0,0,0,0,0,0,0,0,0,0,0,0,0,0,0,0,0,0,0,0,0,0,0,0,0,0,0,0,0,0,0,0,0,0,0,0,0,0,0,0,0,0,0,0,0,0,0,0,0,0,0,0,0,0,0,0,0,0,0,0,
0,0,0,0,0,0,0,0,0,0,0,0,0,0,0,0,0,0,0,0,0,0,0,0,0,0,0,0,0,0,0,0,0,0,0,0,0,0,0,0,0,0,0,0,0,0,0,0,0,0,0,0,0,0,0,0,0,0,0,0,0,0,0,0,668,668,668,668,668,668,668,668,668,668,668,0,0,0,0,0,
0,0,0,0,0,0,0,0,0,0,0,0,0,0,0,0,0,0,0,0,0,0,0,0,0,0,0,0,0,0,0,0,0,0,0,0,0,0,0,0,0,0,0,0,0,0,0,0,0,0,0,0,0,0,0,0,0,0,0,0,0,0,0,0,668,668,668,668,668,668,668,668,668,668,668,0,0,0,0,0,
0,0,0,0,0,0,0,0,0,0,0,0,0,0,0,0,0,0,0,0,0,0,0,0,0,0,0,0,0,0,0,0,0,0,0,0,0,0,0,0,0,0,0,0,0,0,0,0,0,0,0,0,0,0,0,0,0,0,0,0,0,0,0,0,0,0,0,0,0,0,0,0,0,0,0,0,0,0,0,0,
0,0,0,0,0,0,0,0,0,0,0,0,0,0,0,0,0,0,0,0,0,0,0,0,0,0,0,0,0,0,0,0,0,0,0,0,0,0,0,0,0,668,668,668,668,668,668,668,668,668,668,668,668,668,668,668,668,668,668,668,668,0,0,0,0,0,0,0,0,0,0,0,0,0,0,0,0,0,0,0,
0,0,0,0,0,0,0,0,0,0,0,0,0,0,0,0,0,0,0,0,0,0,0,0,0,0,0,0,0,0,0,0,0,0,0,0,0,0,0,0,0,668,668,668,668,668,668,668,668,668,668,668,668,668,668,668,668,668,668,668,668,0,0,0,0,0,0,0,0,0,0,0,0,0,0,0,0,0,0,0,
0,0,0,0,0,0,0,0,0,0,0,0,0,0,0,0,0,0,0,0,0,0,0,668,668,668,668,668,668,668,668,668,668,668,0,0,0,0,0,0,0,0,0,0,0,0,0,0,0,0,0,0,0,0,0,0,668,668,0,0,0,0,0,0,0,0,0,0,0,0,0,0,0,0,0,0,0,0,0,0,
0,668,668,668,668,668,668,668,668,668,668,668,668,668,668,668,668,668,668,668,668,668,668,668,668,668,668,668,668,668,668,668,668,668,0,0,0,0,0,0,0,0,0,0,0,0,0,0,0,0,0,0,0,0,0,0,666,667,0,0,0,0,0,0,0,0,0,0,0,0,0,0,0,0,0,0,0,0,0,0,
0,668,668,668,668,668,668,668,668,668,668,668,668,668,668,668,668,668,668,668,668,668,668,0,0,0,0,0,0,0,0,0,0,0,0,0,0,0,0,0,0,0,0,0,0,0,0,0,0,0,0,0,0,0,0,0,0,0,0,0,0,0,0,0,0,0,0,668,668,668,668,668,668,668,668,668,0,0,0,0,
0,0,0,0,0,0,0,0,0,668,668,0,0,0,0,0,0,0,0,0,0,0,0,0,0,0,0,0,0,0,0,0,0,0,0,0,0,0,0,0,0,0,0,0,0,0,0,0,0,0,0,0,0,0,0,0,0,0,0,0,0,0,0,0,0,0,0,668,668,668,668,668,668,668,668,668,0,0,0,0,
0,0,0,0,0,0,0,0,0,666,667,0,0,0,0,0,0,0,0,0,0,0,0,0,0,0,0,0,0,0,0,0,0,0,0,0,0,0,0,0,0,0,0,0,0,0,0,0,0,0,0,0,0,0,0,0,0,0,0,0,0,0,0,0,0,0,0,0,0,0,0,0,0,0,0,0,0,0,0,0,
0,0,0,0,0,0,0,0,0,0,0,0,0,0,0,0,0,0,0,0,0,0,0,0,0,0,0,0,0,0,0,0,0,0,670,671,672,0,0,0,0,0,0,0,0,0,0,0,0,0,0,0,0,0,0,0,0,0,0,0,0,0,0,0,0,0,0,0,0,0,0,0,0,0,0,0,0,0,0,0,
0,0,0,0,0,0,0,0,0,0,0,0,0,0,0,0,0,0,0,0,0,0,0,0,0,0,0,0,0,0,0,0,0,0,678,679,680,0,0,0,0,0,0,0,0,0,0,0,0,0,0,0,0,0,0,0,0,0,0,0,0,0,0,0,670,671,672,0,0,0,0,0,0,0,0,0,670,671,672,0,
0,0,0,0,0,0,0,0,0,0,0,0,0,0,0,0,0,0,0,0,0,0,0,0,0,0,0,0,0,0,0,0,0,0,0,0,0,0,0,0,0,0,0,0,0,0,0,0,0,0,0,0,0,0,0,0,0,0,0,0,0,0,0,0,678,679,680,0,0,0,0,0,0,0,0,0,678,679,680,0,
0,0,0,0,0,0,0,0,0,0,0,0,0,0,0,0,0,0,0,0,0,0,0,0,0,0,0,0,0,0,0,0,0,0,0,0,0,0,0,0,0,0,0,0,0,0,0,0,0,0,0,0,0,0,0,0,0,0,0,0,0,0,0,0,0,0,0,0,0,0,0,0,0,0,0,0,668,668,668,0,
0,0,0,0,0,0,0,0,0,0,0,0,0,0,0,0,0,0,0,0,668,668,668,668,0,0,0,0,0,0,0,0,0,0,0,0,0,0,0,0,0,0,0,0,0,0,0,0,0,0,0,0,0,0,0,0,0,0,0,0,0,0,0,0,0,0,0,0,0,0,0,0,0,0,0,0,668,668,668,0,
0,0,0,0,0,0,0,0,0,0,0,0,0,0,0,0,0,0,0,0,668,668,668,668,0,0,0,0,0,0,0,0,0,0,0,0,0,0,0,0,0,0,0,0,0,0,0,0,0,0,0,0,0,0,0,0,0,0,0,0,0,0,0,0,0,0,0,0,0,0,0,0,0,0,0,0,0,0,0,0,
0,0,0,0,0,0,0,0,0,0,0,0,0,0,0,0,0,0,0,0,0,0,0,0,0,0,0,0,0,0,0,0,0,0,0,0,0,0,0,0,0,0,0,0,0,0,0,0,0,0,0,0,0,0,0,0,0,0,0,0,0,0,0,0,0,0,0,0,0,0,0,0,0,0,0,0,0,0,0,0,
0,0,0,0,0,0,0,0,0,0,0,0,0,0,0,0,0,0,0,0,0,0,0,0,0,0,0,0,0,0,0,0,0,0,0,0,0,0,0,0,0,0,0,0,0,0,0,0,0,0,0,0,0,0,0,0,0,0,0,0,0,0,0,0,0,0,0,0,0,0,0,0,0,0,0,0,0,0,0,0,
0,0,0,0,0,0,0,0,0,0,0,0,0,0,0,0,0,0,0,0,0,0,0,0,0,0,0,0,0,0,0,0,0,0,0,0,0,0,0,0,0,0,0,0,0,0,0,0,0,0,0,0,0,0,0,0,0,0,0,0,0,0,0,0,0,0,0,0,0,0,0,0,0,0,0,0,0,0,0,0,
0,0,0,0,0,0,0,0,0,0,0,0,0,0,0,0,0,0,0,0,0,0,0,0,0,0,0,0,0,0,0,0,0,0,0,0,0,0,0,0,0,0,0,0,0,0,0,0,0,0,0,0,0,0,0,0,0,0,0,0,0,0,0,0,0,0,0,0,0,0,0,0,0,0,0,0,0,0,0,0,
0,0,0,0,0,0,0,0,0,0,0,0,0,0,0,0,0,0,0,0,0,0,0,0,668,668,668,0,0,0,668,668,668,668,668,668,668,0,0,0,0,668,668,668,668,0,0,0,668,668,668,668,668,668,668,668,668,668,668,668,668,0,0,0,668,668,668,668,668,0,0,0,668,668,668,668,0,0,0,0,
0,0,0,0,0,0,0,0,0,0,0,0,0,0,0,0,0,0,0,0,0,0,0,0,668,668,668,670,671,672,668,668,668,668,668,668,668,0,0,0,0,668,668,668,668,668,668,668,668,668,668,668,668,668,668,668,668,668,668,668,668,0,0,0,668,668,668,668,668,0,0,0,668,668,668,668,0,0,0,0,
0,0,0,0,0,0,0,0,0,0,0,0,0,0,0,0,0,0,0,0,0,0,0,0,0,0,0,678,679,680,0,0,0,0,0,0,0,0,0,0,0,0,0,0,0,668,668,668,0,0,0,0,0,0,0,0,0,0,0,0,0,0,0,0,0,0,0,0,0,0,0,0,0,0,0,0,0,0,0,0,
0,668,668,668,668,668,668,668,668,0,0,0,668,668,668,0,0,0,0,0,0,0,0,0,0,0,0,668,668,668,0,0,0,0,0,0,0,0,0,0,0,0,0,0,0,0,0,0,0,0,0,0,0,0,0,0,0,0,0,0,0,0,0,0,0,0,0,0,0,0,0,0,0,0,0,0,0,0,0,0,
0,668,668,668,668,668,668,668,668,0,0,0,668,668,668,0,0,0,0,0,0,0,0,0,0,0,0,0,0,0,0,0,0,0,0,0,0,0,0,0,0,0,0,0,0,0,0,0,0,0,0,0,0,0,0,0,0,0,0,0,0,0,0,0,0,0,0,0,0,0,0,0,0,0,0,0,0,0,0,0,
0,0,0,0,0,0,0,0,0,0,0,0,0,0,0,0,0,0,0,0,0,0,0,0,0,0,0,0,0,0,0,0,0,0,0,0,0,0,0,0,0,0,0,0,0,0,0,0,0,0,0,0,0,0,0,0,0,0,0,0,0,0,0,0,0,0,0,0,0,0,0,0,0,0,0,0,0,0,0,0,
0,0,0,0,0,0,0,0,0,0,0,0,0,0,0,0,0,0,0,0,0,0,0,0,0,0,0,0,0,0,0,0,0,0,0,0,0,0,0,0,0,0,0,0,0,0,0,0,0,0,0,0,0,0,0,0,0,0,0,0,0,0,0,0,0,0,0,0,0,0,0,0,0,0,0,0,0,0,0,0,
0,0,0,0,0,0,0,0,0,0,0,0,0,0,0,0,0,668,668,668,0,0,0,0,0,0,0,0,0,0,0,0,0,0,0,0,0,0,0,0,0,0,0,0,0,0,0,0,0,0,0,0,0,0,0,0,0,0,0,0,0,0,0,0,0,0,0,0,0,0,0,0,0,0,0,0,0,0,0,0,
0,0,0,0,0,0,0,0,0,0,0,0,0,0,0,0,0,668,668,668,0,0,0,0,0,0,0,0,0,0,0,0,0,0,0,0,0,0,0,0,0,0,0,0,0,0,0,0,0,0,0,0,0,0,0,0,0,0,0,0,0,0,0,0,0,0,0,0,0,0,0,0,0,0,0,0,0,0,0,0,
0,0,0,0,668,668,668,668,668,668,668,668,0,0,0,0,0,0,0,0,668,668,668,668,668,668,668,0,0,0,0,0,0,0,0,0,0,0,0,0,0,0,0,0,0,0,0,0,0,0,0,0,0,0,0,0,0,668,668,668,668,668,668,668,668,668,668,668,668,668,668,668,0,0,0,0,0,0,0,0,
0,670,671,672,668,668,668,668,668,668,668,668,0,0,0,0,0,0,0,0,668,668,668,668,668,668,668,670,671,672,0,0,0,0,0,0,0,0,0,0,0,0,0,0,0,670,671,672,0,0,668,668,668,668,668,668,668,668,668,668,668,668,668,668,668,668,668,668,668,668,668,668,0,0,0,0,670,671,672,0,
0,678,679,680,0,0,0,0,0,0,0,0,0,0,0,0,0,0,0,0,0,0,0,0,0,0,0,678,679,680,0,0,0,0,0,0,0,0,0,0,0,0,0,0,0,678,679,680,0,0,668,668,668,668,668,668,668,0,0,0,0,0,0,0,0,0,0,0,0,0,0,0,0,0,0,0,678,679,680,0,
0,0,0,0,0,0,0,0,0,0,0,0,0,0,0,0,0,0,0,0,0,0,0,0,0,0,0,0,0,0,0,0,0,0,0,0,0,0,0,0,0,0,0,0,0,0,0,0,0,0,0,0,0,0,0,0,0,0,0,0,0,0,0,0,0,0,0,0,0,0,0,0,0,0,0,0,0,0,0,0,
0,0,0,0,0,0,0,0,0,0,0,0,0,0,0,0,0,0,0,0,0,0,0,0,0,0,0,0,0,0,0,0,0,0,0,0,0,0,0,0,0,0,0,0,0,0,0,0,0,0,0,0,0,0,0,0,0,0,0,0,0,0,0,0,0,0,0,0,0,0,0,0,0,0,0,0,0,0,0,0,
0,0,0,0,0,0,0,0,0,0,0,0,0,0,0,0,0,0,0,0,0,0,0,0,0,0,0,0,0,0,0,0,0,0,0,0,0,0,0,0,0,0,0,0,0,0,0,0,0,0,0,0,0,0,0,0,0,0,0,0,0,0,0,0,0,0,0,0,0,0,0,0,0,0,0,0,0,0,0,0,
0,0,0,0,0,0,0,0,0,0,0,0,0,0,0,0,0,0,0,0,0,0,0,0,0,0,0,0,0,0,0,0,0,0,0,0,0,0,0,0,0,0,0,0,0,0,0,0,0,0,0,0,0,0,0,0,0,0,0,0,0,0,0,0,0,0,0,0,0,0,0,0,0,0,0,0,0,0,0,0,
0,0,0,0,0,0,0,0,0,0,0,0,0,0,0,0,0,0,0,0,0,0,0,0,0,0,0,0,0,0,0,0,0,0,0,0,0,0,0,0,0,0,0,0,0,0,0,0,0,0,0,0,0,0,0,0,0,0,0,0,0,0,0,0,0,0,0,0,0,0,0,0,0,0,0,0,0,0,0,0,
0,0,0,0,0,0,0,0,0,0,0,0,0,0,0,0,0,0,0,0,0,0,0,0,0,0,0,0,0,0,0,0,0,0,0,0,0,0,0,0,0,0,0,0,0,0,0,0,0,0,0,0,0,0,0,0,0,0,0,0,0,0,0,0,0,0,0,0,0,0,0,0,0,0,0,0,0,0,0,0,
0,668,668,668,668,668,668,668,668,668,668,668,668,668,668,668,668,668,668,668,668,668,668,668,668,668,668,668,668,668,668,668,668,668,668,0,0,0,0,0,668,668,668,668,668,668,668,668,668,668,668,668,668,668,668,668,668,668,668,668,668,668,668,668,668,668,668,668,668,668,668,668,668,668,668,668,668,668,668,0,
0,668,668,668,668,668,668,668,668,668,668,668,668,668,668,668,668,668,668,668,668,668,668,668,668,668,668,668,668,668,668,668,668,668,668,0,0,0,0,0,668,668,668,668,668,668,668,668,668,668,668,668,668,668,668,668,668,668,668,668,668,668,668,668,668,668,668,668,668,668,668,668,668,668,668,668,668,668,668,0
</data>
 </layer>
 <layer id="3" name="col" width="80" height="57" visible="0" opacity="0.5">
  <data encoding="csv">
650,650,650,650,650,650,650,650,650,650,650,650,650,650,650,650,650,650,650,650,650,650,650,650,650,650,650,650,650,650,650,650,650,650,650,650,650,650,650,650,650,650,650,650,650,650,650,650,650,650,650,650,650,650,650,650,650,650,650,650,650,650,650,650,650,650,650,650,650,650,650,650,650,650,650,650,650,650,650,650,
650,650,650,650,650,650,650,650,650,650,650,650,650,650,650,650,650,650,650,650,650,650,650,650,650,650,650,650,650,650,650,650,650,650,650,650,650,650,650,650,650,650,650,650,650,650,650,650,650,650,650,650,650,650,650,650,650,650,650,650,650,650,650,650,650,650,650,650,650,650,650,650,650,650,650,650,650,650,650,650,
650,651,651,651,0,0,651,651,651,650,650,650,650,651,651,651,651,651,651,651,651,651,651,651,650,650,650,651,651,651,651,651,651,651,651,651,651,650,650,650,650,650,650,650,650,650,650,650,650,650,650,650,650,650,650,650,651,651,651,651,651,651,651,651,651,651,651,651,651,651,651,651,651,651,651,651,651,651,651,650,
650,651,651,651,0,0,651,651,651,650,650,650,650,651,651,651,651,651,651,651,651,651,651,651,650,650,650,651,651,651,651,651,651,651,651,651,651,650,650,650,650,651,651,651,651,651,651,651,651,651,651,650,650,650,650,650,0,0,0,0,0,0,0,0,0,0,0,0,0,0,0,0,0,0,0,0,0,0,0,650,
650,651,651,651,0,0,651,651,651,650,650,650,650,651,651,651,651,651,651,651,651,651,651,651,650,650,650,651,651,651,651,651,651,651,651,651,651,650,650,650,650,0,0,0,0,0,0,0,0,0,0,650,650,650,650,650,0,0,0,0,0,0,0,0,0,0,0,0,0,0,0,0,0,0,0,0,0,0,0,650,
650,0,0,0,0,0,0,0,0,650,650,650,650,0,0,0,0,0,0,0,0,0,0,0,650,650,650,0,0,0,0,0,0,0,0,0,0,650,650,650,650,0,0,0,0,0,0,0,651,651,0,650,650,650,650,650,0,0,0,0,0,650,650,650,650,650,650,650,650,650,650,650,650,650,650,650,650,650,650,650,
650,0,0,0,0,0,0,0,0,650,650,650,650,0,0,0,0,0,0,0,0,0,0,0,650,650,650,0,0,0,0,0,0,0,0,0,0,651,651,651,651,0,0,0,0,0,0,0,0,0,0,650,650,650,650,650,0,0,0,0,0,650,650,650,650,650,650,650,650,650,650,650,650,650,650,650,650,650,650,650,
650,0,0,0,0,0,0,0,0,650,650,650,650,0,0,0,0,0,0,0,0,0,0,0,650,650,650,0,0,0,0,0,0,0,0,0,0,0,0,0,0,0,0,0,650,650,650,650,650,650,650,650,650,650,650,650,0,0,0,650,650,650,650,650,650,650,650,650,650,650,650,650,650,650,650,650,650,650,650,650,
650,0,0,0,0,0,0,0,0,650,650,650,650,0,0,650,650,650,650,650,650,650,0,0,651,651,651,0,0,0,0,0,0,0,0,0,0,0,0,0,0,0,0,0,650,650,650,650,650,650,650,650,650,650,650,650,0,0,0,650,650,650,650,650,650,651,651,651,651,651,651,651,651,651,651,651,651,651,651,650,
650,650,650,0,0,650,650,650,650,650,650,650,650,0,0,650,650,650,650,650,650,650,0,0,0,0,0,0,0,0,0,0,0,0,0,0,0,0,0,0,0,0,0,0,650,650,650,650,650,650,650,650,650,650,650,650,0,0,0,650,650,650,650,650,650,0,0,0,0,0,0,0,0,0,0,0,0,0,0,650,
650,650,650,0,0,650,650,650,650,650,650,650,650,0,0,650,650,650,650,650,650,650,0,0,0,0,0,0,0,0,0,0,0,0,0,0,0,650,650,650,650,0,0,0,651,651,651,651,651,651,651,651,651,650,650,650,0,0,0,651,651,651,651,651,651,0,0,0,0,0,0,0,0,0,0,0,0,0,0,650,
650,650,650,0,0,650,650,650,650,650,650,650,650,0,0,650,650,650,650,650,650,650,0,0,0,0,0,0,0,0,0,0,0,0,0,0,0,650,650,650,650,0,0,0,0,0,0,0,0,0,0,0,0,650,650,650,0,0,0,0,0,0,0,0,0,0,0,0,0,0,0,0,0,0,0,0,0,0,0,650,
650,650,650,0,0,650,650,650,651,651,651,651,651,0,0,650,650,650,650,650,650,650,650,650,650,650,650,0,0,0,0,0,0,0,0,0,0,650,650,650,650,0,0,0,0,0,0,0,0,0,0,0,0,650,650,650,0,0,0,0,0,0,0,0,0,0,0,650,650,650,650,650,650,650,650,650,650,0,0,650,
650,650,650,0,0,650,650,650,0,0,0,0,0,0,0,650,650,650,650,650,650,650,650,650,650,650,650,0,0,0,0,0,0,0,0,0,0,650,650,650,650,0,0,0,0,0,0,0,0,0,0,0,0,650,650,650,0,0,0,0,0,0,0,0,0,0,0,650,650,650,650,650,650,650,650,650,650,0,0,650,
650,650,650,0,0,650,650,650,0,651,651,0,0,0,0,650,650,650,650,650,650,650,650,650,650,650,650,650,650,650,650,650,650,650,0,0,0,650,650,650,650,650,650,650,650,650,650,650,650,650,0,0,0,650,650,650,650,650,650,650,650,650,650,650,0,0,0,650,650,650,650,650,650,650,650,650,650,0,0,650,
650,651,651,0,0,650,650,650,0,0,0,0,0,0,0,650,650,650,650,650,650,650,650,650,650,650,650,650,650,650,650,650,650,650,0,0,0,650,650,650,650,650,650,650,650,650,650,650,650,650,0,0,0,650,650,650,650,650,650,650,650,650,650,650,0,0,0,651,651,651,651,651,651,651,651,650,650,0,0,650,
650,0,0,0,0,650,650,650,650,650,650,650,650,650,650,650,650,650,651,651,651,651,651,650,650,650,650,650,650,650,650,650,650,650,0,0,0,650,650,650,650,650,650,650,650,650,650,650,650,650,0,0,0,650,650,650,650,650,650,650,650,650,650,650,0,0,0,0,0,0,0,0,0,0,0,650,650,0,0,650,
650,0,0,0,0,650,650,650,650,650,650,650,650,650,650,650,650,650,0,0,0,0,0,650,650,650,650,650,650,650,650,650,650,650,0,0,0,650,650,650,650,651,651,651,651,651,651,651,651,651,0,0,0,651,651,651,651,651,651,651,651,650,650,650,0,0,0,0,0,0,0,0,0,0,0,650,650,0,0,650,
650,0,0,0,0,650,650,650,650,650,650,650,650,650,650,650,650,650,0,0,0,0,0,651,651,651,651,651,651,651,651,651,651,651,0,0,0,650,650,650,650,0,0,0,0,0,0,0,0,0,0,0,0,0,0,0,0,0,0,0,0,650,650,650,650,650,650,650,650,650,650,650,650,650,650,650,650,0,0,650,
650,0,0,0,0,650,650,650,650,650,650,650,650,650,650,650,650,650,0,0,0,0,0,0,0,0,0,0,0,0,0,0,0,0,0,0,0,650,650,650,650,0,0,0,0,0,0,0,0,0,0,0,0,0,0,0,0,0,0,0,0,650,650,650,650,650,650,650,650,650,650,650,650,650,650,650,650,0,0,650,
650,0,0,0,0,651,651,651,651,651,651,651,651,651,651,651,651,651,0,0,0,0,0,0,0,0,0,0,0,0,0,0,0,0,0,0,0,650,650,650,650,0,0,0,0,0,0,0,0,0,0,0,0,0,0,0,0,0,0,0,0,650,650,650,650,650,650,650,650,650,650,650,650,650,650,650,650,0,0,650,
650,0,0,0,0,0,0,0,0,0,0,0,0,0,651,651,0,0,0,0,0,0,0,0,0,0,0,0,0,0,0,0,0,0,0,0,0,650,650,650,650,650,650,650,650,650,650,650,650,650,650,650,650,650,650,650,0,0,650,650,650,650,650,650,651,651,651,651,651,651,651,651,651,651,651,651,651,0,0,650,
650,0,0,0,0,0,0,0,0,0,0,0,0,0,651,651,0,0,0,0,0,0,0,0,0,0,0,0,0,0,0,0,0,0,0,0,0,650,650,650,650,650,650,650,650,650,650,650,650,650,650,650,650,650,650,650,0,0,650,650,650,650,650,650,0,0,0,0,0,0,0,0,0,0,0,0,0,0,0,650,
650,0,0,0,0,0,0,0,0,0,0,0,0,0,651,651,0,0,0,0,0,0,0,650,650,650,650,650,650,650,650,650,650,650,0,0,0,650,650,650,650,651,651,651,651,651,651,651,651,651,651,651,651,651,651,650,0,0,650,651,651,650,650,650,0,0,0,0,0,0,0,0,0,0,0,0,0,0,0,650,
650,650,650,650,650,650,650,650,650,0,0,650,650,650,650,650,650,650,650,650,650,650,650,650,650,650,650,650,650,650,650,650,650,650,0,0,0,650,650,650,650,651,651,651,651,651,651,651,651,651,651,651,651,651,651,651,650,650,651,651,651,650,650,650,0,0,0,0,0,0,0,0,0,0,0,0,0,0,0,650,
650,650,650,650,650,650,650,650,650,0,0,650,650,650,650,650,650,650,650,650,650,650,650,650,650,650,650,650,650,650,650,650,650,650,0,0,0,650,650,650,650,651,651,651,651,651,651,651,651,651,651,651,651,651,651,651,651,651,651,651,651,650,650,650,0,0,0,650,650,650,650,650,650,650,650,650,0,0,0,650,
650,651,651,651,651,651,651,651,650,0,0,650,651,651,651,650,650,650,650,650,650,650,650,650,650,650,650,650,650,650,650,650,650,650,0,0,0,650,650,650,650,0,0,0,0,0,0,0,0,0,0,0,0,0,0,0,0,0,0,0,0,650,650,650,0,0,0,650,650,650,650,650,650,650,650,650,0,0,0,650,
650,651,651,651,651,651,651,651,651,650,650,651,651,651,651,650,650,650,650,650,650,650,650,650,651,651,651,651,651,651,650,650,650,650,0,0,0,650,650,650,650,0,0,0,0,0,0,0,0,0,0,0,0,0,0,0,0,0,0,0,0,650,650,650,0,0,0,650,650,650,650,650,650,650,650,650,0,0,0,650,
650,651,651,651,651,651,651,651,651,651,651,651,651,651,651,650,650,651,651,651,651,651,651,651,0,0,0,0,0,0,650,650,650,650,0,0,0,650,650,650,650,0,0,0,0,0,0,0,0,0,0,0,0,0,0,0,0,0,0,0,0,650,650,650,0,0,0,650,650,650,650,650,650,650,650,650,0,0,0,650,
650,0,0,0,0,0,0,0,0,0,0,0,0,0,0,650,650,0,0,0,0,0,0,0,0,0,0,0,0,0,650,650,650,650,0,0,0,650,650,650,650,0,0,0,0,0,0,0,0,0,0,0,0,0,0,0,0,0,0,0,0,650,650,650,0,0,0,650,650,650,650,650,650,650,650,650,0,0,0,650,
650,0,0,0,0,0,0,0,0,0,0,0,0,0,0,650,650,0,0,0,0,0,0,0,0,0,0,0,0,0,650,650,650,650,0,0,0,650,650,650,650,0,0,0,0,0,0,0,0,0,0,0,0,0,0,0,0,0,0,0,0,650,650,650,0,0,0,650,650,650,650,650,650,650,650,650,0,0,0,650,
650,0,0,0,0,0,0,0,0,0,0,0,0,0,0,650,650,0,0,0,0,0,0,0,0,0,0,0,0,0,650,650,650,650,651,651,651,650,650,650,650,0,0,0,0,0,0,0,0,0,0,0,0,0,0,0,0,0,0,0,0,650,650,650,0,0,0,650,650,650,650,650,650,650,650,650,650,650,650,650,
650,0,0,0,0,0,0,0,0,0,0,0,0,0,0,650,650,0,0,0,650,650,650,650,0,0,0,0,0,0,650,650,650,650,651,651,651,650,650,650,650,0,0,0,0,0,0,0,0,0,0,0,0,0,0,0,0,0,0,0,0,650,650,650,0,0,0,650,650,650,650,650,650,650,650,650,650,650,650,650,
650,0,0,0,0,0,0,0,0,0,0,0,0,0,0,650,650,0,0,0,650,650,650,650,0,0,0,0,0,0,650,650,650,650,0,0,0,650,650,650,650,0,0,0,0,0,0,0,0,0,0,0,0,0,0,0,0,0,0,0,0,650,650,650,0,0,0,651,651,651,651,651,651,651,651,651,651,651,651,650,
650,0,0,0,0,0,0,0,0,0,0,0,0,0,0,650,650,0,0,0,650,650,650,650,0,0,0,0,0,0,651,651,651,651,0,0,0,650,650,650,650,0,0,0,0,0,0,0,0,0,0,0,0,0,0,0,0,0,0,0,0,650,650,650,0,0,0,0,0,0,0,0,0,0,0,0,0,0,0,650,
650,0,0,0,0,0,0,0,0,0,0,0,0,0,0,650,650,0,0,0,650,650,650,650,0,0,0,0,0,0,0,0,0,0,0,0,0,650,650,650,650,0,0,0,0,0,0,0,0,0,0,0,0,0,0,0,0,0,0,0,0,650,650,650,0,0,0,0,0,0,0,0,0,0,0,0,0,0,0,650,
650,0,0,0,0,0,0,0,0,0,0,0,0,0,0,650,650,0,0,0,650,650,650,650,0,0,0,0,0,0,0,0,0,0,0,0,0,650,650,650,650,0,0,0,0,0,0,0,0,0,0,0,0,0,0,0,0,0,0,0,0,650,650,650,0,0,0,0,0,0,0,0,0,0,0,0,0,0,0,650,
650,0,0,0,0,0,0,0,0,0,0,0,0,0,0,650,650,0,0,0,650,650,650,650,0,0,0,0,0,0,0,0,0,0,0,0,0,650,650,650,650,0,0,0,0,0,0,0,0,0,0,0,0,0,0,0,0,0,0,0,0,650,650,650,0,0,0,0,0,0,0,0,0,0,0,0,0,0,0,650,
650,0,0,0,0,0,0,0,0,0,0,0,0,0,0,650,650,0,0,0,650,650,650,650,650,650,650,0,0,0,650,650,650,650,650,650,650,650,650,650,650,650,650,650,650,0,0,0,650,650,650,650,650,650,650,650,650,650,650,650,650,650,650,650,650,650,650,650,650,0,0,0,650,650,650,650,0,0,0,650,
650,0,0,0,0,0,0,0,0,0,0,0,0,0,0,650,650,0,0,0,650,650,650,650,650,650,650,0,0,0,650,650,650,650,650,650,650,650,650,650,650,650,650,650,650,0,0,0,650,650,650,650,650,650,650,650,650,650,650,650,650,650,650,650,650,650,650,650,650,0,0,0,650,650,650,650,0,0,0,650,
650,0,0,0,0,0,0,0,0,0,0,0,0,0,0,650,650,0,0,0,651,651,651,650,650,650,650,0,0,0,650,650,650,650,650,650,650,650,650,650,650,650,650,650,650,651,651,651,650,650,651,651,651,651,651,651,651,650,650,650,650,650,650,650,650,650,650,650,650,651,651,651,650,650,650,650,0,0,0,650,
650,650,650,650,650,650,650,650,650,651,651,651,650,650,650,650,650,0,0,0,0,0,0,650,650,650,650,650,650,650,650,650,650,650,650,650,650,650,650,650,650,650,650,650,650,651,651,651,650,650,651,651,651,651,651,651,651,650,650,650,650,650,650,650,650,650,650,650,650,651,651,651,650,650,650,650,0,0,0,650,
650,650,650,650,650,650,650,650,650,651,651,651,650,650,650,650,650,0,0,0,0,0,0,650,650,650,650,650,650,650,650,650,650,650,650,650,650,650,650,650,650,650,650,650,650,0,0,0,650,650,0,0,0,0,0,0,0,650,650,650,650,650,650,650,650,650,650,650,650,0,0,0,650,650,650,650,0,0,0,650,
650,651,651,651,651,651,651,651,651,0,0,0,650,650,650,650,650,0,0,0,0,0,0,651,651,651,651,651,651,651,650,650,650,650,650,650,650,650,650,650,650,650,650,650,650,0,0,0,650,650,0,0,0,0,0,0,0,651,651,651,651,651,651,651,651,651,651,651,651,0,0,0,650,650,650,650,0,0,0,650,
650,651,651,651,651,651,651,651,651,0,0,0,650,650,650,650,650,0,0,0,0,0,0,651,651,651,651,651,651,651,650,650,650,650,650,650,650,650,650,650,650,650,650,650,650,0,0,0,650,650,0,0,0,0,0,0,0,651,651,651,651,651,651,651,651,651,651,651,651,0,0,0,650,650,650,650,0,0,0,650,
650,0,0,0,0,0,0,0,0,0,0,0,650,650,650,650,650,650,650,650,0,0,0,0,0,0,0,0,0,0,650,650,650,650,650,650,650,650,650,650,650,650,650,650,650,0,0,0,650,650,0,0,0,0,0,0,0,0,0,0,0,0,0,0,0,0,0,0,0,0,0,0,650,650,650,650,0,0,0,650,
650,0,0,0,0,0,0,0,0,0,0,0,650,650,650,650,650,650,650,650,0,0,0,0,0,0,0,0,0,0,650,650,650,650,650,650,650,650,650,650,650,650,650,650,650,0,0,0,650,650,0,0,0,0,0,0,0,0,0,0,0,0,0,0,0,0,0,0,0,0,0,0,650,650,650,650,0,0,0,650,
650,0,0,0,650,650,650,650,650,650,650,650,650,650,650,650,650,650,650,650,650,650,650,650,650,650,650,0,0,0,650,650,650,650,650,650,650,650,650,650,650,650,650,650,650,0,0,0,650,650,0,0,0,0,0,0,0,650,650,650,650,650,650,650,650,650,650,650,650,650,650,650,650,650,650,650,0,0,0,650,
650,0,0,0,650,650,650,650,650,650,650,650,650,650,650,650,650,650,650,650,650,650,650,650,650,650,650,0,0,0,650,650,650,650,650,650,650,650,650,650,650,650,650,650,650,0,0,0,650,650,650,650,650,650,650,650,650,650,650,650,650,650,650,650,650,650,650,650,650,650,650,650,650,650,650,650,0,0,0,650,
650,0,0,0,650,650,650,650,650,650,650,650,650,650,650,650,650,650,650,650,650,650,650,650,650,650,650,0,0,0,650,650,650,650,650,650,650,650,650,650,650,650,650,650,650,0,0,0,650,650,650,650,650,650,650,650,650,650,650,650,650,650,650,650,650,650,650,650,650,650,650,650,650,650,650,650,0,0,0,650,
650,0,0,0,650,650,650,650,650,650,650,650,650,650,650,650,650,650,650,650,650,650,650,650,650,650,650,0,0,0,650,650,650,650,650,650,650,650,650,650,650,650,650,650,650,0,0,0,650,650,650,650,650,650,650,650,650,650,650,650,650,650,650,650,650,650,650,650,650,650,650,650,650,650,650,650,0,0,0,650,
650,0,0,0,651,651,651,651,651,651,651,651,651,651,651,651,651,651,651,651,651,651,651,651,651,651,651,0,0,0,651,651,651,651,651,650,650,650,650,650,650,651,651,651,651,0,0,0,651,651,651,651,651,651,651,651,651,651,651,651,651,651,651,651,651,651,651,651,651,651,651,651,651,651,651,651,0,0,0,650,
650,0,0,0,0,0,651,0,0,0,0,0,0,0,0,651,0,0,0,0,0,0,0,0,651,0,0,0,0,0,0,0,651,0,0,650,650,650,650,650,650,0,651,0,0,0,0,0,0,0,651,0,0,0,0,0,0,0,0,651,0,0,0,0,0,0,0,0,0,0,0,0,0,651,0,0,0,0,0,650,
650,0,0,0,0,0,0,0,0,0,0,0,0,0,0,0,0,0,0,0,0,0,0,0,0,0,0,0,0,0,0,0,0,0,0,650,650,650,650,650,650,0,0,0,0,0,0,0,0,0,0,0,0,0,0,0,0,0,0,0,0,0,0,0,0,0,0,0,0,0,0,0,0,0,0,0,0,0,0,650,
650,0,0,0,0,0,0,0,0,0,0,0,0,0,0,0,0,0,0,0,0,0,0,0,0,0,0,0,0,0,0,0,0,0,0,650,650,650,650,650,650,0,0,0,0,0,0,0,0,0,0,0,0,0,0,0,0,0,0,0,0,0,0,0,0,0,0,0,0,0,0,0,0,0,0,0,0,0,0,650,
650,0,0,0,0,0,0,0,0,0,0,0,0,0,0,0,0,0,0,0,0,0,0,0,0,0,0,0,0,0,0,0,0,0,0,650,650,650,650,650,650,0,0,0,0,0,0,0,0,0,0,0,0,0,0,0,0,0,0,0,0,0,0,0,0,0,0,0,0,0,0,0,0,0,0,0,0,0,0,650,
650,650,650,650,650,650,650,650,650,650,650,650,650,650,650,650,650,650,650,650,650,650,650,650,650,650,650,650,650,650,650,650,650,650,650,650,650,650,650,650,650,650,650,650,650,650,650,650,650,650,650,650,650,650,650,650,650,650,650,650,650,650,650,650,650,650,650,650,650,650,650,650,650,650,650,650,650,650,650,650
</data>
 </layer>
 <layer id="15" name="anim" width="80" height="57" visible="0">
  <data encoding="csv">
0,0,0,0,0,0,0,0,0,0,0,0,0,0,0,0,0,0,0,0,0,0,0,0,0,0,0,0,0,0,0,0,0,0,0,0,0,0,0,0,0,730,730,730,730,730,730,730,730,730,730,0,0,0,0,0,730,730,730,730,0,730,730,730,730,730,730,0,730,730,733,733,730,0,730,730,733,733,730,730,
0,730,730,730,0,0,730,730,730,0,0,0,0,730,730,730,730,730,730,730,730,730,730,730,0,0,0,730,730,730,730,730,730,730,730,730,730,0,0,0,0,730,730,0,730,730,730,733,733,730,730,0,0,0,0,0,730,0,0,730,730,730,0,730,730,0,730,0,730,730,733,733,730,0,730,730,733,733,730,730,
0,730,730,0,0,0,0,730,730,0,0,0,0,730,730,730,730,730,733,733,730,730,730,730,0,0,0,730,730,730,730,733,733,730,730,730,730,0,0,0,0,730,730,730,730,0,730,733,733,730,0,0,0,0,0,0,0,0,0,0,0,0,0,0,0,0,0,0,0,0,0,0,0,0,0,0,0,0,0,0,
0,730,0,0,0,0,0,0,730,0,0,0,0,0,0,730,730,730,733,733,730,0,730,730,0,0,0,730,730,730,730,733,733,730,730,730,730,0,0,0,0,0,0,0,0,0,0,0,0,0,0,0,0,0,0,0,0,0,0,0,0,0,0,0,0,0,0,0,0,0,0,0,0,0,0,0,0,0,0,0,
0,0,0,0,0,0,0,0,0,0,0,0,0,0,0,0,0,0,0,0,0,0,0,0,0,0,0,0,0,0,0,0,0,0,0,0,0,0,0,0,0,0,0,0,0,0,0,0,0,0,0,0,0,0,0,0,0,0,0,0,0,0,0,0,0,0,0,0,0,0,0,0,0,0,0,0,0,0,0,0,
0,0,0,0,0,0,0,0,0,0,0,0,0,0,0,0,0,0,0,0,0,0,0,0,0,0,0,0,0,0,0,0,0,0,0,0,0,730,730,730,730,0,0,0,0,0,0,0,0,0,0,0,0,0,0,0,0,0,0,0,0,0,0,0,0,0,0,0,0,0,0,0,0,0,0,0,0,0,0,0,
0,0,0,0,0,0,0,0,0,0,0,0,0,0,0,0,0,0,0,0,0,0,0,0,0,0,0,0,0,0,0,0,0,0,0,0,0,0,0,0,0,0,0,0,0,0,0,0,0,0,0,0,0,0,0,0,0,0,0,0,0,0,0,0,0,0,0,0,0,0,0,0,0,0,0,0,0,0,0,0,
0,0,0,0,0,0,0,0,0,0,0,0,0,0,0,0,0,0,0,0,0,0,0,0,730,730,730,0,0,0,0,0,0,0,0,0,0,0,0,0,0,0,0,0,0,0,0,0,0,0,0,0,0,0,0,0,0,0,0,0,0,0,0,0,730,730,730,730,730,730,730,730,730,730,730,730,730,0,730,0,
0,0,0,0,0,0,0,0,0,0,0,0,0,0,0,0,0,0,0,0,0,0,0,0,0,0,0,0,0,0,0,0,0,0,0,0,0,0,0,0,0,0,0,0,0,0,0,0,0,0,0,0,0,0,0,0,0,0,0,0,0,0,0,0,0,0,0,0,0,0,0,0,0,0,0,0,0,0,0,0,
0,0,0,0,0,0,0,0,0,0,0,0,0,0,0,0,0,0,0,0,0,0,0,0,0,0,0,0,0,0,0,0,0,0,0,0,0,0,0,0,0,0,0,0,730,730,730,730,730,730,730,730,730,0,0,0,0,0,0,730,730,730,730,730,0,0,0,0,0,0,0,0,0,0,0,0,0,0,0,0,
0,0,0,0,0,0,0,0,0,0,0,0,0,0,0,0,0,0,0,0,0,0,0,0,0,0,0,0,0,0,0,0,0,0,0,0,0,0,0,0,0,0,0,0,0,0,0,0,0,0,0,0,0,0,0,0,0,0,0,0,0,0,0,0,0,0,0,0,0,0,0,0,0,0,0,0,0,0,0,0,
0,0,0,0,0,0,0,0,730,730,730,730,730,0,0,0,0,0,0,0,0,0,0,0,0,0,0,0,0,0,0,0,0,0,0,0,0,0,0,0,0,0,0,0,0,0,0,0,0,0,0,0,0,0,0,0,0,0,0,0,0,0,0,0,0,0,0,0,0,0,0,0,0,0,0,0,0,0,0,0,
0,0,0,0,0,0,0,0,0,0,0,0,0,0,0,0,0,0,0,0,0,0,0,0,0,0,0,0,0,0,0,0,0,0,0,0,0,0,0,0,0,0,0,0,0,0,0,0,0,0,0,0,0,0,0,0,0,0,0,0,0,0,0,0,0,0,0,0,0,0,0,0,0,0,0,0,0,0,0,0,
0,0,0,0,0,0,0,0,0,0,0,0,0,0,0,0,0,0,0,0,0,0,0,0,0,0,0,0,0,0,0,0,0,0,0,0,0,0,0,0,0,0,0,0,0,0,0,0,0,0,0,0,0,0,0,0,0,0,0,0,0,0,0,0,0,0,0,0,0,0,0,0,0,0,0,0,0,0,0,0,
0,730,730,0,0,0,0,0,0,0,0,0,0,0,0,0,0,0,0,0,0,0,0,0,0,0,0,0,0,0,0,0,0,0,0,0,0,0,0,0,0,0,0,0,0,0,0,0,0,0,0,0,0,0,0,0,0,0,0,0,0,0,0,0,0,0,0,730,0,730,730,730,0,0,730,0,0,0,0,0,
0,0,0,0,0,0,0,0,0,0,0,0,0,0,0,0,0,0,730,730,730,730,730,0,0,0,0,0,0,0,0,0,0,0,0,0,0,0,0,0,0,0,0,0,0,0,0,0,0,0,0,0,0,0,0,0,0,0,0,0,0,0,0,0,0,0,0,0,0,0,0,0,0,0,0,0,0,0,0,0,
0,0,0,0,0,0,0,0,0,0,0,0,0,0,0,0,0,0,0,0,0,0,0,0,0,0,0,0,0,0,0,0,0,0,0,0,0,0,0,0,0,730,730,730,730,730,730,730,730,730,0,0,0,730,730,730,730,730,730,730,730,0,0,0,0,0,0,0,0,0,0,0,0,0,0,0,0,0,0,0,
0,0,0,0,0,0,0,0,0,0,0,0,0,0,0,0,0,0,0,0,0,0,0,730,730,730,730,730,730,730,730,730,730,730,0,0,0,0,0,0,0,0,0,0,0,0,0,0,0,0,0,0,0,0,0,0,0,0,0,0,0,0,0,0,0,0,0,0,0,0,0,0,0,0,0,0,0,0,0,0,
0,0,0,0,0,0,0,0,0,0,0,0,0,0,0,0,0,0,0,0,0,0,0,0,0,0,0,0,0,0,0,0,0,0,0,0,0,0,0,0,0,0,0,0,0,0,0,0,0,0,0,0,0,0,0,0,0,0,0,0,0,0,0,0,0,0,0,0,0,0,0,0,0,0,0,0,0,0,0,0,
0,0,0,0,0,730,730,730,730,730,730,730,730,730,730,730,730,730,0,0,0,0,0,0,0,0,0,0,0,0,0,0,0,0,0,0,0,0,0,0,0,0,0,0,0,0,0,0,0,0,0,0,0,0,0,0,0,0,0,0,0,0,0,0,0,0,0,0,0,0,0,0,0,0,0,0,0,0,0,0,
0,0,0,0,0,0,0,0,0,0,0,0,0,0,0,0,0,0,0,0,0,0,0,0,0,0,0,0,0,0,0,0,0,0,0,0,0,0,0,0,0,0,0,0,0,0,0,0,0,0,0,0,0,0,0,0,0,0,0,0,0,0,0,0,730,730,730,730,0,730,730,730,730,730,730,0,730,0,0,0,
0,0,0,0,0,0,0,0,0,0,0,0,0,0,0,0,0,0,0,0,0,0,0,0,0,0,0,0,0,0,0,0,0,0,0,0,0,0,0,0,0,0,0,0,0,0,0,0,0,0,0,0,0,0,0,0,0,0,0,0,0,0,0,0,0,0,0,0,0,0,0,0,0,0,0,0,0,0,0,0,
0,0,0,0,0,0,0,0,0,0,0,0,0,0,0,0,0,0,0,0,0,0,0,0,0,0,0,0,0,0,0,0,0,0,0,0,0,0,0,0,0,730,730,730,730,730,730,730,730,730,730,730,730,730,730,730,0,0,730,730,730,0,0,0,0,0,0,0,0,0,0,0,0,0,0,0,0,0,0,0,
0,0,0,0,0,0,0,0,0,0,0,0,0,0,0,0,0,0,0,0,0,0,0,0,0,0,0,0,0,0,0,0,0,0,0,0,0,0,0,0,0,730,730,730,730,733,733,730,730,730,730,730,0,730,730,0,0,0,0,730,730,0,0,0,0,0,0,0,0,0,0,0,0,0,0,0,0,0,0,0,
0,0,0,0,0,0,0,0,0,0,0,0,0,0,0,0,0,0,0,0,0,0,0,0,0,0,0,0,0,0,0,0,0,0,0,0,0,0,0,0,0,730,730,0,730,733,733,730,0,730,0,0,730,730,0,0,731,731,0,0,730,0,0,0,0,0,0,0,0,0,0,0,0,0,0,0,0,0,0,0,
0,730,730,730,730,730,730,730,730,0,0,730,730,730,730,0,0,0,0,0,0,0,0,0,0,0,0,0,0,0,0,0,0,0,0,0,0,0,0,0,0,0,0,0,0,0,0,0,0,0,0,0,0,0,0,0,731,731,0,0,0,0,0,0,0,0,0,0,0,0,0,0,0,0,0,0,0,0,0,0,
0,730,730,730,730,730,730,730,0,0,0,0,730,730,730,0,0,0,0,0,0,0,0,0,730,730,0,0,730,730,0,0,0,0,0,0,0,0,0,0,0,0,0,0,0,0,0,0,0,0,0,0,0,0,0,0,0,0,0,0,0,0,0,0,0,0,0,0,0,0,0,0,0,0,0,0,0,0,0,0,
0,730,730,0,0,730,730,0,0,731,731,0,0,730,730,0,0,730,730,730,730,730,730,730,0,0,0,0,0,0,0,0,0,0,0,0,0,0,0,0,0,0,0,0,0,0,0,0,0,0,0,0,0,0,0,0,0,0,0,0,0,0,0,0,0,0,0,0,0,0,0,0,0,0,0,0,0,0,0,0,
0,0,0,0,0,0,0,0,0,731,731,0,0,0,0,0,0,0,0,0,0,0,0,0,0,0,0,0,0,0,0,0,0,0,0,0,0,0,0,0,0,0,0,0,0,0,0,0,0,0,0,0,0,0,0,0,0,0,0,0,0,0,0,0,0,0,0,0,0,0,0,0,0,0,0,0,0,0,0,0,
0,0,0,0,0,0,0,0,0,0,0,0,0,0,0,0,0,0,0,0,0,0,0,0,0,0,0,0,0,0,0,0,0,0,0,0,0,0,0,0,0,0,0,0,0,0,0,0,0,0,0,0,0,0,0,0,0,0,0,0,0,0,0,0,0,0,0,0,0,0,0,0,0,0,0,0,0,0,0,0,
0,0,0,0,0,0,0,0,0,0,0,0,0,0,0,0,0,0,0,0,0,0,0,0,0,0,0,0,0,0,0,0,0,0,0,0,0,0,0,0,0,0,0,0,0,0,0,0,0,0,0,0,0,0,0,0,0,0,0,0,0,0,0,0,0,0,0,0,0,0,0,0,0,0,0,0,0,0,0,0,
0,0,0,0,0,0,0,0,0,0,0,0,0,0,0,0,0,0,0,0,0,0,0,0,0,0,0,0,0,0,0,0,0,0,731,731,731,0,0,0,0,0,0,0,0,0,0,0,0,0,0,0,0,0,0,0,0,0,0,0,0,0,0,0,0,0,0,0,0,0,0,0,0,0,0,0,0,0,0,0,
0,0,0,0,0,0,0,0,0,0,0,0,0,0,0,0,0,0,0,0,0,0,0,0,0,0,0,0,0,0,0,0,0,0,731,731,731,0,0,0,0,0,0,0,0,0,0,0,0,0,0,0,0,0,0,0,0,0,0,0,0,0,0,0,0,0,0,730,730,0,730,730,0,0,730,730,730,730,730,0,
0,0,0,0,0,0,0,0,0,0,0,0,0,0,0,0,0,0,0,0,0,0,0,0,0,0,0,0,0,0,730,730,730,730,0,0,0,0,0,0,0,0,0,0,0,0,0,0,0,0,0,0,0,0,0,0,0,0,0,0,0,0,0,0,0,0,0,0,0,0,0,0,0,0,0,0,0,0,0,0,
0,0,0,0,0,0,0,0,0,0,0,0,0,0,0,0,0,0,0,0,0,0,0,0,0,0,0,0,0,0,0,0,0,0,0,0,0,0,0,0,0,0,0,0,0,0,0,0,0,0,0,0,0,0,0,0,0,0,0,0,0,0,0,0,0,0,0,0,0,0,0,0,0,0,0,0,0,0,0,0,
0,0,0,0,0,0,0,0,0,0,0,0,0,0,0,0,0,0,0,0,0,0,0,0,0,0,0,0,0,0,0,0,0,0,0,0,0,0,0,0,0,0,0,0,0,0,0,0,0,0,0,0,0,0,0,0,0,0,0,0,0,0,0,0,0,0,0,0,0,0,0,0,0,0,0,0,0,0,0,0,
0,0,0,0,0,0,0,0,0,0,0,0,0,0,0,0,0,0,0,0,0,0,0,0,0,0,0,0,0,0,0,0,0,0,0,0,0,0,0,0,0,0,0,0,0,0,0,0,0,0,0,0,0,0,0,0,0,0,0,0,0,0,0,0,0,0,0,0,0,0,0,0,0,0,0,0,0,0,0,0,
0,0,0,0,0,0,0,0,0,0,0,0,0,0,0,0,0,0,0,0,0,0,0,0,0,0,0,0,0,0,0,0,0,0,0,0,0,0,0,0,0,0,0,0,0,0,0,0,0,0,0,0,0,0,0,0,0,0,0,0,0,0,0,0,0,0,0,0,0,0,0,0,0,0,0,0,0,0,0,0,
0,0,0,0,0,0,0,0,0,0,0,0,0,0,0,0,0,0,0,0,0,0,0,0,0,0,0,0,0,0,0,0,0,0,0,0,0,0,0,0,0,0,0,0,0,0,0,0,0,0,0,0,0,0,0,0,0,0,0,0,0,0,0,0,0,0,0,0,0,0,0,0,0,0,0,0,0,0,0,0,
0,0,0,0,0,0,0,0,0,0,0,0,0,0,0,0,0,0,0,0,730,730,730,0,0,0,0,0,0,0,0,0,0,0,0,0,0,0,0,0,0,0,0,0,0,0,0,0,0,0,730,730,730,730,730,730,730,0,0,0,0,0,0,0,0,0,0,0,0,0,0,0,0,0,0,0,0,0,0,0,
0,0,0,0,0,0,0,0,0,0,0,0,0,0,0,0,0,0,0,0,0,0,0,0,0,0,0,0,0,0,0,0,0,0,0,0,0,0,0,0,0,0,0,0,0,731,731,731,0,0,730,730,730,730,730,730,730,0,0,0,0,0,0,0,0,0,0,0,0,731,731,731,0,0,0,0,0,0,0,0,
0,0,0,0,0,0,0,0,0,731,731,731,0,0,0,0,0,0,0,0,0,0,0,0,0,0,0,0,0,0,0,0,0,0,0,0,0,0,0,0,0,0,0,0,0,731,731,731,0,0,0,0,0,0,0,0,0,0,0,0,0,0,0,0,0,0,0,0,0,731,731,731,0,0,0,0,0,0,0,0,
0,730,730,730,730,730,730,730,730,731,731,731,0,0,0,0,0,0,0,0,0,0,0,730,730,730,730,730,730,730,0,0,0,0,0,0,0,0,0,0,0,0,0,0,0,0,0,0,0,0,0,732,0,732,0,732,0,730,730,730,730,730,730,730,730,730,730,730,730,0,0,0,0,0,0,0,0,0,0,0,
0,730,730,730,730,730,730,730,730,0,0,0,0,0,0,0,0,0,0,732,732,0,0,730,730,730,730,730,730,730,0,0,0,0,0,0,0,0,0,0,0,0,0,0,0,0,732,732,0,0,0,0,732,0,732,0,0,730,730,730,730,730,0,0,730,730,730,730,730,0,732,0,0,0,0,0,0,732,732,0,
0,0,0,0,0,0,0,0,0,0,732,732,0,0,0,0,0,0,0,0,0,0,732,0,0,0,0,0,0,0,0,0,0,0,0,0,0,0,0,0,0,0,0,0,0,0,0,0,0,0,0,0,0,732,0,0,732,0,0,0,0,0,0,0,0,0,0,0,0,0,0,732,0,0,0,0,0,0,732,0,
0,0,732,0,732,0,732,732,0,0,0,0,0,0,0,0,0,0,0,0,0,0,0,0,0,732,732,0,732,0,0,0,0,0,0,0,0,0,0,0,0,0,0,0,0,0,732,0,0,0,0,0,732,0,0,0,0,0,0,732,732,0,732,0,732,732,0,732,0,732,0,0,0,0,0,0,0,0,732,0,
0,0,0,0,0,0,0,0,0,0,0,0,0,0,0,0,0,0,0,0,0,0,0,0,0,0,0,0,732,0,0,0,0,0,0,0,0,0,0,0,0,0,0,0,0,0,0,0,0,0,0,0,0,0,732,732,0,0,0,0,0,0,0,0,0,0,0,0,0,0,0,0,0,0,0,0,0,732,0,0,
0,0,0,0,0,0,0,0,0,0,0,0,0,0,0,0,0,0,0,0,0,0,0,0,0,0,0,0,0,0,0,0,0,0,0,0,0,0,0,0,0,0,0,0,0,0,0,0,0,0,0,0,0,0,0,0,0,0,0,0,0,0,0,0,0,0,0,0,0,0,0,0,0,0,0,0,0,0,0,0,
0,0,0,0,0,0,0,0,0,0,0,0,0,0,0,0,0,0,0,0,0,0,0,0,0,0,0,0,0,0,0,0,0,0,0,0,0,0,0,0,0,0,0,0,0,0,0,0,0,0,0,0,0,0,0,0,0,0,0,0,0,0,0,0,0,0,0,0,0,0,0,0,0,0,0,0,0,0,0,0,
0,0,0,0,730,735,0,735,0,0,735,0,0,0,735,0,0,0,0,735,735,735,0,735,0,735,730,0,0,0,0,735,0,735,0,0,0,0,0,0,0,735,0,735,0,0,0,0,730,735,0,735,0,0,735,0,0,0,735,0,0,0,0,735,735,0,0,0,735,735,0,735,735,0,735,730,0,0,0,0,
0,0,732,0,730,0,732,735,0,0,735,0,0,0,735,732,0,0,0,735,735,735,0,735,732,0,0,0,0,0,0,0,732,0,0,0,0,0,0,0,0,0,732,0,0,0,732,0,730,0,732,735,0,0,735,0,0,0,735,732,0,0,0,735,735,0,0,0,735,735,0,735,735,732,0,0,0,0,732,0,
0,0,0,0,0,0,732,0,0,0,0,0,0,0,0,732,0,0,0,0,0,0,0,0,732,0,0,0,732,0,0,0,732,0,0,0,0,0,0,0,0,0,732,0,0,0,0,732,0,0,732,0,0,0,0,0,0,0,0,732,0,0,0,0,0,0,0,0,0,0,0,0,0,732,0,0,0,0,732,0,
0,0,732,0,0,732,732,732,0,0,0,0,0,0,732,732,732,0,0,0,0,0,0,732,732,732,0,0,0,0,0,732,732,732,0,0,0,0,0,0,0,732,732,732,0,0,0,732,0,732,732,732,0,0,0,0,0,0,732,732,732,0,0,0,0,0,0,0,0,0,0,0,732,732,732,0,0,0,732,0,
0,0,0,0,732,0,0,0,0,732,0,0,0,0,0,0,0,0,0,0,732,0,0,0,0,0,0,0,0,732,0,0,0,0,0,0,0,0,0,0,0,0,0,732,0,0,732,732,732,0,0,0,0,0,0,0,0,0,0,0,0,732,732,0,0,732,0,0,0,0,0,0,0,0,732,0,0,0,0,0,
0,0,0,0,0,0,0,0,0,0,0,0,0,732,0,0,0,0,0,732,0,0,0,0,0,0,732,0,0,0,732,0,0,0,0,0,0,0,0,0,0,0,732,0,732,0,0,0,0,0,732,732,732,732,732,732,0,0,0,0,0,0,0,0,732,732,0,732,0,0,732,732,732,0,0,732,732,0,0,0,
0,0,0,0,0,0,0,0,0,0,0,0,0,0,0,0,0,0,0,0,0,0,0,0,0,0,0,0,0,0,0,0,0,0,0,0,0,0,0,0,0,0,0,0,0,0,0,0,0,0,0,0,0,0,0,0,0,0,0,0,0,0,0,0,0,0,0,0,0,0,0,0,0,0,0,0,0,0,0,0,
0,0,0,0,0,0,0,0,0,0,0,0,0,0,0,0,0,0,0,0,0,0,0,0,0,0,0,0,0,0,0,0,0,0,0,0,0,0,0,0,0,0,0,0,0,0,0,0,0,0,0,0,0,0,0,0,0,0,0,0,0,0,0,0,0,0,0,0,0,0,0,0,0,0,0,0,0,0,0,0
</data>
 </layer>
 <layer id="5" name="event" width="80" height="57" visible="0">
  <data encoding="csv">
0,0,0,0,0,0,0,0,0,0,0,0,0,0,0,0,0,0,0,0,0,0,0,0,0,0,0,0,0,0,0,0,0,0,0,0,0,0,0,0,0,0,0,0,0,0,0,0,0,0,0,0,0,0,0,0,0,0,0,0,0,0,0,0,0,0,0,0,0,0,0,0,0,0,0,0,0,0,0,0,
0,0,0,0,0,0,0,0,0,0,0,0,0,0,0,0,0,0,0,0,0,0,0,0,0,0,0,0,0,0,0,0,0,0,0,0,0,0,0,0,0,0,0,0,0,0,0,0,0,0,0,0,0,0,0,0,0,0,0,0,0,0,0,0,0,0,0,0,0,0,0,0,0,0,0,0,0,0,0,0,
0,0,0,0,600,600,0,0,0,0,0,0,0,0,0,0,0,0,0,0,0,0,0,0,0,0,0,0,0,0,0,0,0,0,0,0,0,0,0,0,0,0,0,0,0,0,0,0,0,0,0,0,0,0,0,0,0,0,0,0,0,587,587,587,0,0,0,0,0,0,0,0,0,0,0,0,586,0,0,0,
0,0,0,0,600,600,0,0,0,0,0,0,0,0,0,0,0,0,0,0,0,0,0,0,0,0,0,0,0,0,0,0,0,0,0,0,0,0,0,0,0,0,0,0,0,0,0,0,0,0,0,0,0,0,0,0,0,0,0,0,0,587,587,587,0,0,0,0,0,0,0,0,0,0,0,0,586,0,0,0,
0,0,0,0,0,0,0,0,0,0,0,0,0,0,0,0,0,0,0,0,0,0,0,0,0,0,0,0,0,0,0,0,0,0,0,0,0,0,0,0,0,0,0,0,0,0,0,0,0,0,0,0,0,0,0,0,0,0,0,0,0,587,587,587,0,0,0,0,0,0,0,0,0,0,0,0,586,0,0,0,
0,0,0,0,0,0,0,0,0,0,0,0,0,0,0,0,0,0,0,0,0,0,0,0,0,0,0,0,0,0,0,0,0,0,0,0,0,0,0,0,0,0,0,0,0,0,0,0,0,0,0,0,0,0,0,0,0,0,0,0,0,0,0,0,0,0,0,0,0,0,0,0,0,0,0,0,0,0,0,0,
0,0,0,0,0,0,0,0,0,0,0,0,0,0,0,0,0,0,0,0,0,0,0,0,0,0,0,0,0,0,0,0,0,0,0,0,0,0,0,0,0,0,0,0,0,0,0,0,0,0,0,0,0,0,0,0,0,0,0,0,0,0,0,0,0,0,0,0,0,0,0,0,0,0,0,0,0,0,0,0,
0,0,0,0,0,0,0,0,0,0,0,0,0,0,0,0,0,0,0,0,0,0,0,0,0,0,0,0,0,0,0,0,0,0,0,0,0,0,0,0,0,0,0,0,0,0,0,0,0,0,0,0,0,0,0,0,0,0,0,0,0,0,0,0,0,0,0,0,0,0,0,0,0,0,0,0,0,0,0,0,
0,0,0,0,0,0,0,0,0,0,0,0,0,0,0,0,0,0,0,0,0,0,0,0,0,0,0,0,0,0,0,0,0,0,0,0,0,0,0,0,0,0,0,0,0,0,0,0,0,0,0,0,0,0,0,0,0,0,0,0,0,0,0,0,0,0,0,0,0,0,0,0,0,0,0,0,0,0,0,0,
0,0,0,0,0,0,0,0,0,0,0,0,0,0,0,0,0,0,0,0,0,0,0,0,0,0,0,0,0,0,0,0,0,0,0,0,0,0,0,0,0,0,0,0,0,0,0,0,0,0,0,0,0,0,0,0,0,0,0,0,0,0,0,0,0,0,0,0,0,0,0,0,0,0,0,0,0,0,0,0,
0,0,0,0,0,0,0,0,0,0,0,0,0,0,0,0,0,0,0,0,0,0,0,0,0,0,0,0,0,0,0,0,0,0,0,0,0,0,0,0,0,0,0,0,0,0,0,0,0,0,0,0,0,0,0,0,0,0,0,0,0,0,0,0,0,0,0,0,0,0,0,0,0,0,0,0,0,0,0,0,
0,0,0,0,0,0,0,0,0,0,0,0,0,0,0,0,0,0,0,0,0,0,0,0,0,0,0,0,0,0,0,0,0,0,0,0,0,0,0,0,0,0,0,0,0,0,0,0,0,0,0,0,0,0,0,0,0,0,0,0,0,0,0,0,0,0,0,0,0,0,0,0,0,0,0,0,0,0,0,0,
0,0,0,0,0,0,0,0,0,0,0,0,0,0,0,0,0,0,0,0,0,0,0,0,0,0,0,0,0,0,0,0,0,0,0,0,0,0,0,0,0,0,0,0,0,0,0,0,0,0,0,0,0,0,0,0,0,0,0,0,0,0,0,0,0,0,0,0,0,0,0,0,0,0,0,0,0,0,0,0,
0,0,0,0,0,0,0,0,0,0,0,0,0,0,0,0,0,0,0,0,0,0,0,0,0,0,0,0,0,0,0,0,0,0,0,0,0,0,0,0,0,0,0,0,0,0,0,0,0,0,0,0,0,0,0,0,0,0,0,0,0,0,0,0,0,0,0,0,0,0,0,0,0,0,0,0,0,0,0,0,
0,0,0,0,0,0,0,0,0,0,0,0,0,0,0,0,0,0,0,0,0,0,0,0,0,0,0,0,0,0,0,0,0,0,0,0,0,0,0,0,0,0,0,0,0,0,0,0,0,0,0,0,0,0,0,0,0,0,0,0,0,0,0,0,0,0,0,0,0,0,0,0,0,0,0,0,0,0,0,0,
0,0,0,0,0,0,0,0,0,0,0,0,0,0,0,0,0,0,0,0,0,0,0,0,0,0,0,0,0,0,0,0,0,0,0,0,0,0,0,0,0,0,0,0,0,0,0,0,0,0,0,0,0,0,0,0,0,0,0,0,0,0,0,0,0,0,0,0,0,0,0,0,0,0,0,0,0,0,0,0,
0,0,0,0,0,0,0,0,0,0,0,0,0,0,0,0,0,0,0,0,0,0,0,0,0,0,0,0,0,0,0,0,0,0,0,0,0,0,0,0,0,0,0,0,0,0,0,0,0,0,593,593,593,0,0,0,0,0,0,0,0,0,0,0,0,0,0,0,0,0,0,0,0,0,0,0,0,0,0,0,
0,0,0,0,0,0,0,0,0,0,0,0,0,0,0,0,0,0,0,0,0,0,0,0,0,0,0,0,0,0,0,0,0,0,0,0,0,0,0,0,0,0,0,0,0,0,0,0,0,0,593,593,593,0,0,0,0,0,0,0,0,0,0,0,0,0,0,0,0,0,0,0,0,0,0,0,0,0,0,0,
0,0,0,0,0,0,0,0,0,0,0,0,0,0,0,0,0,0,0,0,0,0,0,0,0,0,0,0,0,0,0,0,0,0,0,0,0,0,0,0,0,0,0,0,0,0,0,0,0,0,0,0,0,0,0,0,0,0,0,0,0,0,0,0,0,0,0,0,0,0,0,0,0,0,0,0,0,0,0,0,
0,0,0,0,0,0,0,0,0,0,0,0,0,0,0,0,0,0,0,0,0,0,0,0,0,0,0,0,0,0,0,0,0,0,0,0,0,0,0,0,0,0,0,0,0,0,0,0,0,0,0,0,0,0,0,0,0,0,0,0,0,0,0,0,0,0,0,0,0,0,0,0,0,0,0,0,0,0,0,0,
0,0,0,0,0,0,0,0,0,0,0,0,0,0,0,0,0,0,0,0,0,0,0,0,0,0,0,0,0,0,0,0,0,0,0,0,0,0,0,0,0,0,0,0,0,0,0,0,0,0,0,0,0,0,0,592,592,592,592,0,0,0,0,0,0,0,0,0,0,0,0,0,0,0,0,0,0,0,0,0,
0,0,0,0,0,0,0,0,0,0,0,0,0,0,0,0,0,0,0,0,0,0,0,0,0,0,0,0,0,0,0,0,0,0,0,0,0,0,0,0,0,0,0,0,0,0,0,0,0,0,0,0,0,0,0,592,592,592,592,0,0,0,0,0,0,0,0,0,0,0,0,0,0,0,0,0,0,0,0,0,
0,0,0,0,0,0,0,0,0,0,0,0,0,0,0,0,0,0,0,0,0,0,0,0,0,0,0,0,0,0,0,0,0,0,0,0,0,0,0,0,0,0,0,0,0,0,0,0,0,0,0,0,0,0,0,0,0,0,0,0,0,0,0,0,0,0,0,0,0,0,0,0,0,0,0,0,0,0,0,0,
0,0,0,0,0,0,0,0,596,596,596,596,0,0,0,0,0,0,0,0,0,0,0,0,0,0,0,0,0,0,0,0,0,0,0,0,0,0,0,0,0,0,0,0,0,0,0,0,0,0,0,0,0,0,0,0,0,0,0,0,0,0,0,0,0,0,0,0,0,0,0,0,0,0,0,0,0,0,0,0,
0,0,0,0,0,0,0,0,596,596,596,596,0,0,0,0,0,0,0,0,0,0,0,0,0,0,0,0,0,0,0,0,0,0,0,0,0,0,0,0,0,0,0,0,0,0,0,0,0,0,0,0,0,0,0,0,0,0,0,0,0,0,0,0,0,0,0,0,0,0,0,0,0,0,0,0,0,0,0,0,
0,0,0,0,0,0,0,0,0,0,0,0,0,0,0,0,0,0,0,0,0,0,0,0,0,0,0,0,0,0,0,0,0,0,0,0,0,0,0,0,0,0,0,0,0,0,0,0,0,0,0,0,0,0,0,0,0,0,0,0,0,0,0,0,0,0,0,0,0,0,0,0,0,0,0,0,0,0,0,0,
0,0,0,0,0,0,0,0,0,0,0,0,0,0,0,0,0,0,0,0,0,0,0,0,0,0,0,0,0,0,0,0,0,0,0,0,0,0,0,0,0,0,0,0,0,0,0,0,0,0,0,0,0,0,0,0,0,0,0,0,0,0,0,0,0,0,0,0,0,0,0,0,0,0,0,0,0,0,0,0,
0,0,0,0,0,0,0,0,0,0,0,0,0,0,0,0,0,0,0,0,0,0,0,0,0,0,0,0,0,0,0,0,0,0,0,0,0,0,0,0,0,0,0,0,0,0,0,0,0,0,0,0,0,0,0,0,0,0,0,0,0,0,0,0,0,0,0,0,0,0,0,0,0,0,0,0,0,0,0,0,
0,0,0,0,0,0,0,0,0,0,0,0,0,0,0,0,0,0,0,0,0,0,0,0,0,0,0,0,0,0,0,0,0,0,0,0,0,0,0,0,0,0,0,0,0,0,0,0,0,0,0,0,0,0,0,0,0,0,0,0,0,0,0,0,0,0,0,0,0,0,0,0,0,0,0,0,0,0,0,0,
0,0,0,0,0,0,0,0,0,0,0,0,0,0,0,0,0,0,0,0,0,0,0,0,0,0,0,0,0,0,0,0,0,0,602,602,602,0,0,0,0,0,0,0,0,0,0,0,0,0,0,0,0,0,0,0,0,0,0,0,0,0,0,0,0,0,0,0,0,0,0,0,0,0,0,0,0,0,0,0,
0,0,0,0,0,0,0,0,0,0,0,0,0,0,0,0,0,0,0,0,0,0,0,0,0,0,0,0,0,0,0,0,0,0,602,602,602,0,0,0,0,0,0,0,0,0,0,0,0,0,0,0,0,0,0,0,0,0,0,0,0,0,0,0,0,0,0,0,0,0,0,0,0,0,0,0,0,0,0,0,
0,0,0,0,0,0,0,0,0,0,0,0,0,0,0,0,0,0,0,0,0,0,0,0,0,0,0,0,0,0,0,0,0,0,602,602,602,0,0,0,0,0,0,0,0,0,0,0,0,0,0,0,0,0,0,0,0,0,0,0,0,0,0,0,0,0,0,0,0,0,0,0,0,0,0,0,0,0,0,0,
0,0,0,0,0,0,0,0,0,0,0,0,0,0,0,0,0,0,0,0,0,0,0,0,0,0,0,0,0,0,0,0,0,0,0,0,0,0,0,0,0,0,0,0,0,0,0,0,0,0,0,0,0,0,0,0,0,0,0,0,0,0,0,0,0,0,0,0,0,0,0,0,0,0,0,0,0,0,0,0,
0,0,0,0,0,0,0,0,0,0,0,0,0,0,0,0,0,0,0,0,0,0,0,0,0,0,0,0,0,0,0,0,0,0,0,0,0,0,0,0,0,0,0,0,0,0,0,0,0,0,0,0,0,0,0,0,0,0,0,0,0,0,0,0,0,0,0,0,0,0,0,0,0,0,0,0,0,0,0,0,
0,0,0,0,0,0,0,0,0,0,0,0,0,0,0,0,0,0,0,0,0,0,0,0,0,0,0,0,0,0,0,0,0,0,0,0,0,0,0,0,0,0,0,0,0,0,0,0,0,0,0,0,0,0,0,0,0,0,0,0,0,0,0,0,0,0,0,0,0,0,0,0,0,0,0,0,0,0,0,0,
0,0,0,0,0,0,0,0,0,0,0,0,0,0,0,0,0,0,0,0,0,0,0,0,0,0,0,0,0,0,0,0,0,0,0,0,0,0,0,0,0,0,0,0,0,0,0,0,0,0,0,0,0,0,0,0,0,0,0,0,0,0,0,0,0,0,0,0,0,0,0,0,0,0,0,0,0,0,0,0,
0,0,0,0,0,0,0,0,0,0,0,0,0,0,0,0,0,0,0,0,0,0,0,0,0,0,0,0,0,0,0,0,0,0,0,0,0,0,0,0,0,0,0,0,591,591,591,591,591,0,0,0,0,0,0,0,0,0,0,0,0,0,0,0,0,0,0,0,0,0,0,0,0,0,0,0,0,0,0,0,
0,0,0,0,0,0,0,0,0,0,0,0,0,0,0,0,0,0,0,0,0,0,0,0,0,0,0,0,0,0,0,0,0,0,0,0,0,0,0,0,0,0,0,0,591,591,591,591,591,0,0,0,0,0,0,0,0,0,0,0,0,0,0,0,0,0,0,0,0,0,0,0,0,0,0,0,0,0,0,0,
0,0,0,0,0,0,0,595,595,595,595,595,595,595,0,0,0,0,0,0,0,0,0,0,0,0,0,0,0,0,0,0,0,0,0,0,0,0,0,0,0,0,0,0,0,0,0,0,0,0,0,0,0,0,0,0,0,0,0,0,0,0,0,0,0,0,0,0,0,588,588,588,0,0,0,0,0,0,0,0,
0,0,0,0,0,0,0,595,595,595,595,595,595,595,0,0,0,594,594,594,0,0,0,0,0,0,0,0,0,0,0,0,0,0,0,0,0,0,0,0,0,0,0,0,0,0,0,0,0,0,0,0,0,0,0,0,0,0,0,0,0,0,0,0,0,0,0,0,0,588,588,588,0,0,0,0,0,0,0,0,
0,0,0,0,0,0,0,595,595,0,0,0,595,595,0,0,0,594,594,594,0,0,0,0,0,0,0,0,0,0,0,0,0,0,0,0,0,0,0,0,0,0,0,0,0,0,0,0,0,0,0,0,0,0,0,0,0,0,0,0,0,0,0,0,0,0,0,0,0,588,588,588,0,0,0,0,0,0,0,0,
0,0,0,0,0,0,0,0,0,0,0,0,0,0,0,0,0,0,0,0,0,0,0,0,0,0,0,0,0,0,0,0,0,0,0,0,0,0,0,0,0,0,0,0,0,597,597,597,0,0,590,590,590,590,0,0,0,0,0,0,0,0,0,0,0,0,0,0,0,588,588,588,0,0,0,0,589,589,589,0,
0,0,0,0,0,0,0,0,0,603,603,603,0,0,0,0,0,0,0,0,0,0,0,0,0,0,0,0,0,0,0,0,0,0,0,0,0,0,0,0,0,0,0,0,0,597,597,597,0,0,590,590,590,590,0,0,0,0,0,0,0,0,0,0,0,0,0,0,0,0,0,0,0,0,0,0,0,0,0,0,
0,0,0,0,0,0,0,0,0,603,603,603,0,0,0,0,0,0,0,0,0,0,0,0,0,0,0,0,0,0,0,0,0,0,0,0,0,0,0,0,0,0,0,0,0,0,0,0,0,0,590,590,590,590,0,0,0,0,0,0,0,0,0,0,0,0,0,0,0,0,0,0,0,0,0,0,0,0,0,0,
0,0,0,0,0,0,0,0,0,0,0,0,0,0,0,0,0,0,0,0,0,0,0,0,0,0,0,0,0,0,0,0,0,0,0,0,0,0,0,0,0,0,0,0,0,0,0,0,0,0,0,0,0,0,0,0,0,0,0,0,0,0,0,0,0,0,0,0,0,0,0,0,0,0,0,0,0,0,0,0,
0,0,0,0,0,0,0,0,0,0,0,0,0,0,0,0,0,0,0,0,0,0,0,0,0,0,0,0,0,0,0,0,0,0,0,0,0,0,0,0,0,0,0,0,0,0,0,0,0,0,0,0,0,0,0,0,0,0,0,0,0,0,0,0,0,0,0,0,0,0,0,0,0,0,0,0,0,0,0,0,
0,0,0,0,0,0,0,0,0,0,0,0,0,0,0,0,0,0,0,0,0,0,0,0,0,0,0,0,0,0,0,0,0,0,0,0,0,0,0,0,0,0,0,0,0,0,0,0,0,0,0,0,0,0,0,0,0,0,0,0,0,0,0,0,0,0,0,0,0,0,0,0,0,0,0,0,0,0,0,0,
0,0,0,0,0,0,0,0,0,0,0,0,0,0,0,0,0,0,0,0,0,0,0,0,0,0,0,0,0,0,0,0,0,0,0,0,0,0,0,0,0,0,0,0,0,0,0,0,0,0,0,0,0,0,0,0,0,0,0,0,0,0,0,0,0,0,0,0,0,0,0,0,0,0,0,0,0,0,0,0,
0,0,0,0,0,0,0,0,0,0,0,0,0,0,0,0,0,0,0,0,0,0,0,0,0,0,0,0,0,0,0,0,0,0,0,0,0,0,0,0,0,0,0,0,0,0,0,0,0,0,0,0,0,0,0,0,0,0,0,0,0,0,0,0,0,0,0,0,0,0,0,0,0,0,0,0,0,0,0,0,
0,0,0,0,0,0,0,0,0,0,0,0,0,0,0,0,0,0,0,0,0,0,0,0,0,0,0,0,0,0,0,0,0,0,0,0,0,0,0,0,0,0,0,0,0,0,0,0,0,0,0,0,0,0,0,0,0,0,0,0,0,0,0,0,0,0,0,0,0,0,0,0,0,0,0,0,0,0,0,0,
0,0,0,0,0,0,0,0,0,0,0,0,0,0,0,0,0,0,0,0,0,0,0,0,0,0,0,0,0,0,0,0,0,0,0,0,0,0,0,0,0,0,0,0,0,0,0,0,0,0,0,0,0,0,0,0,0,0,0,0,0,0,0,0,0,0,0,0,0,0,0,0,0,0,0,0,0,0,0,0,
0,0,0,0,0,0,0,0,0,0,0,0,0,0,0,0,0,0,0,0,0,0,0,0,0,0,0,0,0,0,0,0,0,0,0,0,0,0,0,0,0,0,0,0,0,0,0,0,0,0,0,0,0,0,0,0,0,0,0,0,0,0,0,0,0,0,0,0,0,0,0,0,0,0,0,0,0,0,0,0,
0,0,0,0,0,0,0,0,0,0,0,0,0,0,0,0,0,0,0,0,0,0,0,0,0,0,0,0,0,0,0,0,0,0,0,0,0,0,0,0,0,0,0,0,0,0,0,0,0,0,0,0,0,0,0,0,0,0,0,0,0,0,0,0,0,0,0,0,0,0,0,0,0,0,0,0,0,0,0,0,
0,0,0,0,0,0,0,0,0,0,0,0,0,0,0,0,0,0,0,0,0,0,0,0,0,0,0,0,0,0,0,0,0,0,0,0,0,0,0,0,0,0,0,0,0,0,0,0,0,0,0,0,0,0,0,0,0,0,0,0,0,0,0,0,0,0,0,0,0,0,0,0,0,0,0,0,0,0,0,0,
0,0,0,0,0,0,0,0,0,0,0,0,0,0,0,0,0,0,0,0,0,0,0,0,0,0,0,0,0,0,0,0,0,0,0,0,0,0,0,0,0,0,0,0,0,0,0,0,0,0,0,0,0,0,0,0,0,0,0,0,0,0,0,0,0,0,0,0,0,0,0,0,0,0,0,0,0,0,0,0,
0,0,0,0,0,0,0,0,0,0,0,0,0,0,0,0,0,0,0,0,0,0,0,0,0,0,0,0,0,0,0,0,0,0,0,0,0,0,0,0,0,0,0,0,0,0,0,0,0,0,0,0,0,0,0,0,0,0,0,0,0,0,0,0,0,0,0,0,0,0,0,0,0,0,0,0,0,0,0,0,
0,0,0,0,0,0,0,0,0,0,0,0,0,0,0,0,0,0,0,0,0,0,0,0,0,0,0,0,0,0,0,0,0,0,0,0,0,0,0,0,0,0,0,0,0,0,0,0,0,0,0,0,0,0,0,0,0,0,0,0,0,0,0,0,0,0,0,0,0,0,0,0,0,0,0,0,0,0,0,0
</data>
 </layer>
 <layer id="6" name="hspot" width="80" height="57" visible="0">
  <data encoding="csv">
0,0,0,0,0,0,0,0,0,0,0,0,0,0,0,0,0,0,0,0,0,0,0,0,0,0,0,0,0,0,0,0,0,0,0,0,0,0,0,0,0,0,0,0,0,0,0,0,0,0,0,0,0,0,0,0,0,0,0,0,0,0,0,0,0,0,0,0,0,0,0,0,0,0,0,0,0,0,0,0,
0,0,0,0,0,0,0,0,0,0,0,0,0,0,0,0,0,0,0,0,0,0,0,0,0,0,0,0,0,0,0,0,0,0,0,0,0,0,0,0,0,0,0,0,0,0,0,0,0,0,0,0,0,0,0,0,0,0,0,0,0,0,0,0,0,0,0,0,0,0,0,0,0,0,0,0,0,0,0,0,
0,0,0,0,0,0,0,0,0,0,0,0,0,0,0,0,0,0,0,0,0,0,0,0,0,0,0,0,0,0,0,0,0,0,0,0,0,0,0,0,0,0,0,0,0,0,0,0,0,0,0,0,0,0,0,0,0,0,0,0,0,0,0,0,0,0,0,0,0,0,0,0,0,0,0,0,0,0,0,0,
0,0,0,0,0,0,0,0,0,0,0,0,0,0,0,0,0,0,0,0,0,0,0,0,0,0,0,0,0,0,0,0,0,0,0,0,0,0,0,0,0,0,0,0,0,0,0,0,0,0,0,0,0,0,0,0,0,0,0,0,0,0,0,0,0,0,0,0,0,0,0,0,0,0,0,0,0,0,0,0,
0,0,0,0,0,0,0,0,0,0,0,0,0,0,0,0,0,0,0,0,0,0,0,0,0,0,0,0,0,0,0,0,0,0,0,0,0,0,0,0,0,0,0,0,0,0,0,0,0,0,0,0,0,0,0,0,0,0,0,0,0,0,0,0,0,0,0,0,0,0,0,0,0,0,0,0,0,0,0,0,
0,0,0,0,0,0,0,0,0,0,0,0,0,0,0,0,0,0,0,0,0,0,0,0,0,0,0,0,0,0,0,0,0,0,0,0,0,0,0,0,0,0,0,0,0,0,0,0,0,0,0,0,0,0,0,0,0,0,0,0,0,0,0,0,0,0,0,0,0,0,0,0,0,0,0,0,0,0,0,0,
0,0,0,0,0,0,0,0,0,0,0,0,0,0,0,0,0,0,0,0,0,0,0,0,0,0,0,0,0,0,0,0,0,0,0,0,0,0,0,0,0,0,0,0,0,0,0,0,0,0,0,0,0,0,0,0,0,0,0,0,0,0,0,0,0,0,0,0,0,0,0,0,0,0,0,0,0,0,0,0,
0,0,0,0,0,0,0,0,0,0,0,0,0,0,0,0,0,0,0,0,0,0,0,0,0,0,0,0,0,0,0,0,0,0,0,0,0,0,0,0,0,0,0,0,0,0,0,0,0,0,0,0,0,0,0,0,0,0,0,0,0,0,0,0,0,0,0,0,0,0,0,0,0,0,0,0,0,0,0,0,
0,0,0,0,0,0,0,0,0,0,0,0,0,0,0,0,0,0,0,0,0,0,0,0,0,0,0,0,0,0,0,0,0,0,0,0,0,0,0,0,0,0,0,0,0,0,0,0,0,0,0,0,0,0,0,0,0,0,0,0,0,0,0,0,0,0,0,0,0,0,0,0,0,0,0,0,0,0,0,0,
0,0,0,0,0,0,0,0,0,0,0,0,0,0,0,0,0,0,0,0,0,0,0,0,0,0,0,0,0,0,0,0,0,0,0,0,0,0,0,0,0,0,0,0,0,0,0,0,0,0,0,0,0,0,0,0,0,0,0,0,0,0,0,0,0,0,0,0,0,0,0,0,0,0,0,0,0,0,0,0,
0,0,0,0,0,0,0,0,0,0,0,0,0,0,0,0,0,0,0,0,0,0,0,0,0,0,0,0,0,0,0,0,0,0,0,0,0,0,0,0,0,0,0,0,0,0,0,0,0,0,0,0,0,0,0,0,0,0,0,0,0,0,0,0,0,0,0,0,0,0,0,0,0,0,0,0,0,0,0,0,
0,0,0,0,0,0,0,0,0,0,0,0,0,0,0,0,0,0,0,0,0,0,0,0,0,0,0,0,0,0,0,0,0,0,0,0,0,0,0,0,0,0,0,0,0,0,0,0,0,0,0,0,0,0,0,0,0,0,0,0,0,0,0,0,0,0,0,0,0,0,0,0,0,0,0,0,0,0,0,0,
0,0,0,0,0,0,0,0,0,0,0,0,0,0,0,0,0,0,0,0,0,0,0,0,0,0,0,0,0,0,0,0,0,0,0,0,0,0,0,0,0,0,0,0,0,0,0,0,0,0,0,0,0,0,0,0,0,0,0,0,0,0,0,0,0,0,0,0,0,0,0,0,0,0,0,0,0,0,0,0,
0,0,0,0,0,0,0,0,0,0,0,0,0,0,0,0,0,0,0,0,0,0,0,0,0,0,0,0,0,0,0,0,0,0,0,0,0,0,0,0,0,0,0,0,0,0,0,0,0,0,0,0,0,0,0,0,0,0,0,0,0,0,0,0,0,0,0,0,0,0,0,0,0,0,0,0,0,0,0,0,
0,0,0,0,0,0,0,0,0,0,0,0,0,0,0,0,0,0,0,0,0,0,0,0,0,0,0,0,0,0,0,0,0,0,0,0,0,0,0,0,0,0,0,0,0,0,0,0,0,0,0,0,0,0,0,0,0,0,0,0,0,0,0,0,0,0,0,0,0,0,0,0,0,0,0,0,0,0,0,0,
0,0,0,0,0,0,0,0,0,0,0,0,0,0,0,0,0,0,0,0,0,0,0,0,0,0,0,0,0,0,0,0,0,0,0,0,0,0,0,0,0,0,0,0,0,0,0,0,0,0,0,0,0,0,0,0,0,0,0,0,0,0,0,0,0,0,0,0,0,0,0,0,0,0,0,0,0,0,0,0,
0,0,0,0,0,0,0,0,0,0,0,0,0,0,0,0,0,0,0,0,0,0,0,0,0,0,0,0,0,0,0,0,0,0,0,0,0,0,0,0,0,0,0,0,0,0,0,0,0,0,0,0,0,0,0,0,0,0,0,0,0,0,0,0,0,0,0,0,0,0,0,0,0,0,0,0,0,0,0,0,
0,0,0,0,0,0,0,0,0,0,0,0,0,0,0,0,0,0,0,0,0,0,0,0,0,0,0,0,0,0,0,0,0,0,0,0,0,0,0,0,0,0,0,0,0,0,0,0,0,0,0,0,0,0,0,0,0,0,0,0,0,0,0,0,0,0,0,0,0,0,0,0,0,0,0,0,0,0,0,0,
0,0,0,0,0,0,0,0,0,0,0,0,0,0,0,0,0,0,0,0,0,0,0,0,0,0,0,0,0,0,0,0,0,0,0,0,0,0,0,0,0,0,0,0,0,0,0,0,0,0,0,0,0,0,0,0,0,0,0,0,0,0,0,0,0,0,0,0,0,0,0,0,0,0,0,0,0,0,0,0,
0,0,0,0,0,0,0,0,0,0,0,0,0,0,0,0,0,0,0,0,0,0,0,0,0,0,0,0,0,0,0,0,0,0,0,0,0,0,0,0,0,0,0,0,0,0,0,0,0,0,0,0,0,0,0,0,0,0,0,0,0,0,0,0,0,0,0,0,0,0,0,0,0,0,0,0,0,0,0,0,
0,0,0,0,0,0,0,0,0,0,0,0,0,0,0,0,0,0,0,0,0,0,0,0,0,0,0,0,0,0,0,0,0,0,0,0,0,0,0,0,0,0,0,0,0,0,0,0,0,0,0,0,0,0,0,0,0,0,0,0,0,0,0,0,0,0,0,0,0,0,0,0,0,0,0,0,0,0,0,0,
0,0,0,0,0,0,0,0,0,0,0,0,0,0,0,0,0,0,0,0,0,0,0,0,0,0,0,0,0,0,0,0,0,0,0,0,0,0,0,0,0,0,0,0,0,0,0,0,0,0,0,0,0,0,0,0,0,0,0,0,0,0,0,0,0,0,0,0,0,0,0,0,0,0,0,0,0,0,0,0,
0,0,0,0,0,0,0,0,0,0,0,0,0,0,0,0,0,0,0,0,0,0,0,0,0,0,0,0,0,0,0,0,0,0,0,0,0,0,0,0,0,0,0,0,0,0,0,0,0,0,0,0,0,0,0,0,0,0,0,0,0,0,0,0,0,0,0,0,0,0,0,0,0,0,0,0,0,0,0,0,
0,0,0,0,0,0,0,0,0,0,0,0,0,0,0,0,0,0,0,0,0,0,0,0,0,0,0,0,0,0,0,0,0,0,0,0,0,0,0,0,0,0,0,0,0,0,0,0,0,0,0,0,0,0,0,0,0,0,0,0,0,0,0,0,0,0,0,0,0,0,0,0,0,0,0,0,0,0,0,0,
0,0,0,0,0,0,0,0,0,0,0,0,0,0,0,0,0,0,0,0,0,0,0,0,0,0,0,0,0,0,0,0,0,0,0,0,0,0,0,0,0,0,0,0,0,0,0,0,0,0,0,0,0,0,0,0,0,0,0,0,0,0,0,0,0,0,0,0,0,0,0,0,0,0,0,0,0,0,0,0,
0,0,0,0,0,0,0,0,0,0,0,0,0,0,0,0,0,0,0,0,0,0,0,0,0,0,0,0,0,0,0,0,0,0,0,0,0,0,0,0,0,0,0,0,0,0,0,0,0,0,0,0,0,0,0,0,0,0,0,0,0,0,0,0,0,0,0,0,0,0,0,0,0,0,0,0,0,0,0,0,
0,0,0,0,0,0,0,0,0,0,0,0,0,0,0,0,0,0,0,0,0,0,0,0,0,0,0,0,0,0,0,0,0,0,0,0,0,0,0,0,0,0,0,0,0,0,0,0,0,0,0,0,0,0,0,0,0,0,0,0,0,0,0,0,0,0,0,0,0,0,0,0,0,0,0,0,0,0,0,0,
0,0,0,0,0,0,0,0,0,0,0,0,0,0,0,0,0,0,0,0,0,0,0,0,0,0,0,0,0,0,0,0,0,0,0,0,0,0,0,0,0,0,0,0,0,0,0,0,0,0,0,0,0,0,0,0,0,0,0,0,0,0,0,0,0,0,0,0,0,0,0,0,0,0,0,0,0,0,0,0,
0,0,0,0,0,0,0,0,0,0,0,0,0,0,0,0,0,0,0,0,0,0,0,0,0,0,0,0,0,0,0,0,0,0,0,0,0,0,0,0,0,0,0,0,0,0,0,0,0,0,0,0,0,0,0,0,0,0,0,0,0,0,0,0,0,0,0,0,0,0,0,0,0,0,0,0,0,0,0,0,
0,0,0,0,0,0,0,0,0,0,0,0,0,0,0,0,0,0,0,0,0,0,0,0,0,0,0,0,0,0,0,0,0,0,0,0,0,0,0,0,0,0,0,0,0,0,0,0,0,0,0,0,0,0,0,0,0,0,0,0,0,0,0,0,0,0,0,0,0,0,0,0,0,0,0,0,0,0,0,0,
0,0,0,0,0,0,0,0,0,0,0,0,0,0,0,0,0,0,0,0,0,0,0,0,0,0,0,0,0,0,0,0,0,0,0,0,0,0,0,0,0,0,0,0,0,0,0,0,0,0,0,0,0,0,0,0,0,0,0,0,0,0,0,0,0,0,0,0,0,0,0,0,0,0,0,0,0,0,0,0,
0,0,0,0,0,0,0,0,0,0,0,0,0,0,0,0,0,0,0,0,0,0,0,0,0,0,0,0,0,0,0,0,0,0,0,0,0,0,0,0,0,0,0,0,0,0,0,0,0,0,0,0,0,0,0,0,0,0,0,0,0,0,0,0,0,0,0,0,0,0,0,0,0,0,0,0,0,0,0,0,
0,0,0,0,0,0,0,0,0,0,0,0,0,0,0,0,0,0,0,0,0,0,0,0,0,0,0,0,0,0,0,0,0,0,0,0,0,0,0,0,0,0,0,0,0,0,0,0,0,0,0,0,0,0,0,0,0,0,0,0,0,0,0,0,0,0,0,0,0,0,0,0,0,0,0,0,0,0,0,0,
0,0,0,0,0,0,0,0,0,0,0,0,0,0,0,0,0,0,0,0,0,0,0,0,0,0,0,0,0,0,0,0,0,0,0,0,0,0,0,0,0,0,0,0,0,0,0,0,0,0,0,0,0,0,0,0,0,0,0,0,0,0,0,0,0,0,0,0,0,0,0,0,0,0,0,0,0,0,0,0,
0,0,0,0,0,0,0,0,0,0,0,0,0,0,0,0,0,0,0,0,0,0,0,0,0,0,0,0,0,0,0,0,0,0,0,0,0,0,0,0,0,0,0,0,0,0,0,0,0,0,0,0,0,0,0,0,0,0,0,0,0,0,0,0,0,0,0,0,0,0,0,0,0,0,0,0,0,0,0,0,
0,0,0,0,0,0,0,0,0,0,0,0,0,0,0,0,0,0,0,0,0,0,0,0,0,0,0,0,0,0,0,0,0,0,0,0,0,0,0,0,0,0,0,0,0,0,0,0,0,0,0,0,0,0,0,0,0,0,0,0,0,0,0,0,0,0,0,0,0,0,0,0,0,0,0,0,0,0,0,0,
0,0,0,0,0,0,0,0,0,0,0,0,0,0,0,0,0,0,0,0,0,0,0,0,0,0,0,0,0,0,0,0,0,0,0,0,0,0,0,0,0,0,0,0,0,0,0,0,0,0,0,0,0,0,0,0,0,0,0,0,0,0,0,0,0,0,0,0,0,0,0,0,0,0,0,0,0,0,0,0,
0,0,0,0,0,0,0,0,0,0,0,0,0,0,0,0,0,0,0,0,0,0,0,0,0,0,0,0,0,0,0,0,0,0,0,0,0,0,0,0,0,0,0,0,0,0,0,0,0,0,0,0,0,0,0,0,0,0,0,0,0,0,0,0,0,0,0,0,0,0,0,0,0,0,0,0,0,0,0,0,
0,0,0,0,0,0,0,0,0,0,0,0,0,0,0,0,0,0,0,0,0,0,0,0,0,0,0,0,0,0,0,0,0,0,0,0,0,0,0,0,0,0,0,0,0,0,0,0,0,0,0,0,0,0,0,0,0,0,0,0,0,0,0,0,0,0,0,0,0,0,0,0,0,0,0,0,0,0,0,0,
0,0,0,0,0,0,0,0,0,0,0,0,0,0,0,0,0,0,0,0,0,0,0,0,0,0,0,0,0,0,0,0,0,0,0,0,0,0,0,0,0,0,0,0,0,0,0,0,0,0,0,0,0,0,0,0,0,0,0,0,0,0,0,0,0,0,0,0,0,0,0,0,0,0,0,0,0,0,0,0,
0,0,0,0,0,0,0,0,0,0,0,0,0,0,0,0,0,0,0,0,0,0,0,0,0,0,0,0,0,0,0,0,0,0,0,0,0,0,0,0,0,0,0,0,0,0,0,0,0,0,0,0,0,0,0,0,0,0,0,0,0,0,0,0,0,0,0,0,0,0,0,0,0,0,0,0,0,0,0,0,
0,0,0,0,0,0,0,0,0,0,0,0,0,0,0,0,0,0,0,0,0,0,0,0,0,0,0,0,0,0,0,0,0,0,0,0,0,0,0,0,0,0,0,0,0,0,0,0,0,0,0,0,0,0,0,0,0,0,0,0,0,0,0,0,0,0,0,0,0,0,0,0,0,0,0,0,0,0,0,0,
0,0,0,0,0,0,0,0,0,0,0,0,0,0,0,0,0,0,0,0,0,0,0,0,0,0,0,0,0,0,0,0,0,0,0,0,0,0,0,0,0,0,0,0,0,0,0,0,0,0,0,0,0,0,0,0,0,0,0,0,0,0,0,0,0,0,0,0,0,0,0,0,0,0,0,0,0,0,0,0,
0,0,0,0,0,0,0,0,0,0,0,0,0,0,0,0,0,0,0,0,0,0,0,0,0,0,0,0,0,0,0,0,0,0,0,0,0,0,0,0,0,0,0,0,0,0,0,0,0,0,0,0,0,0,0,0,0,0,0,0,0,0,0,0,0,0,0,0,0,0,0,0,0,0,0,0,0,0,0,0,
0,0,0,0,0,0,0,0,0,0,0,0,0,0,0,0,0,0,0,0,0,0,0,0,0,0,0,0,0,0,0,0,0,0,0,0,0,0,0,0,0,0,0,0,0,0,0,0,0,0,0,0,0,0,0,0,0,0,0,0,0,0,0,0,0,0,0,0,0,0,0,0,0,0,0,0,0,0,0,0,
0,0,0,0,0,0,0,0,0,0,0,0,0,0,0,0,0,0,0,0,0,0,0,0,0,0,0,0,0,0,0,0,0,0,0,0,0,0,0,0,0,0,0,0,0,0,0,0,0,0,0,0,0,0,0,0,0,0,0,0,0,0,0,0,0,0,0,0,0,0,0,0,0,0,0,0,0,0,0,0,
0,0,0,0,0,0,0,0,0,0,0,0,0,0,0,0,0,0,0,0,0,0,0,0,0,0,0,0,0,0,0,0,0,0,0,0,0,0,0,0,0,0,0,0,0,0,0,0,0,0,0,0,0,0,0,0,0,0,0,0,0,0,0,0,0,0,0,0,0,0,0,0,0,0,0,0,0,0,0,0,
0,0,0,0,0,0,0,0,0,0,0,0,0,0,0,0,0,0,0,0,0,0,0,0,0,0,0,0,0,0,0,0,0,0,0,0,0,0,0,0,0,0,0,0,0,0,0,0,0,0,0,0,0,0,0,0,0,0,0,0,0,0,0,0,0,0,0,0,0,0,0,0,0,0,0,0,0,0,0,0,
0,0,0,0,0,0,0,0,0,0,0,0,0,0,0,0,0,0,0,0,0,0,0,0,0,0,0,0,0,0,0,0,0,0,0,0,0,0,0,0,0,0,0,0,0,0,0,0,0,0,0,0,0,0,0,0,0,0,0,0,0,0,0,0,0,0,0,0,0,0,0,0,0,0,0,0,0,0,0,0,
0,0,0,0,0,0,0,0,0,0,0,0,0,0,0,0,0,0,0,0,0,0,0,0,0,0,0,0,0,0,0,0,0,0,0,0,0,0,0,0,0,0,0,0,0,0,0,0,0,0,0,0,0,0,0,0,0,0,0,0,0,0,0,0,0,0,0,0,0,0,0,0,0,0,0,0,0,0,0,0,
0,0,0,0,0,0,0,0,0,0,0,0,0,0,0,0,0,0,0,0,0,0,0,0,0,0,0,0,0,0,0,0,0,0,0,0,0,0,0,0,0,0,0,0,0,0,0,0,0,0,0,0,0,0,0,0,0,0,0,0,0,0,0,0,0,0,0,0,0,0,0,0,0,0,0,0,0,0,0,0,
0,0,0,0,0,0,0,0,0,0,0,0,0,0,0,0,0,0,0,0,0,0,0,0,0,0,0,0,0,0,0,0,0,0,0,0,0,0,0,0,0,0,0,0,0,0,0,0,0,0,0,0,0,0,0,0,0,0,0,0,0,0,0,0,0,0,0,0,0,0,0,0,0,0,0,0,0,0,0,0,
0,0,0,0,0,0,0,0,0,0,0,0,0,0,0,0,0,0,0,0,0,0,0,0,0,0,0,0,0,0,0,0,0,0,0,0,0,0,0,0,0,0,0,0,0,0,0,0,0,0,0,0,0,0,0,0,0,0,0,0,0,0,0,0,0,0,0,0,0,0,0,0,0,0,0,0,0,0,0,0,
0,0,0,0,0,0,0,0,0,0,0,0,0,0,0,0,0,0,0,0,0,0,0,0,0,0,0,0,0,0,0,0,0,0,0,0,0,0,0,0,0,0,0,0,0,0,0,0,0,0,0,0,0,0,0,0,0,0,0,0,0,0,0,0,0,0,0,0,0,0,0,0,0,0,0,0,0,0,0,0,
0,0,0,0,0,0,0,0,0,0,0,0,0,0,0,0,0,0,0,0,0,0,0,0,0,0,0,0,0,0,0,0,0,0,0,0,0,0,0,0,0,0,0,0,0,0,0,0,0,0,0,0,0,0,0,0,0,0,0,0,0,0,0,0,0,0,0,0,0,0,0,0,0,0,0,0,0,0,0,0,
0,0,0,0,0,0,0,0,0,0,0,0,0,0,0,0,0,0,0,0,0,0,0,0,0,0,0,0,0,0,0,0,0,0,0,0,0,0,0,0,0,0,0,0,0,0,0,0,0,0,0,0,0,0,0,0,0,0,0,0,0,0,0,0,0,0,0,0,0,0,0,0,0,0,0,0,0,0,0,0,
0,0,0,0,0,0,0,0,0,0,0,0,0,0,0,0,0,0,0,0,0,0,0,0,0,0,0,0,0,0,0,0,0,0,0,0,0,0,0,0,0,0,0,0,0,0,0,0,0,0,0,0,0,0,0,0,0,0,0,0,0,0,0,0,0,0,0,0,0,0,0,0,0,0,0,0,0,0,0,0
</data>
 </layer>
</map>
