<?xml version="1.0" encoding="UTF-8"?>
<map version="1.10" tiledversion="1.10.2" orientation="orthogonal" renderorder="right-down" width="47" height="32" tilewidth="16" tileheight="16" infinite="0" nextlayerid="16" nextobjectid="4">
 <editorsettings>
  <export target="m.csv" format="csv"/>
 </editorsettings>
 <tileset firstgid="1" source="scn4_2_back_tileset.tsx"/>
 <tileset firstgid="521" source="scn4_2_fore_tileset.tsx"/>
 <tileset firstgid="585" source="scn4_2_events_tileset.tsx"/>
 <tileset firstgid="617" source="scn4_2_hotspot_tileset.tsx"/>
 <tileset firstgid="649" source="scn4_2_col_tileset.tsx"/>
 <tileset firstgid="665" source="scn4_2_mask_tileset.tsx"/>
 <tileset firstgid="729" source="scn4_2_anim_tileset.tsx"/>
 <tileset firstgid="745" source="../scn4_1/scn4_1_col_tileset.tsx"/>
 <layer id="1" name="back" width="47" height="32">
  <data encoding="csv">
5,6,7,6,7,6,7,6,7,6,7,6,7,6,7,6,6,6,6,6,6,6,6,6,6,6,6,6,6,6,6,6,6,6,6,6,6,6,6,6,6,6,6,6,6,6,26,
25,21,22,23,23,23,23,23,23,23,23,23,23,23,23,23,23,23,23,23,23,14,15,16,17,18,23,23,23,23,23,23,23,23,23,23,23,23,23,23,23,22,23,23,23,23,46,
45,41,42,42,42,121,122,42,42,42,42,19,20,42,19,20,42,19,20,42,42,34,35,36,37,38,42,42,19,20,42,19,20,42,19,20,42,42,42,42,201,202,42,42,42,42,66,
25,41,42,42,42,141,142,42,42,42,42,39,40,42,39,40,42,39,40,42,42,54,55,56,57,58,42,42,39,40,42,39,40,42,39,40,42,42,42,42,221,222,42,42,42,42,46,
45,41,42,42,42,161,162,42,42,42,42,59,60,42,59,60,42,59,60,42,42,74,75,76,77,78,42,42,59,60,42,59,60,42,59,60,42,42,42,42,241,242,42,42,42,42,46,
25,41,42,42,42,181,182,42,42,42,42,79,80,42,79,80,42,79,80,42,42,94,95,96,97,98,42,42,79,80,42,79,80,42,79,80,42,42,42,42,261,262,42,42,42,42,66,
45,61,86,62,62,62,86,62,62,86,62,62,86,62,62,62,86,62,62,86,86,114,115,116,117,118,62,86,62,62,86,62,62,86,62,86,62,86,86,62,86,62,86,62,86,62,46,
25,81,82,83,84,85,83,84,85,83,84,85,83,29,30,85,84,85,83,84,83,91,92,92,92,93,84,85,84,85,83,84,29,30,85,83,84,83,83,84,83,84,85,85,85,85,46,
45,101,102,103,104,105,103,104,105,103,104,105,103,49,50,104,105,27,24,24,24,111,112,112,112,113,24,24,24,28,103,104,49,50,105,103,104,103,103,104,103,104,105,105,105,105,46,
25,8,9,10,11,12,11,12,11,12,11,12,11,69,70,11,12,47,12,11,12,11,12,11,12,11,12,11,12,48,12,12,69,70,11,12,11,12,12,11,12,11,11,12,12,12,66,
45,8,9,10,11,11,12,11,12,11,12,11,12,89,90,12,11,31,11,12,11,12,11,11,12,11,12,11,12,31,12,12,89,90,12,11,12,11,12,11,11,12,11,12,12,12,46,
67,68,9,10,12,12,12,12,12,12,12,12,12,109,110,4,4,51,12,12,12,12,12,12,12,12,12,12,12,51,4,4,109,110,12,12,12,12,12,12,12,12,12,12,12,87,88,
183,184,9,10,12,12,12,12,12,12,12,12,12,129,130,4,4,71,63,64,64,64,64,64,64,64,64,64,64,71,4,4,129,130,12,12,12,12,12,12,12,12,12,12,12,183,184,
203,204,9,10,11,12,12,12,12,12,12,12,12,29,30,4,4,64,63,63,63,63,63,63,63,63,63,64,63,64,4,4,29,30,12,12,12,12,12,12,12,12,12,12,12,203,204,
203,204,9,10,12,12,12,12,12,12,12,12,12,49,50,4,4,4,4,4,4,125,126,126,126,128,4,4,4,4,12,12,49,50,12,12,12,12,12,12,12,12,12,12,12,203,204,
203,204,9,10,11,12,11,12,11,12,11,12,11,69,70,12,4,4,4,4,4,145,146,146,146,148,4,4,4,4,12,12,69,70,11,12,11,12,11,12,11,12,11,12,12,203,204,
203,204,9,10,11,11,12,11,12,11,12,11,12,89,90,12,11,12,12,12,12,165,166,166,167,168,11,11,12,11,12,12,89,90,12,11,12,11,12,11,11,12,11,12,12,203,204,
223,224,9,10,12,12,12,12,12,12,12,12,12,109,110,12,134,135,136,137,12,165,166,167,167,188,4,134,135,136,137,12,109,110,12,12,12,12,12,12,12,12,12,12,12,223,224,
65,8,9,10,12,12,12,12,12,12,12,12,12,129,130,12,154,155,156,157,12,185,186,206,167,168,11,154,155,156,157,12,129,130,12,12,12,12,12,12,12,12,12,12,12,4,4,
65,8,9,10,11,12,12,12,12,12,12,12,12,29,30,12,11,12,12,12,12,165,166,167,167,188,11,11,11,12,11,12,29,30,12,12,12,12,12,12,12,12,12,12,4,4,4,
243,244,9,10,12,12,12,12,12,12,12,12,12,49,50,12,134,135,136,137,12,185,186,187,167,168,4,134,135,136,137,12,49,50,12,12,12,12,12,12,12,12,12,12,12,7,26,
25,204,9,10,11,12,11,12,11,12,11,12,11,69,70,12,154,155,156,157,12,145,146,147,167,188,11,154,155,156,157,12,69,70,11,12,11,12,11,12,11,12,11,12,12,203,46,
45,204,9,10,11,11,12,11,12,11,12,11,12,89,90,12,12,12,12,12,12,165,166,167,167,168,12,12,12,12,12,12,89,90,12,11,12,11,12,11,11,12,11,12,12,203,66,
25,204,9,10,12,12,12,12,12,12,12,12,12,109,110,12,134,135,136,137,12,185,186,167,167,168,4,134,135,136,137,12,109,110,12,12,12,12,12,12,12,12,12,12,12,203,46,
45,204,9,10,12,12,12,12,12,12,12,12,12,129,130,12,154,155,156,157,12,205,206,207,167,188,11,154,155,156,157,12,129,130,12,12,12,12,12,12,12,12,12,12,12,203,46,
25,224,9,10,11,12,12,12,12,12,12,12,12,12,12,12,11,12,12,12,12,165,166,167,167,168,11,11,12,11,12,12,12,12,12,12,12,12,12,12,12,12,12,12,12,223,46,
45,8,9,10,12,12,12,12,12,12,12,12,12,12,12,12,12,12,12,4,4,185,186,167,167,168,12,12,12,12,12,12,12,12,12,12,12,12,12,12,12,12,12,12,12,12,66,
254,255,3,4,4,4,4,4,4,4,4,4,4,4,4,4,4,4,4,174,175,205,206,207,167,188,176,177,12,12,12,12,12,12,12,12,12,12,12,12,12,12,12,12,12,256,257,
274,275,67,67,67,67,67,67,67,67,67,67,67,67,67,67,67,67,67,194,195,165,166,167,167,168,196,197,67,67,67,67,67,67,67,67,67,67,67,67,67,67,67,67,67,276,277,
294,295,21,22,23,22,23,22,23,22,23,22,23,22,23,22,22,22,22,296,297,165,166,167,167,168,294,295,21,23,22,23,22,23,23,22,23,22,22,23,22,22,23,22,23,296,297,
294,295,41,42,42,42,42,42,42,42,42,42,42,42,42,42,42,42,42,296,297,185,186,167,167,168,294,295,41,42,42,42,42,42,42,42,42,42,62,62,62,62,62,62,62,296,297,
294,295,61,62,42,42,42,42,42,42,42,42,42,42,42,42,42,42,42,296,297,205,206,207,167,188,294,295,61,62,42,42,42,42,42,42,42,42,62,62,62,62,62,62,62,296,297
</data>
 </layer>
 <layer id="2" name="fore" width="47" height="32">
  <data encoding="csv">
0,0,0,0,0,0,0,0,0,0,0,0,0,0,0,0,0,0,0,0,0,0,0,0,0,0,0,0,0,0,0,0,0,0,0,0,0,0,0,0,0,0,0,0,0,0,0,
0,0,0,0,0,0,0,0,0,0,0,0,0,0,0,0,0,0,0,0,0,521,522,523,524,525,0,0,0,0,0,0,0,0,0,0,0,0,0,0,0,0,0,0,0,0,0,
0,0,0,0,0,0,0,0,0,0,0,526,527,0,526,527,0,526,527,0,0,529,530,531,532,533,0,0,526,527,0,526,527,0,526,527,0,0,0,0,0,0,0,0,0,0,0,
0,0,0,0,0,0,0,0,0,0,0,534,535,0,534,535,0,534,535,0,0,537,538,539,540,541,0,0,534,535,0,534,535,0,534,535,0,0,0,0,0,0,0,0,0,0,0,
0,0,0,0,0,0,0,0,0,0,0,542,543,0,542,543,0,542,543,0,0,545,546,547,548,549,0,0,542,543,0,542,543,0,542,543,0,0,0,0,0,0,0,0,0,0,0,
0,0,0,0,0,0,0,0,0,0,0,550,551,0,550,551,0,550,551,0,0,553,554,555,556,557,0,0,550,551,0,550,551,0,550,551,0,0,0,0,0,0,0,0,0,0,0,
0,573,574,574,574,574,574,574,574,574,574,574,574,574,574,574,574,574,574,574,574,561,562,563,564,565,574,574,574,574,574,574,574,574,574,574,574,574,574,574,574,574,574,574,574,574,0,
0,0,0,0,0,0,0,0,0,0,0,0,0,0,0,0,0,0,0,0,0,0,0,0,0,0,0,0,0,0,0,0,0,0,0,0,0,0,0,0,0,0,0,0,0,0,0,
0,0,0,0,0,0,0,0,0,0,0,0,0,0,0,0,0,0,0,0,0,0,0,0,0,0,0,0,0,0,0,0,0,0,0,0,0,0,0,0,0,0,0,0,0,0,0,
0,0,0,0,0,0,0,0,0,0,0,0,0,0,0,0,0,0,0,0,0,0,0,0,0,0,0,0,0,0,0,0,0,0,0,0,0,0,0,0,0,0,0,0,0,0,0,
0,0,0,0,0,0,0,0,0,0,0,0,0,558,559,0,0,0,0,0,0,0,0,0,0,0,0,0,0,0,0,0,558,559,0,0,0,0,0,0,0,0,0,0,0,0,0,
0,0,0,0,0,0,0,0,0,0,0,0,0,566,567,0,0,0,0,0,0,0,0,0,0,0,0,0,0,0,0,0,566,567,0,0,0,0,0,0,0,0,0,0,0,0,0,
0,0,0,0,0,0,0,0,0,0,0,0,0,0,0,0,0,0,0,0,0,0,0,0,0,0,0,0,0,0,0,0,0,0,0,0,0,0,0,0,0,0,0,0,0,0,0,
0,0,0,0,0,0,0,0,0,0,0,0,0,0,0,0,0,0,0,0,0,0,0,0,0,0,0,0,0,0,0,0,0,0,0,0,0,0,0,0,0,0,0,0,0,0,0,
0,0,0,0,0,0,0,0,0,0,0,0,0,0,0,0,0,0,0,0,0,0,0,0,0,0,0,0,0,0,0,0,0,0,0,0,0,0,0,0,0,0,0,0,0,0,0,
0,0,0,0,0,0,0,0,0,0,0,0,0,0,0,0,0,0,0,0,0,0,0,0,0,0,0,0,0,0,0,0,0,0,0,0,0,0,0,0,0,0,0,0,0,0,0,
0,0,0,0,0,0,0,0,0,0,0,0,0,558,559,0,0,0,0,0,0,0,0,0,0,0,0,0,0,0,0,0,558,559,0,0,0,0,0,0,0,0,0,0,0,0,0,
0,0,0,0,0,0,0,0,0,0,0,0,0,566,567,0,569,570,571,572,0,0,0,0,0,0,0,569,570,571,572,0,566,567,0,0,0,0,0,0,0,0,0,0,0,0,0,
0,0,0,0,0,0,0,0,0,0,0,0,0,0,0,0,577,578,579,580,0,0,0,0,0,0,0,577,578,579,580,0,0,0,0,0,0,0,0,0,0,0,0,0,0,0,0,
0,0,0,0,0,0,0,0,0,0,0,0,0,0,0,0,0,0,0,0,0,0,0,0,0,0,0,0,0,0,0,0,0,0,0,0,0,0,0,0,0,0,0,0,0,0,0,
0,0,0,0,0,0,0,0,0,0,0,0,0,0,0,0,569,570,571,572,0,0,0,0,0,0,0,569,570,571,572,0,0,0,0,0,0,0,0,0,0,0,0,0,0,0,0,
0,0,0,0,0,0,0,0,0,0,0,0,0,0,0,0,577,578,579,580,0,0,0,0,0,0,0,577,578,579,580,0,0,0,0,0,0,0,0,0,0,0,0,0,0,0,0,
0,0,0,0,0,0,0,0,0,0,0,0,0,558,559,0,0,0,0,0,0,0,0,0,0,0,0,0,0,0,0,0,558,559,0,0,0,0,0,0,0,0,0,0,0,0,0,
0,0,0,0,0,0,0,0,0,0,0,0,0,566,567,0,569,570,571,572,0,0,0,0,0,0,0,569,570,571,572,0,566,567,0,0,0,0,0,0,0,0,0,0,0,0,0,
0,0,0,0,0,0,0,0,0,0,0,0,0,0,0,0,577,578,579,580,0,0,0,0,0,0,0,577,578,579,580,0,0,0,0,0,0,0,0,0,0,0,0,0,0,0,0,
0,0,0,0,0,0,0,0,0,0,0,0,0,0,0,0,0,0,0,0,0,0,0,0,0,0,0,0,0,0,0,0,0,0,0,0,0,0,0,0,0,0,0,0,0,0,0,
0,0,0,0,0,0,0,0,0,0,0,0,0,0,0,0,0,0,0,0,0,0,0,0,0,0,0,0,0,0,0,0,0,0,0,0,0,0,0,0,0,0,0,0,0,0,0,
0,0,0,0,0,0,0,0,0,0,0,0,0,0,0,0,0,0,0,0,0,0,0,0,0,0,0,0,0,0,0,0,0,0,0,0,0,0,0,0,0,0,0,0,0,0,0,
0,0,0,0,0,0,0,0,0,0,0,0,0,0,0,0,0,0,0,0,0,0,0,0,0,0,0,0,0,0,0,0,0,0,0,0,0,0,0,0,0,0,0,0,0,0,0,
0,0,0,0,0,0,0,0,0,0,0,0,0,0,0,0,0,0,0,0,0,0,0,0,0,0,0,0,0,0,0,0,0,0,0,0,0,0,0,0,0,0,0,0,0,0,0,
0,0,0,0,0,0,0,0,0,0,0,0,0,0,0,0,0,0,0,0,0,0,0,0,0,0,0,0,0,0,0,0,0,0,0,0,0,0,0,0,0,0,0,0,0,0,0,
0,0,0,0,0,0,0,0,0,0,0,0,0,0,0,0,0,0,0,0,0,0,0,0,0,0,0,0,0,0,0,0,0,0,0,0,0,0,0,0,0,0,0,0,0,0,0
</data>
 </layer>
 <layer id="12" name="mask" width="47" height="32" opacity="0.5">
  <data encoding="csv">
0,0,0,0,0,0,0,0,0,0,0,0,0,0,0,0,0,0,0,0,0,0,0,0,0,0,0,0,0,0,0,0,0,0,0,0,0,0,0,0,0,0,0,0,0,0,0,
0,0,0,0,0,0,0,0,0,0,0,0,0,0,0,0,0,0,0,0,0,0,0,0,0,0,0,0,0,0,0,0,0,0,0,0,0,0,0,0,0,0,0,0,0,0,0,
0,0,0,0,0,0,0,0,0,0,0,0,0,0,0,0,0,0,0,0,0,0,0,0,0,0,0,0,0,0,0,0,0,0,0,0,0,0,0,0,0,0,0,0,0,0,0,
0,0,0,0,0,0,0,0,0,0,0,0,0,0,0,0,0,0,0,0,0,0,0,0,0,0,0,0,0,0,0,0,0,0,0,0,0,0,0,0,0,0,0,0,0,0,0,
0,0,0,0,0,0,0,0,0,0,0,0,0,0,0,0,0,0,0,0,0,0,0,0,0,0,0,0,0,0,0,0,0,0,0,0,0,0,0,0,0,0,0,0,0,0,0,
0,0,0,0,0,0,0,0,0,0,0,0,0,0,0,0,0,0,0,0,0,0,0,0,0,0,0,0,0,0,0,0,0,0,0,0,0,0,0,0,0,0,0,0,0,0,0,
0,0,0,0,0,0,0,0,0,0,0,0,0,0,0,0,0,0,0,0,0,0,0,0,0,0,0,0,0,0,0,0,0,0,0,0,0,0,0,0,0,0,0,0,0,0,0,
0,0,0,0,0,0,0,0,0,0,0,0,0,668,668,0,0,0,0,0,0,0,0,0,0,0,0,0,0,0,0,0,668,668,0,0,0,0,0,0,0,0,0,0,0,0,0,
0,0,0,0,0,0,0,0,0,0,0,0,0,668,668,0,0,0,0,0,0,0,0,0,0,0,0,0,0,0,0,0,668,668,0,0,0,0,0,0,0,0,0,0,0,0,0,
0,0,0,0,0,0,0,0,0,0,0,0,0,668,668,0,0,0,0,0,0,0,0,0,0,0,0,0,0,0,0,0,668,668,0,0,0,0,0,0,0,0,0,0,0,0,0,
0,0,0,0,0,0,0,0,0,0,0,0,0,668,668,0,0,0,0,0,0,0,0,0,0,0,0,0,0,0,0,0,668,668,0,0,0,0,0,0,0,0,0,0,0,0,0,
0,668,0,0,0,0,0,0,0,0,0,0,0,0,0,0,0,0,0,0,0,0,0,0,0,0,0,0,0,0,0,0,0,0,0,0,0,0,0,0,0,0,0,0,0,668,0,
0,668,0,0,0,0,0,0,0,0,0,0,0,0,0,0,0,0,0,0,0,0,0,0,0,0,0,0,0,0,0,0,0,0,0,0,0,0,0,0,0,0,0,0,0,668,0,
0,668,0,0,0,0,0,0,0,0,0,0,0,668,668,0,0,0,0,0,0,0,0,0,0,0,0,0,0,0,0,0,668,668,0,0,0,0,0,0,0,0,0,0,0,668,0,
0,0,0,0,0,0,0,0,0,0,0,0,0,668,668,0,0,0,0,0,0,0,0,0,0,0,0,0,0,0,0,0,668,668,0,0,0,0,0,0,0,0,0,0,0,0,0,
0,0,0,0,0,0,0,0,0,0,0,0,0,668,668,0,0,0,0,0,0,0,0,0,0,0,0,0,0,0,0,0,668,668,0,0,0,0,0,0,0,0,0,0,0,0,0,
0,0,0,0,0,0,0,0,0,0,0,0,0,668,668,0,0,0,0,0,0,0,0,0,0,0,0,0,0,0,0,0,668,668,0,0,0,0,0,0,0,0,0,0,0,0,0,
0,0,0,0,0,0,0,0,0,0,0,0,0,0,0,0,0,0,0,0,0,0,0,0,0,0,0,0,0,0,0,0,0,0,0,0,0,0,0,0,0,0,0,0,0,0,0,
0,0,0,0,0,0,0,0,0,0,0,0,0,0,0,0,0,0,0,0,0,0,0,0,0,0,0,0,0,0,0,0,0,0,0,0,0,0,0,0,0,0,0,0,0,0,0,
0,0,0,0,0,0,0,0,0,0,0,0,0,668,668,0,0,0,0,0,0,0,0,0,0,0,0,0,0,0,0,0,668,668,0,0,0,0,0,0,0,0,0,0,0,0,0,
668,668,0,0,0,0,0,0,0,0,0,0,0,668,668,0,0,0,0,0,0,0,0,0,0,0,0,0,0,0,0,0,668,668,0,0,0,0,0,0,0,0,0,0,0,668,668,
668,668,0,0,0,0,0,0,0,0,0,0,0,668,668,0,0,0,0,0,0,0,0,0,0,0,0,0,0,0,0,0,668,668,0,0,0,0,0,0,0,0,0,0,0,668,668,
668,668,0,0,0,0,0,0,0,0,0,0,0,668,668,0,0,0,0,0,0,0,0,0,0,0,0,0,0,0,0,0,668,668,0,0,0,0,0,0,0,0,0,0,0,668,668,
0,0,0,0,0,0,0,0,0,0,0,0,0,0,0,0,0,0,0,0,0,0,0,0,0,0,0,0,0,0,0,0,0,0,0,0,0,0,0,0,0,0,0,0,0,0,0,
0,0,0,0,0,0,0,0,0,0,0,0,0,0,0,0,0,0,0,0,0,0,0,0,0,0,0,0,0,0,0,0,0,0,0,0,0,0,0,0,0,0,0,0,0,0,0,
0,0,0,0,0,0,0,0,0,0,0,0,0,0,0,0,0,0,0,0,0,0,0,0,0,0,0,0,0,0,0,0,0,0,0,0,0,0,0,0,0,0,0,0,0,0,0,
0,0,0,0,0,0,0,0,0,0,0,0,0,0,0,0,0,0,0,0,0,0,0,0,0,0,0,0,0,0,0,0,0,0,0,0,0,0,0,0,0,0,0,0,0,0,0,
0,668,0,0,0,0,0,0,0,0,0,0,0,0,0,0,0,0,0,668,668,0,0,0,0,0,668,668,0,0,0,0,0,0,0,0,0,0,0,0,0,0,0,0,0,668,0,
0,668,668,668,668,668,668,668,668,668,668,668,668,668,668,668,668,668,668,668,668,0,0,0,0,0,668,668,668,668,668,668,668,668,668,668,668,668,668,668,668,668,668,668,668,668,0,
0,668,668,668,668,668,668,668,668,668,668,668,668,668,668,668,668,668,668,668,668,0,0,0,0,0,668,668,668,668,668,668,668,668,668,668,668,668,668,668,668,668,668,668,668,668,0,
0,0,0,0,0,0,0,0,0,0,0,0,0,0,0,0,0,0,0,0,0,0,0,0,0,0,0,0,0,0,0,0,0,0,0,0,0,0,0,0,0,0,0,0,0,0,0,
0,0,0,0,0,0,0,0,0,0,0,0,0,0,0,0,0,0,0,0,0,0,0,0,0,0,0,0,0,0,0,0,0,0,0,0,0,0,0,0,0,0,0,0,0,0,0
</data>
 </layer>
 <layer id="3" name="col" width="47" height="32" opacity="0.5">
  <data encoding="csv">
650,650,650,650,650,650,650,650,650,650,650,650,650,650,650,650,650,650,650,650,650,650,650,650,650,650,650,650,650,650,650,650,650,650,650,650,650,650,650,650,650,650,650,650,650,650,650,
650,650,650,650,650,650,650,650,650,650,650,650,650,650,650,650,650,650,650,650,650,651,651,651,651,651,650,650,650,650,650,650,650,650,650,650,650,650,650,650,650,650,650,650,650,650,650,
650,650,650,650,650,650,650,650,650,650,651,651,651,651,651,651,651,651,651,651,651,651,651,651,651,651,651,651,651,651,651,651,651,651,651,651,651,650,650,650,650,650,650,650,650,650,650,
650,650,650,650,650,650,650,650,650,651,651,651,651,651,651,651,651,651,651,651,651,651,651,651,651,651,651,651,651,651,651,651,651,651,651,651,651,651,650,650,650,650,650,650,650,650,650,
650,650,650,650,650,650,650,651,651,651,651,651,651,651,651,651,651,651,651,651,651,651,651,651,651,651,651,651,651,651,651,651,651,651,651,651,651,651,651,651,651,651,651,651,651,651,650,
650,651,651,651,651,651,651,651,651,651,651,651,651,651,651,651,651,651,651,651,651,651,651,651,651,651,651,651,651,651,651,651,651,651,651,651,651,651,651,651,651,651,651,651,651,651,650,
650,651,651,651,651,651,651,651,651,651,651,651,651,651,651,651,651,651,651,651,651,651,651,651,651,651,651,651,651,651,651,651,651,651,651,651,651,651,651,651,651,651,651,651,651,651,650,
650,651,651,651,651,651,651,651,651,651,651,651,651,747,747,651,651,651,651,651,651,651,651,651,651,651,651,651,651,651,651,651,747,747,651,651,651,651,651,651,651,651,651,651,651,651,650,
650,651,651,651,651,651,651,651,651,651,651,651,651,747,747,651,651,651,651,651,651,651,651,651,651,651,651,651,651,651,651,651,747,747,651,651,651,651,651,651,651,651,651,651,651,651,650,
650,0,0,0,0,0,0,0,0,0,0,0,0,0,0,0,0,0,0,0,0,0,0,0,0,0,0,0,0,0,0,0,0,0,0,0,0,0,0,0,0,0,0,0,0,0,650,
650,0,0,0,0,0,0,0,0,0,0,0,0,0,0,0,0,0,0,0,0,0,0,0,0,0,0,0,0,0,0,0,0,0,0,0,0,0,0,0,0,0,0,0,0,0,650,
650,0,0,0,0,0,0,0,0,0,0,0,0,650,650,0,0,0,0,0,0,0,0,0,0,0,0,0,0,0,0,0,650,650,0,0,0,0,0,0,0,0,0,0,0,0,650,
650,0,0,0,0,0,0,0,0,0,0,0,0,747,747,0,0,0,0,0,0,0,0,0,0,0,0,0,0,0,0,0,747,747,0,0,0,0,0,0,0,0,0,0,0,0,650,
650,0,0,0,0,0,0,0,0,0,0,0,0,0,0,0,0,0,0,0,0,0,0,0,0,0,0,0,0,0,0,0,0,0,0,0,0,0,0,0,0,0,0,0,0,0,650,
650,650,0,0,0,0,0,0,0,0,0,0,0,0,0,0,0,0,0,0,0,0,0,0,0,0,0,0,0,0,0,0,0,0,0,0,0,0,0,0,0,0,0,0,0,650,650,
650,650,0,0,0,0,0,0,0,0,0,0,0,0,0,0,0,0,0,0,0,0,0,0,0,0,0,0,0,0,0,0,0,0,0,0,0,0,0,0,0,0,0,0,0,650,650,
746,651,0,0,0,0,0,0,0,0,0,0,0,0,0,0,0,0,0,0,0,0,0,0,0,0,0,0,0,0,0,0,0,0,0,0,0,0,0,0,0,0,0,0,0,651,746,
746,651,0,0,0,0,0,0,0,0,0,0,0,650,650,0,747,747,747,747,0,0,0,0,0,0,0,747,747,747,747,0,650,650,0,0,0,0,0,0,0,0,0,0,0,651,746,
746,0,0,0,0,0,0,0,0,0,0,0,0,747,747,0,651,651,651,651,0,0,0,0,0,0,0,651,651,651,651,0,747,747,0,0,0,0,0,0,0,0,0,0,0,0,746,
746,0,0,0,0,0,0,0,0,0,0,0,0,0,0,0,0,0,0,0,0,0,0,0,0,0,0,0,0,0,0,0,0,0,0,0,0,0,0,0,0,0,0,0,0,0,746,
746,0,0,0,0,0,0,0,0,0,0,0,0,0,0,0,747,747,747,747,0,0,0,0,0,0,0,747,747,747,747,0,0,0,0,0,0,0,0,0,0,0,0,0,0,0,746,
746,0,0,0,0,0,0,0,0,0,0,0,0,0,0,0,651,651,651,651,0,0,0,0,0,0,0,651,651,651,651,0,0,0,0,0,0,0,0,0,0,0,0,0,0,0,746,
746,0,0,0,0,0,0,0,0,0,0,0,0,0,0,0,0,0,0,0,0,0,0,0,0,0,0,0,0,0,0,0,0,0,0,0,0,0,0,0,0,0,0,0,0,0,746,
650,650,0,0,0,0,0,0,0,0,0,0,0,650,650,0,747,747,747,747,0,0,0,0,0,0,0,747,747,747,747,0,650,650,0,0,0,0,0,0,0,0,0,0,0,650,650,
650,651,0,0,0,0,0,0,0,0,0,0,0,747,747,0,651,651,651,651,0,0,0,0,0,0,0,651,651,651,651,0,747,747,0,0,0,0,0,0,0,0,0,0,0,651,650,
650,651,0,0,0,0,0,0,0,0,0,0,0,0,0,0,0,0,0,0,0,0,0,0,0,0,0,0,0,0,0,0,0,0,0,0,0,0,0,0,0,0,0,0,0,651,650,
650,0,0,0,0,0,0,0,0,0,0,0,0,0,0,0,0,0,0,0,0,0,0,0,0,0,0,0,0,0,0,0,0,0,0,0,0,0,0,0,0,0,0,0,0,0,650,
650,0,0,0,0,0,0,0,0,0,0,0,0,0,0,0,0,0,0,0,0,0,0,0,0,0,0,0,0,0,0,0,0,0,0,0,0,0,0,0,0,0,0,0,0,0,650,
650,0,0,0,0,0,0,0,0,0,0,0,0,0,0,0,0,0,0,0,0,0,0,0,0,0,0,0,0,0,0,0,0,0,0,0,0,0,0,0,0,0,0,0,0,0,650,
650,0,0,0,0,0,0,0,0,0,0,0,0,0,0,0,0,0,0,0,0,0,0,0,0,0,0,0,0,0,0,0,0,0,0,0,0,0,0,0,0,0,0,0,0,0,650,
650,650,650,650,650,650,650,650,650,650,650,650,650,650,650,650,650,650,650,650,650,0,0,0,0,0,650,650,650,650,650,650,650,650,650,650,650,650,650,650,650,650,650,650,650,650,650,
650,650,650,650,650,650,650,650,650,650,650,650,650,650,650,650,650,650,650,650,650,651,651,651,651,651,650,650,650,650,650,650,650,650,650,650,650,650,650,650,650,650,650,650,650,650,650
</data>
 </layer>
 <layer id="15" name="anim" width="47" height="32" visible="0">
  <data encoding="csv">
0,0,0,0,0,0,0,0,0,0,0,0,0,0,0,0,0,0,0,0,0,0,0,0,0,0,0,0,0,0,0,0,0,0,0,0,0,0,0,0,0,0,0,0,0,0,0,
0,0,0,0,0,0,0,0,0,0,0,0,0,0,0,0,0,0,0,0,0,730,730,730,730,730,0,0,0,0,0,0,0,0,0,0,0,0,0,0,0,0,0,0,0,0,0,
0,0,0,0,0,0,0,0,0,0,0,730,730,0,730,730,0,730,730,0,0,730,730,730,730,730,0,0,730,730,0,730,730,0,730,730,0,0,0,0,0,0,0,0,0,0,0,
0,0,0,0,0,0,0,0,0,0,0,730,730,0,730,730,0,730,730,0,0,730,730,730,730,730,0,0,730,730,0,730,730,0,730,730,0,0,0,0,0,0,0,0,0,0,0,
0,0,0,0,0,0,0,0,0,0,0,730,730,0,730,730,0,730,730,0,0,730,730,730,730,730,0,0,730,730,0,730,730,0,730,730,0,0,0,0,0,0,0,0,0,0,0,
0,0,0,0,0,0,0,0,0,0,0,730,730,0,730,730,0,730,730,0,0,730,730,730,730,730,0,0,730,730,0,730,730,0,730,730,0,0,0,0,0,0,0,0,0,0,0,
0,730,730,730,730,730,730,730,730,730,730,730,730,730,730,730,730,730,730,730,730,730,730,730,730,730,730,730,730,730,730,730,730,730,730,730,730,730,730,730,730,730,730,730,730,730,0,
0,0,0,0,0,0,0,0,0,0,0,0,0,0,0,0,0,0,0,0,0,0,0,0,0,0,0,0,0,0,0,0,0,0,0,0,0,0,0,0,0,0,0,0,0,0,0,
0,0,0,0,0,0,0,0,0,0,0,0,0,0,0,0,0,0,0,0,0,0,0,0,0,0,0,0,0,0,0,0,0,0,0,0,0,0,0,0,0,0,0,0,0,0,0,
0,0,0,0,0,0,0,0,0,0,0,0,0,0,0,0,0,0,0,0,0,0,0,0,0,0,0,0,0,0,0,0,0,0,0,0,0,0,0,0,0,0,0,0,0,0,0,
0,0,0,0,0,0,0,0,0,0,0,0,0,730,730,0,0,0,0,0,0,0,0,0,0,0,0,0,0,0,0,0,730,730,0,0,0,0,0,0,0,0,0,0,0,0,0,
0,0,0,0,0,0,0,0,0,0,0,0,0,730,730,0,0,0,0,0,0,0,0,0,0,0,0,0,0,0,0,0,730,730,0,0,0,0,0,0,0,0,0,0,0,0,0,
0,0,0,0,0,0,0,0,0,0,0,0,0,0,0,0,0,0,0,0,0,0,0,0,0,0,0,0,0,0,0,0,0,0,0,0,0,0,0,0,0,0,0,0,0,0,0,
0,0,0,0,0,0,0,0,0,0,0,0,0,0,0,0,0,0,0,0,0,0,0,0,0,0,0,0,0,0,0,0,0,0,0,0,0,0,0,0,0,0,0,0,0,0,0,
0,0,0,0,0,0,0,0,0,0,0,0,0,0,0,0,0,0,0,0,0,0,0,0,0,0,0,0,0,0,0,0,0,0,0,0,0,0,0,0,0,0,0,0,0,0,0,
0,0,0,0,0,0,0,0,0,0,0,0,0,0,0,0,0,0,0,0,0,0,0,0,0,0,0,0,0,0,0,0,0,0,0,0,0,0,0,0,0,0,0,0,0,0,0,
0,0,0,0,0,0,0,0,0,0,0,0,0,730,730,0,0,0,0,0,0,0,0,0,0,0,0,0,0,0,0,0,730,730,0,0,0,0,0,0,0,0,0,0,0,0,0,
0,0,0,0,0,0,0,0,0,0,0,0,0,730,730,0,730,730,730,730,0,0,0,0,0,0,0,730,730,730,730,0,730,730,0,0,0,0,0,0,0,0,0,0,0,0,0,
0,0,0,0,0,0,0,0,0,0,0,0,0,0,0,0,730,730,730,730,0,0,0,0,0,0,0,730,730,730,730,0,0,0,0,0,0,0,0,0,0,0,0,0,0,0,0,
0,0,0,0,0,0,0,0,0,0,0,0,0,0,0,0,0,0,0,0,0,0,0,0,0,0,0,0,0,0,0,0,0,0,0,0,0,0,0,0,0,0,0,0,0,0,0,
0,0,0,0,0,0,0,0,0,0,0,0,0,0,0,0,730,730,730,730,0,0,0,0,0,0,0,730,730,730,730,0,0,0,0,0,0,0,0,0,0,0,0,0,0,0,0,
0,0,0,0,0,0,0,0,0,0,0,0,0,0,0,0,730,730,730,730,0,0,0,0,0,0,0,730,730,730,730,0,0,0,0,0,0,0,0,0,0,0,0,0,0,0,0,
0,0,0,0,0,0,0,0,0,0,0,0,0,730,730,0,0,0,0,0,0,0,0,0,0,0,0,0,0,0,0,0,730,730,0,0,0,0,0,0,0,0,0,0,0,0,0,
0,0,0,0,0,0,0,0,0,0,0,0,0,730,730,0,730,730,730,730,0,0,0,0,0,0,0,730,730,730,730,0,730,730,0,0,0,0,0,0,0,0,0,0,0,0,0,
0,0,0,0,0,0,0,0,0,0,0,0,0,0,0,0,730,730,730,730,0,0,0,0,0,0,0,730,730,730,730,0,0,0,0,0,0,0,0,0,0,0,0,0,0,0,0,
0,0,0,0,0,0,0,0,0,0,0,0,0,0,0,0,0,0,0,0,0,0,0,0,0,0,0,0,0,0,0,0,0,0,0,0,0,0,0,0,0,0,0,0,0,0,0,
0,0,0,0,0,0,0,0,0,0,0,0,0,0,0,0,0,0,0,0,0,0,0,0,0,0,0,0,0,0,0,0,0,0,0,0,0,0,0,0,0,0,0,0,0,0,0,
0,0,0,0,0,0,0,0,0,0,0,0,0,0,0,0,0,0,0,0,0,0,0,0,0,0,0,0,0,0,0,0,0,0,0,0,0,0,0,0,0,0,0,0,0,0,0,
0,0,0,0,0,0,0,0,0,0,0,0,0,0,0,0,0,0,0,0,0,0,0,0,0,0,0,0,0,0,0,0,0,0,0,0,0,0,0,0,0,0,0,0,0,0,0,
0,0,0,0,0,0,0,0,0,0,0,0,0,0,0,0,0,0,0,0,0,0,0,0,0,0,0,0,0,0,0,0,0,0,0,0,0,0,0,0,0,0,0,0,0,0,0,
0,0,0,0,0,0,0,0,0,0,0,0,0,0,0,0,0,0,0,0,0,0,0,0,0,0,0,0,0,0,0,0,0,0,0,0,0,0,0,0,0,0,0,0,0,0,0,
0,0,0,0,0,0,0,0,0,0,0,0,0,0,0,0,0,0,0,0,0,0,0,0,0,0,0,0,0,0,0,0,0,0,0,0,0,0,0,0,0,0,0,0,0,0,0
</data>
 </layer>
 <layer id="5" name="event" width="47" height="32" visible="0">
  <data encoding="csv">
0,0,0,0,0,0,0,0,0,0,0,0,0,0,0,0,0,0,0,0,0,0,0,0,0,0,0,0,0,0,0,0,0,0,0,0,0,0,0,0,0,0,0,0,0,0,0,
0,0,0,0,0,0,0,0,0,0,0,0,0,0,0,0,0,0,0,0,0,0,0,0,0,0,0,0,0,0,0,0,0,0,0,0,0,0,0,0,0,0,0,0,0,0,0,
0,0,0,0,0,0,0,0,0,0,0,0,0,0,0,0,0,0,0,0,0,0,0,0,0,0,0,0,0,0,0,0,0,0,0,0,0,0,0,0,0,0,0,0,0,0,0,
0,0,0,0,0,0,0,0,0,0,0,0,0,0,0,0,0,0,0,0,0,0,0,0,0,0,0,0,0,0,0,0,0,0,0,0,0,0,0,0,0,0,0,0,0,0,0,
0,0,0,0,0,0,0,0,0,0,0,0,0,0,0,0,0,0,0,0,0,0,0,0,0,0,0,0,0,0,0,0,0,0,0,0,0,0,0,0,0,0,0,0,0,0,0,
0,0,0,0,0,0,0,0,0,0,0,0,0,0,0,0,0,0,0,0,0,0,0,0,0,0,0,0,0,0,0,0,0,0,0,0,0,0,0,0,0,0,0,0,0,0,0,
0,0,0,0,0,0,0,0,0,0,0,0,0,0,0,0,0,0,0,0,0,0,0,0,0,0,0,0,0,0,0,0,0,0,0,0,0,0,0,0,0,0,0,0,0,0,0,
0,0,0,0,0,0,0,0,0,0,0,0,0,0,0,0,0,0,0,0,0,0,0,0,0,0,0,0,0,0,0,0,0,0,0,0,0,0,0,0,0,0,0,0,0,0,0,
0,0,0,0,0,0,0,0,0,0,0,0,0,0,0,0,0,0,0,0,0,0,0,0,0,0,0,0,0,0,0,0,0,0,0,0,0,0,0,0,0,0,0,0,0,0,0,
0,0,0,0,0,0,0,0,0,0,0,0,0,0,0,0,0,0,0,0,0,0,0,0,0,0,0,0,0,0,0,0,0,0,0,0,0,0,0,0,0,0,0,0,0,0,0,
0,0,0,0,0,0,0,0,0,0,0,0,0,0,0,0,0,0,0,0,0,0,0,0,0,0,0,0,0,0,0,0,0,0,0,0,0,0,0,0,0,0,0,0,0,0,0,
0,0,0,0,0,0,0,0,0,0,0,0,0,0,0,0,0,0,0,0,0,0,0,0,0,0,0,0,0,0,0,0,0,0,0,0,0,0,0,0,0,0,0,0,0,0,0,
0,0,0,0,0,0,0,0,0,0,0,0,0,0,0,0,0,0,0,0,0,0,0,0,0,0,0,0,0,0,0,0,0,0,0,0,0,0,0,0,0,0,0,0,0,0,0,
0,0,0,0,0,0,0,0,0,0,0,0,0,0,0,0,0,0,0,0,0,0,0,0,0,0,0,0,0,0,0,0,0,0,0,0,0,0,0,0,0,0,0,0,0,0,0,
0,0,0,0,0,0,0,0,0,0,0,0,0,0,0,0,0,0,0,0,0,0,0,0,0,0,0,0,0,0,0,0,0,0,0,0,0,0,0,0,0,0,0,0,0,0,0,
0,0,0,0,0,0,0,0,0,0,0,0,0,0,0,0,0,0,0,0,0,0,0,0,0,0,0,0,0,0,0,0,0,0,0,0,0,0,0,0,0,0,0,0,0,0,0,
0,0,0,0,0,0,0,0,0,0,0,0,0,0,0,0,0,0,0,0,0,0,0,0,0,0,0,0,0,0,0,0,0,0,0,0,0,0,0,0,0,0,0,0,0,0,0,
0,0,0,0,0,0,0,0,0,0,0,0,0,0,0,0,0,0,0,0,0,0,0,0,0,0,0,0,0,0,0,0,0,0,0,0,0,0,0,0,0,0,0,0,0,0,0,
0,0,0,0,0,0,0,0,0,0,0,0,0,0,0,0,0,0,0,0,0,0,0,0,0,0,0,0,0,0,0,0,0,0,0,0,0,0,0,0,0,0,0,0,0,0,0,
0,0,0,0,0,0,0,0,0,0,0,0,0,0,0,0,0,0,0,0,0,0,0,0,0,0,0,0,0,0,0,0,0,0,0,0,0,0,0,0,0,0,0,0,0,0,0,
0,0,0,0,0,0,0,0,0,0,0,0,0,0,0,0,0,0,0,0,0,0,0,0,0,0,0,0,0,0,0,0,0,0,0,0,0,0,0,0,0,0,0,0,0,0,0,
0,0,0,0,0,0,0,0,0,0,0,0,0,0,0,0,0,0,0,0,0,0,0,0,0,0,0,0,0,0,0,0,0,0,0,0,0,0,0,0,0,0,0,0,0,0,0,
0,0,0,0,0,0,0,0,0,0,0,0,0,0,0,0,0,0,0,0,0,0,0,0,0,0,0,0,0,0,0,0,0,0,0,0,0,0,0,0,0,0,0,0,0,0,0,
0,0,0,0,0,0,0,0,0,0,0,0,0,0,0,0,0,0,0,0,0,0,0,0,0,0,0,0,0,0,0,0,0,0,0,0,0,0,0,0,0,0,0,0,0,0,0,
0,0,0,0,0,0,0,0,0,0,0,0,0,0,0,0,0,0,0,0,0,0,0,0,0,0,0,0,0,0,0,0,0,0,0,0,0,0,0,0,0,0,0,0,0,0,0,
0,0,0,0,0,0,0,0,0,0,0,0,0,0,0,0,0,0,0,0,0,0,0,0,0,0,0,0,0,0,0,0,0,0,0,0,0,0,0,0,0,0,0,0,0,0,0,
0,0,0,0,0,0,0,0,0,0,0,0,0,0,0,0,0,0,0,585,585,585,585,585,585,585,585,585,0,0,0,0,0,0,0,0,0,0,0,0,0,0,0,0,0,0,0,
0,0,0,0,0,0,0,0,0,0,0,0,0,0,0,0,0,0,0,585,585,585,585,585,585,585,585,585,0,0,0,0,0,0,0,0,0,0,0,0,0,0,0,0,0,0,0,
0,0,0,0,0,0,0,0,0,0,0,0,0,0,0,0,0,0,0,585,585,0,0,0,0,0,585,585,0,0,0,0,0,0,0,0,0,0,0,0,0,0,0,0,0,0,0,
0,0,0,0,0,0,0,0,0,0,0,0,0,0,0,0,0,0,0,585,585,0,0,0,0,0,585,585,0,0,0,0,0,0,0,0,0,0,0,0,0,0,0,0,0,0,0,
0,0,0,0,0,0,0,0,0,0,0,0,0,0,0,0,0,0,0,0,0,0,0,0,0,0,0,0,0,0,0,0,0,0,0,0,0,0,0,0,0,0,0,0,0,0,0,
0,0,0,0,0,0,0,0,0,0,0,0,0,0,0,0,0,0,0,0,0,0,0,0,0,0,0,0,0,0,0,0,0,0,0,0,0,0,0,0,0,0,0,0,0,0,0
</data>
 </layer>
 <layer id="6" name="hspot" width="47" height="32" visible="0">
  <data encoding="csv">
0,0,0,0,0,0,0,0,0,0,0,0,0,0,0,0,0,0,0,0,0,0,0,0,0,0,0,0,0,0,0,0,0,0,0,0,0,0,0,0,0,0,0,0,0,0,0,
0,0,0,0,0,0,0,0,0,0,0,0,0,0,0,0,0,0,0,0,0,0,0,0,0,0,0,0,0,0,0,0,0,0,0,0,0,0,0,0,0,0,0,0,0,0,0,
0,0,0,0,0,0,0,0,0,0,0,0,0,0,0,0,0,0,0,0,0,0,0,0,0,0,0,0,0,0,0,0,0,0,0,0,0,0,0,0,0,0,0,0,0,0,0,
0,0,0,0,0,0,0,0,0,0,0,0,0,0,0,0,0,0,0,0,0,0,0,0,0,0,0,0,0,0,0,0,0,0,0,0,0,0,0,0,0,0,0,0,0,0,0,
0,0,0,0,0,0,0,0,0,0,0,0,0,0,0,0,0,0,0,0,0,0,0,0,0,0,0,0,0,0,0,0,0,0,0,0,0,0,0,0,0,0,0,0,0,0,0,
0,0,0,0,0,0,0,0,0,0,0,0,0,0,0,0,0,0,0,0,0,0,0,0,0,0,0,0,0,0,0,0,0,0,0,0,0,0,0,0,0,0,0,0,0,0,0,
0,0,0,0,0,0,0,0,0,0,0,0,0,0,0,0,0,0,0,0,0,0,0,0,0,0,0,0,0,0,0,0,0,0,0,0,0,0,0,0,0,0,0,0,0,0,0,
0,0,0,0,0,0,0,0,0,0,0,0,0,0,0,0,0,0,0,0,0,0,0,0,0,0,0,0,0,0,0,0,0,0,0,0,0,0,0,0,0,0,0,0,0,0,0,
0,0,0,0,0,0,0,0,0,0,0,0,0,0,0,0,0,0,0,0,0,0,0,0,0,0,0,0,0,0,0,0,0,0,0,0,0,0,0,0,0,0,0,0,0,0,0,
0,0,0,0,0,0,0,0,0,0,0,0,0,0,0,0,0,0,0,0,0,0,0,0,0,0,0,0,0,0,0,0,0,0,0,0,0,0,0,0,0,0,0,0,0,0,0,
0,0,0,0,0,0,0,0,0,0,0,0,0,0,0,0,0,0,0,0,0,0,0,0,0,0,0,0,0,0,0,0,0,0,0,0,0,0,0,0,0,0,0,0,0,0,0,
0,0,0,0,0,0,0,0,0,0,0,0,0,0,0,0,0,0,0,0,0,0,0,0,0,0,0,0,0,0,0,0,0,0,0,0,0,0,0,0,0,0,0,0,0,0,0,
0,0,0,0,0,0,0,0,0,0,0,0,0,0,0,0,0,0,0,0,0,0,0,0,0,0,0,0,0,0,0,0,0,0,0,0,0,0,0,0,0,0,0,0,0,0,0,
0,0,0,0,0,0,0,0,0,0,0,0,0,0,0,0,0,0,0,0,0,0,0,0,0,0,0,0,0,0,0,0,0,0,0,0,0,0,0,0,0,0,0,0,0,0,0,
0,0,0,0,0,0,0,0,0,0,0,0,0,0,0,0,0,0,0,0,0,0,0,0,0,0,0,0,0,0,0,0,0,0,0,0,0,0,0,0,0,0,0,0,0,0,0,
0,0,0,0,0,0,0,0,0,0,0,0,0,0,0,0,0,0,0,0,0,0,0,0,0,0,0,0,0,0,0,0,0,0,0,0,0,0,0,0,0,0,0,0,0,0,0,
0,0,0,0,0,0,0,0,0,0,0,0,0,0,0,0,0,0,0,0,0,0,0,0,0,0,0,0,0,0,0,0,0,0,0,0,0,0,0,0,0,0,0,0,0,0,0,
0,0,0,0,0,0,0,0,0,0,0,0,0,0,0,0,0,0,0,0,0,0,0,0,0,0,0,0,0,0,0,0,0,0,0,0,0,0,0,0,0,0,0,0,0,0,0,
0,0,0,0,0,0,0,0,0,0,0,0,0,0,0,0,0,0,0,0,0,0,0,0,0,0,0,0,0,0,0,0,0,0,0,0,0,0,0,0,0,0,0,0,0,0,0,
0,0,0,0,0,0,0,0,0,0,0,0,0,0,0,0,0,0,0,0,0,0,0,0,0,0,0,0,0,0,0,0,0,0,0,0,0,0,0,0,0,0,0,0,0,0,0,
0,0,0,0,0,0,0,0,0,0,0,0,0,0,0,0,0,0,0,0,0,0,0,0,0,0,0,0,0,0,0,0,0,0,0,0,0,0,0,0,0,0,0,0,0,0,0,
0,0,0,0,0,0,0,0,0,0,0,0,0,0,0,0,0,0,0,0,0,0,0,0,0,0,0,0,0,0,0,0,0,0,0,0,0,0,0,0,0,0,0,0,0,0,0,
0,0,0,0,0,0,0,0,0,0,0,0,0,0,0,0,0,0,0,0,0,0,0,0,0,0,0,0,0,0,0,0,0,0,0,0,0,0,0,0,0,0,0,0,0,0,0,
0,0,0,0,0,0,0,0,0,0,0,0,0,0,0,0,0,0,0,0,0,0,0,0,0,0,0,0,0,0,0,0,0,0,0,0,0,0,0,0,0,0,0,0,0,0,0,
0,0,0,0,0,0,0,0,0,0,0,0,0,0,0,0,0,0,0,0,0,0,0,0,0,0,0,0,0,0,0,0,0,0,0,0,0,0,0,0,0,0,0,0,0,0,0,
0,0,0,0,0,0,0,0,0,0,0,0,0,0,0,0,0,0,0,0,0,0,0,0,0,0,0,0,0,0,0,0,0,0,0,0,0,0,0,0,0,0,0,0,0,0,0,
0,0,0,0,0,0,0,0,0,0,0,0,0,0,0,0,0,0,0,0,0,0,0,0,0,0,0,0,0,0,0,0,0,0,0,0,0,0,0,0,0,0,0,0,0,0,0,
0,0,0,0,0,0,0,0,0,0,0,0,0,0,0,0,0,0,0,0,0,0,0,0,0,0,0,0,0,0,0,0,0,0,0,0,0,0,0,0,0,0,0,0,0,0,0,
0,0,0,0,0,0,0,0,0,0,0,0,0,0,0,0,0,0,0,0,0,0,0,0,0,0,0,0,0,0,0,0,0,0,0,0,0,0,0,0,0,0,0,0,0,0,0,
0,0,0,0,0,0,0,0,0,0,0,0,0,0,0,0,0,0,0,0,0,0,0,0,0,0,0,0,0,0,0,0,0,0,0,0,0,0,0,0,0,0,0,0,0,0,0,
0,0,0,0,0,0,0,0,0,0,0,0,0,0,0,0,0,0,0,0,0,0,0,0,0,0,0,0,0,0,0,0,0,0,0,0,0,0,0,0,0,0,0,0,0,0,0,
0,0,0,0,0,0,0,0,0,0,0,0,0,0,0,0,0,0,0,0,0,0,0,0,0,0,0,0,0,0,0,0,0,0,0,0,0,0,0,0,0,0,0,0,0,0,0
</data>
 </layer>
</map>
