<?xml version="1.0" encoding="UTF-8"?>
<map version="1.10" tiledversion="1.10.2" orientation="orthogonal" renderorder="right-down" width="50" height="60" tilewidth="16" tileheight="16" infinite="0" nextlayerid="15" nextobjectid="1">
 <editorsettings>
  <export target="m.csv" format="csv"/>
 </editorsettings>
 <tileset firstgid="1" source="scn1_2_back_tileset.tsx"/>
 <tileset firstgid="521" source="scn1_2_fore_tileset.tsx"/>
 <tileset firstgid="585" source="scn1_2_hotspot_tileset.tsx"/>
 <tileset firstgid="617" source="scn1_2_col_tileset.tsx"/>
 <tileset firstgid="633" source="scn1_2_mask_tileset.tsx"/>
 <tileset firstgid="697" source="scn1_2_events_tileset.tsx"/>
 <tileset firstgid="729" source="scn1_2_anim_tileset.tsx"/>
 <layer id="1" name="back" width="50" height="60">
  <data encoding="csv">
6,7,1,2,3,4,3,5,1,4,5,1,3,4,5,1,4,5,1,3,4,5,1,4,5,1,4,5,1,4,5,1,2,3,4,5,1,2,2,3,4,5,1,2,3,4,4,5,6,7,
26,27,21,22,23,24,23,25,21,24,25,21,23,24,25,21,24,25,21,23,24,25,21,24,25,21,24,25,21,24,25,21,22,23,24,25,21,22,22,23,24,25,21,22,23,24,24,25,26,27,
46,47,121,65,65,65,104,99,65,65,65,104,99,65,65,65,104,99,65,65,65,65,104,6,7,6,7,121,65,65,208,65,65,81,82,65,65,65,81,82,65,65,65,81,82,65,65,104,46,47,
66,67,141,85,85,85,124,99,85,85,85,124,99,85,85,85,124,99,85,85,85,85,124,26,27,26,27,141,85,85,228,85,85,101,102,85,85,85,101,102,85,85,85,101,102,85,85,124,66,67,
86,87,221,31,36,36,32,99,31,36,36,32,99,31,36,36,32,99,31,36,36,32,43,26,27,26,27,221,29,74,248,74,74,74,74,74,74,74,74,74,74,74,74,74,74,74,30,145,86,87,
106,107,221,31,36,36,32,99,31,36,36,32,99,31,36,36,32,99,31,36,36,32,43,46,47,46,47,221,35,36,36,36,36,36,36,36,36,36,36,36,36,36,36,36,36,36,32,145,106,107,
6,7,221,31,36,36,32,99,31,36,36,32,99,31,36,36,32,99,31,36,36,32,43,66,67,66,67,221,31,36,36,36,36,36,36,36,36,36,36,36,36,36,36,36,36,36,32,145,6,7,
86,87,221,31,36,36,32,99,31,36,36,32,99,31,36,36,32,99,31,36,36,32,43,86,87,86,87,221,35,36,36,36,36,19,60,60,60,60,60,60,60,60,20,36,36,36,32,145,26,27,
106,107,221,31,36,36,32,99,31,36,36,32,99,31,36,36,32,99,31,36,36,32,43,106,107,106,107,221,31,36,36,36,36,79,140,140,140,140,140,140,140,140,80,36,36,36,32,145,46,47,
6,7,221,31,36,36,32,99,31,36,36,32,99,31,36,36,32,99,31,36,36,32,43,6,7,6,7,221,31,36,36,36,36,79,140,140,140,140,140,140,140,140,80,36,36,36,32,145,66,67,
26,27,221,31,36,36,32,99,31,36,36,32,99,31,36,36,32,99,31,36,36,32,43,26,27,26,27,221,31,36,36,36,36,79,140,140,140,140,140,140,140,140,80,36,36,36,32,145,86,87,
46,47,221,31,36,36,32,99,31,36,36,32,99,31,36,36,32,99,31,36,36,32,43,46,47,46,47,221,31,36,36,36,36,79,140,140,140,140,140,140,140,140,80,36,36,36,32,145,106,107,
106,107,221,31,36,36,32,99,31,36,36,32,99,31,36,36,32,99,31,36,36,32,43,66,67,66,67,221,35,36,36,36,36,79,140,140,140,140,140,140,140,140,80,36,36,36,32,145,6,7,
6,7,216,219,219,256,219,100,219,219,257,258,100,219,219,259,219,100,219,219,276,277,220,86,87,86,87,221,31,36,36,36,36,79,140,140,140,140,140,140,140,140,80,36,36,36,32,145,26,27,
26,27,236,239,239,239,239,120,239,239,239,239,120,239,239,239,239,120,239,239,239,239,240,106,107,106,107,221,35,36,36,36,36,79,140,140,140,140,140,140,140,140,80,36,36,36,32,145,106,107,
46,47,221,29,74,74,30,119,29,74,74,30,119,29,74,74,30,119,29,74,74,30,63,65,65,65,65,103,31,36,36,36,36,79,140,140,140,140,140,140,140,140,80,36,36,36,32,145,6,7,
106,107,221,31,36,36,32,139,35,36,36,32,139,35,36,36,32,139,35,36,36,32,83,85,85,85,85,123,35,36,36,36,36,39,59,59,59,59,59,59,59,59,40,36,36,36,32,43,26,27,
6,7,221,31,36,36,72,91,71,36,36,72,91,71,36,36,72,91,71,36,36,72,91,74,74,74,74,74,71,36,36,36,36,36,36,36,36,36,36,36,36,36,36,36,36,36,32,43,46,47,
26,27,221,31,36,36,36,36,36,36,36,36,36,36,36,36,36,36,36,36,36,36,36,36,36,36,36,36,36,36,36,36,36,36,36,36,36,36,36,36,36,36,36,36,36,36,32,43,86,87,
106,107,221,31,36,36,36,36,36,36,36,36,36,36,36,36,36,36,36,36,36,36,36,36,36,36,36,36,36,36,36,36,36,36,36,36,36,36,36,36,36,36,36,36,36,36,32,43,106,107,
1,2,3,4,5,1,2,3,4,5,1,2,3,4,5,1,2,3,4,5,1,2,3,4,410,36,36,36,413,1,2,2,3,4,5,1,2,2,5,6,7,1,2,4,5,1,2,3,4,5,
21,22,23,24,25,21,22,23,24,25,21,22,23,24,25,21,22,23,24,25,21,22,23,24,430,431,13,432,433,21,22,22,23,24,25,21,22,22,25,26,27,21,22,24,25,21,22,23,24,25,
6,7,121,129,130,65,209,210,65,65,202,203,204,205,206,207,211,212,127,128,6,7,121,65,450,451,294,452,453,64,127,128,6,7,121,211,212,127,128,46,47,121,65,65,65,65,127,128,6,7,
26,27,141,149,150,85,229,230,85,85,222,223,224,225,226,227,231,232,147,148,26,27,141,85,470,471,314,472,473,85,147,148,26,27,141,231,232,147,148,66,67,141,85,85,85,85,147,148,26,27,
46,47,221,29,69,70,249,250,69,70,69,70,69,70,69,70,69,70,30,43,46,47,221,29,69,71,37,72,91,70,30,43,66,67,221,29,69,30,43,86,87,221,29,69,70,69,30,43,46,47,
66,67,221,51,57,58,57,58,57,58,57,58,57,58,57,58,57,58,52,43,66,67,221,51,57,58,57,58,57,58,52,43,86,87,221,51,57,112,43,106,107,221,51,57,58,57,52,43,66,67,
86,87,221,31,37,38,37,38,37,38,415,416,417,418,37,38,37,38,32,43,86,87,221,31,37,38,37,38,37,38,32,43,106,107,221,31,37,132,63,173,174,103,31,37,38,37,32,43,86,87,
106,107,221,51,57,58,57,58,57,434,435,436,437,438,439,58,57,58,52,43,106,107,221,51,57,58,57,58,57,58,52,43,6,7,221,51,57,112,83,193,194,123,51,57,58,57,52,43,106,107,
6,7,221,31,37,38,37,38,37,454,455,456,457,458,459,38,37,38,32,43,6,7,221,31,37,38,37,38,37,38,32,43,26,27,221,31,37,132,113,213,214,133,31,37,38,37,32,43,6,7,
26,27,221,51,57,58,57,58,57,474,475,476,477,478,479,58,57,58,52,43,26,27,221,51,57,58,57,58,57,58,52,43,106,107,221,51,57,112,105,6,7,181,55,57,58,57,52,43,26,27,
46,47,221,31,37,38,37,38,37,494,495,496,497,498,499,38,37,38,32,43,46,47,221,31,37,38,37,38,37,38,32,63,156,157,103,31,37,132,125,26,27,201,35,37,38,37,32,43,106,107,
66,67,221,51,57,58,57,58,57,58,515,516,517,518,57,58,57,58,52,43,66,67,221,51,57,58,57,58,57,58,52,83,176,177,123,51,57,112,43,46,47,1,2,4,5,1,2,3,4,5,
86,87,221,31,37,38,37,38,37,38,37,38,37,38,37,38,37,38,32,43,86,87,221,31,37,38,37,38,37,38,32,113,196,197,133,31,37,132,43,86,87,21,22,24,25,21,22,23,24,25,
106,107,221,51,57,58,57,58,57,58,57,58,57,58,57,58,57,58,52,43,106,107,221,51,57,58,57,58,57,58,52,105,6,7,181,55,57,112,43,106,107,121,65,65,65,65,127,128,6,7,
1,2,3,4,4,5,410,38,37,38,413,1,3,4,5,1,2,3,4,3,4,5,221,31,37,38,37,38,37,38,32,125,26,27,201,35,37,132,63,173,174,103,85,85,85,85,147,148,26,27,
21,22,23,24,24,25,430,431,57,432,433,21,23,24,25,21,22,23,24,22,23,25,221,51,57,58,57,58,57,58,52,145,26,27,221,55,57,112,83,193,194,123,29,69,70,69,30,43,26,27,
6,7,121,129,130,65,450,451,294,452,453,65,65,208,65,65,81,82,41,42,81,82,103,31,37,38,37,38,37,38,32,145,46,47,221,151,37,132,113,213,214,133,51,57,58,57,52,43,46,47,
66,67,141,149,150,85,470,471,314,472,473,85,85,228,85,85,101,102,61,62,101,102,123,51,57,58,57,58,57,58,52,145,66,67,221,51,57,112,105,6,7,181,31,37,38,37,32,43,66,67,
86,87,221,29,69,70,69,71,37,72,115,70,69,248,69,70,69,70,69,70,69,70,69,71,37,38,37,38,37,38,122,1,2,3,4,5,1,2,5,1,2,3,4,5,181,57,114,43,86,87,
106,107,221,51,57,58,57,58,57,58,57,58,57,58,57,58,57,58,57,58,57,58,57,58,57,58,57,58,57,58,142,21,22,23,24,25,21,22,25,21,22,23,24,25,201,37,132,43,106,107,
1,2,3,4,4,4,5,1,3,4,4,4,3,4,5,1,3,4,4,5,410,38,37,38,413,1,3,4,4,5,63,65,65,162,163,164,165,166,167,168,169,170,171,65,103,1,3,2,4,5,
21,22,23,24,24,24,25,21,23,24,24,24,23,24,25,21,23,24,24,25,430,431,57,432,433,21,23,24,24,25,83,84,85,182,183,184,185,186,187,188,189,190,191,85,123,21,23,22,24,25,
6,7,121,129,130,65,65,65,65,65,65,65,208,65,65,65,81,82,65,65,450,451,294,452,453,65,65,65,129,130,81,82,81,82,65,202,203,204,205,206,207,65,81,82,81,82,127,128,6,7,
66,67,141,149,150,85,85,85,85,85,85,85,228,85,85,85,101,102,85,85,470,471,314,472,473,85,85,85,149,150,101,102,101,102,85,222,223,224,225,226,227,85,101,102,101,102,147,148,26,27,
86,87,221,29,69,70,69,70,69,70,69,70,248,70,69,70,69,70,69,70,69,71,37,72,91,70,69,70,69,70,69,70,69,70,69,70,69,70,69,70,69,70,69,70,69,70,30,43,66,67,
106,107,221,51,57,58,57,58,57,58,57,58,57,58,57,58,57,58,57,58,57,58,57,58,57,58,57,58,57,58,57,58,111,88,108,343,344,345,346,347,348,88,108,88,92,58,52,43,86,87,
6,7,221,31,37,38,37,38,37,38,37,38,37,38,37,38,37,38,37,38,37,38,37,38,37,38,37,38,37,38,37,38,37,38,362,363,364,365,366,367,368,369,37,38,37,38,32,43,106,107,
26,27,221,51,57,58,57,58,57,58,57,58,57,58,57,58,57,58,57,58,57,58,57,58,57,58,57,58,57,58,57,58,57,58,382,383,384,385,386,387,388,389,57,58,57,58,52,63,156,157,
46,47,221,31,37,38,37,38,37,38,37,38,37,38,37,38,37,38,37,38,37,38,37,38,37,38,37,38,37,38,37,38,37,38,402,403,404,405,406,407,408,409,37,38,37,38,32,83,176,177,
106,107,221,51,57,58,57,58,57,58,57,58,57,58,57,58,57,58,57,58,57,58,57,58,57,58,57,58,57,58,57,58,57,58,57,58,57,58,57,58,57,58,57,58,57,58,57,113,196,197,
1,2,3,5,410,38,37,38,413,1,2,4,2,5,410,38,37,38,413,1,3,2,3,5,410,38,37,38,413,1,3,5,181,38,37,38,37,38,37,38,37,38,37,38,37,38,37,105,6,7,
21,22,23,25,350,351,352,355,354,21,22,24,22,25,430,431,57,432,433,21,23,22,23,25,350,351,352,356,354,21,23,25,201,16,57,58,57,58,57,58,57,58,57,58,57,58,18,125,26,27,
6,7,121,65,370,371,372,375,374,104,6,7,121,65,450,451,294,452,453,104,6,7,121,65,370,371,372,376,374,104,6,7,221,151,37,38,37,38,37,38,37,38,37,38,37,38,32,145,46,47,
86,87,141,85,390,391,392,393,394,124,26,27,141,85,470,471,314,472,473,124,26,27,141,85,390,391,392,393,394,124,26,27,241,51,57,58,57,58,57,58,57,58,57,58,57,58,52,43,26,27,
106,107,221,29,69,71,37,72,115,145,46,47,221,70,69,71,37,72,115,145,46,47,221,70,69,71,37,72,115,145,46,47,261,31,37,38,37,38,37,38,37,38,37,38,37,38,32,43,106,107,
6,7,221,51,57,58,57,58,52,43,66,67,221,58,57,58,57,58,52,43,66,67,221,58,57,58,57,58,52,43,66,67,281,51,57,58,57,58,57,58,57,58,57,58,57,58,52,43,6,7,
86,87,221,31,37,38,37,38,32,43,86,87,242,38,37,38,37,38,32,43,86,87,242,38,37,38,37,38,32,43,86,87,301,31,37,38,37,38,37,38,37,38,37,38,37,38,32,43,66,67,
106,107,221,51,57,58,57,58,52,43,106,107,221,58,57,58,57,58,52,43,106,107,221,58,57,58,57,58,52,43,106,107,221,51,57,58,57,58,57,58,57,58,57,58,57,58,52,43,106,107,
1,2,3,4,5,1,2,3,4,5,1,2,3,4,5,1,2,3,4,5,1,2,3,4,5,1,3,2,4,5,1,2,4,4,5,1,2,4,3,5,1,2,2,4,5,1,2,2,4,5,
21,22,23,24,25,21,22,23,24,25,21,22,23,24,25,21,22,23,24,25,21,22,23,23,25,21,23,23,23,25,21,22,24,23,25,21,22,23,23,25,21,22,22,24,25,21,22,22,23,25
</data>
 </layer>
 <layer id="2" name="fore" width="50" height="60">
  <data encoding="csv">
0,0,0,0,0,0,0,0,0,0,0,0,0,0,0,0,0,0,0,0,0,0,0,0,0,0,0,0,0,0,0,0,0,0,0,0,0,0,0,0,0,0,0,0,0,0,0,0,0,0,
0,0,0,0,0,0,0,0,0,0,0,0,0,0,0,0,0,0,0,0,0,0,0,0,0,0,0,0,0,0,0,0,0,0,0,0,0,0,0,0,0,0,0,0,0,0,0,0,0,0,
0,0,0,0,0,0,0,0,0,0,0,0,0,0,0,0,0,0,0,0,0,0,0,0,0,0,0,0,0,0,0,0,0,522,523,0,0,0,522,523,0,0,0,522,523,0,0,0,0,0,
0,0,0,0,0,0,0,0,0,0,0,0,0,0,0,0,0,0,0,0,0,0,0,0,0,0,0,0,0,0,0,0,0,530,531,0,0,0,530,531,0,0,0,530,531,0,0,0,0,0,
0,0,0,0,0,0,0,0,0,0,0,0,0,0,0,0,0,0,0,0,0,0,0,0,0,0,0,0,0,0,0,0,0,0,0,0,0,0,0,0,0,0,0,0,0,0,0,0,0,0,
0,0,0,0,0,0,0,0,0,0,0,0,0,0,0,0,0,0,0,0,0,0,0,0,0,0,0,0,0,0,0,0,0,0,0,0,0,0,0,0,0,0,0,0,0,0,0,0,0,0,
0,0,0,0,0,0,0,0,0,0,0,0,0,0,0,0,0,0,0,0,0,0,0,0,0,0,0,0,0,0,0,0,0,0,0,0,0,0,0,0,0,0,0,0,0,0,0,0,0,0,
0,0,0,0,0,0,0,0,0,0,0,0,0,0,0,0,0,0,0,0,0,0,0,0,0,0,0,0,0,0,0,0,0,0,0,0,0,0,0,0,0,0,0,0,0,0,0,0,0,0,
0,0,0,0,0,0,0,0,0,0,0,0,0,0,0,0,0,0,0,0,0,0,0,0,0,0,0,0,0,0,0,0,0,0,0,0,0,0,0,0,0,0,0,0,0,0,0,0,0,0,
0,0,0,0,0,0,0,0,0,0,0,0,0,0,0,0,0,0,0,0,0,0,0,0,0,0,0,0,0,0,0,0,0,0,0,0,0,0,0,0,0,0,0,0,0,0,0,0,0,0,
0,0,0,0,0,0,0,0,0,0,0,0,0,0,0,0,0,0,0,0,0,0,0,0,0,0,0,0,0,0,0,0,0,0,0,0,0,0,0,0,0,0,0,0,0,0,0,0,0,0,
0,0,0,0,0,0,0,0,0,0,0,0,0,0,0,0,0,0,0,0,0,0,0,0,0,0,0,0,0,0,0,0,0,0,0,0,0,0,0,0,0,0,0,0,0,0,0,0,0,0,
0,0,0,0,0,0,0,0,0,0,0,0,0,0,0,0,0,0,0,0,0,0,0,0,0,0,0,0,0,0,0,0,0,0,0,0,0,0,0,0,0,0,0,0,0,0,0,0,0,0,
0,0,0,0,0,0,0,0,0,0,0,0,0,0,0,0,0,0,0,0,0,0,0,0,0,0,0,0,0,0,0,0,0,0,0,0,0,0,0,0,0,0,0,0,0,0,0,0,0,0,
0,0,0,0,0,0,0,0,0,0,0,0,0,0,0,0,0,0,0,0,0,0,0,0,0,0,0,0,0,0,0,0,0,0,0,0,0,0,0,0,0,0,0,0,0,0,0,0,0,0,
0,0,0,0,0,0,0,0,0,0,0,0,0,0,0,0,0,0,0,0,0,0,0,0,0,0,0,0,0,0,0,0,0,0,0,0,0,0,0,0,0,0,0,0,0,0,0,0,0,0,
0,0,0,0,0,0,0,0,0,0,0,0,0,0,0,0,0,0,0,0,0,0,0,0,0,0,0,0,0,0,0,0,0,0,0,0,0,0,0,0,0,0,0,0,0,0,0,0,0,0,
0,0,0,0,0,0,0,0,0,0,0,0,0,0,0,0,0,0,0,0,0,0,0,0,0,0,0,0,0,0,0,0,0,0,0,0,0,0,0,0,0,0,0,0,0,0,0,0,0,0,
0,0,0,0,0,0,0,0,0,0,0,0,0,0,0,0,0,0,0,0,0,0,0,0,0,0,0,0,0,0,0,0,0,0,0,0,0,0,0,0,0,0,0,0,0,0,0,0,0,0,
0,0,0,0,0,0,0,0,0,0,0,0,0,0,0,0,0,0,0,0,0,0,0,0,0,0,0,0,0,0,0,0,0,0,0,0,0,0,0,0,0,0,0,0,0,0,0,0,0,0,
0,0,0,0,0,0,0,0,0,0,0,0,0,0,0,0,0,0,0,0,0,0,0,0,0,0,0,0,0,0,0,0,0,0,0,0,0,0,0,0,0,0,0,0,0,0,0,0,0,0,
0,0,0,0,0,0,0,0,0,0,0,0,0,0,0,0,0,0,0,0,0,0,0,0,0,557,558,559,0,0,0,0,0,0,0,0,0,0,0,0,0,0,0,0,0,0,0,0,0,0,
0,0,0,526,527,0,0,0,0,0,539,540,541,542,543,544,0,0,524,525,0,0,0,0,0,565,566,567,0,0,524,525,0,0,0,0,0,524,525,0,0,0,0,0,0,0,524,525,0,0,
0,0,0,534,535,0,0,0,0,0,547,548,549,550,551,552,0,0,532,533,0,0,0,0,0,573,574,575,0,0,532,533,0,0,0,0,0,532,533,0,0,0,0,0,0,0,532,533,0,0,
0,0,0,0,0,0,0,0,0,0,0,0,0,0,0,0,0,0,0,0,0,0,0,0,0,0,0,0,0,0,0,0,0,0,0,0,0,0,0,0,0,0,0,0,0,0,0,0,0,0,
0,0,0,0,0,0,0,0,0,0,0,0,0,0,0,0,0,0,0,0,0,0,0,0,0,0,0,0,0,0,0,0,0,0,0,0,0,0,0,0,0,0,0,0,0,0,0,0,0,0,
0,0,0,0,0,0,0,0,0,0,0,0,0,0,0,0,0,0,0,0,0,0,0,0,0,0,0,0,0,0,0,0,0,0,0,0,0,0,0,562,563,0,0,0,0,0,0,0,0,0,
0,0,0,0,0,0,0,0,0,0,0,0,0,0,0,0,0,0,0,0,0,0,0,0,0,0,0,0,0,0,0,0,0,0,0,0,0,0,0,570,571,0,0,0,0,0,0,0,0,0,
0,0,0,0,0,0,0,0,0,0,0,0,0,0,0,0,0,0,0,0,0,0,0,0,0,0,0,0,0,0,0,0,0,0,0,0,0,0,0,578,579,0,0,0,0,0,0,0,0,0,
0,0,0,0,0,0,0,0,0,0,0,0,0,0,0,0,0,0,0,0,0,0,0,0,0,0,0,0,0,0,0,0,0,0,0,0,0,0,0,0,0,0,0,0,0,0,0,0,0,0,
0,0,0,0,0,0,0,0,0,0,0,0,0,0,0,0,0,0,0,0,0,0,0,0,0,0,0,0,0,0,0,0,0,0,0,0,0,0,0,0,0,0,0,0,0,0,0,0,0,0,
0,0,0,0,0,0,0,0,0,0,0,0,0,0,0,0,0,0,0,0,0,0,0,0,0,0,0,0,0,0,0,0,0,0,0,0,0,0,0,0,0,0,0,0,0,0,0,0,0,0,
0,0,0,0,0,0,0,0,0,0,0,0,0,0,0,0,0,0,0,0,0,0,0,0,0,0,0,0,0,0,0,0,0,0,0,0,0,0,0,0,0,0,0,0,0,0,0,0,0,0,
0,0,0,0,0,0,0,0,0,0,0,0,0,0,0,0,0,0,0,0,0,0,0,0,0,0,0,0,0,0,0,0,0,0,0,0,0,0,0,0,0,0,0,0,0,0,524,525,0,0,
0,0,0,0,0,0,0,0,0,0,0,0,0,0,0,0,0,0,0,0,0,0,0,0,0,0,0,0,0,0,0,0,0,0,0,0,0,0,0,562,563,0,0,0,0,0,532,533,0,0,
0,0,0,0,0,0,0,557,558,559,0,0,0,0,0,0,0,0,0,0,0,0,0,0,0,0,0,0,0,0,0,0,0,0,0,0,0,0,0,570,571,0,0,0,0,0,0,0,0,0,
0,0,0,526,527,0,0,565,566,567,0,0,0,0,0,522,523,0,0,0,522,523,0,0,0,0,0,0,0,0,0,0,0,0,0,0,0,0,0,578,579,0,0,0,0,0,0,0,0,0,
0,0,0,534,535,0,0,573,574,575,0,0,0,0,0,530,531,0,0,0,530,531,0,0,0,0,0,0,0,0,0,0,0,0,0,0,0,0,0,0,0,0,0,0,0,0,0,0,0,0,
0,0,0,0,0,0,0,0,0,0,0,0,0,0,0,0,0,0,0,0,0,0,0,0,0,0,0,0,0,0,0,0,0,0,0,0,0,0,0,0,0,0,0,0,0,0,0,0,0,0,
0,0,0,0,0,0,0,0,0,0,0,0,0,0,0,0,0,0,0,0,0,0,0,0,0,0,0,0,0,0,0,0,0,0,0,0,0,0,0,0,0,0,0,0,0,0,0,0,0,0,
0,0,0,0,0,0,0,0,0,0,0,0,0,0,0,0,0,0,0,0,0,0,0,0,0,0,0,0,0,0,0,0,0,0,0,0,0,0,0,0,0,0,0,0,0,0,0,0,0,0,
0,0,0,0,0,0,0,0,0,0,0,0,0,0,0,0,0,0,0,0,0,557,558,559,0,0,0,0,0,0,0,0,0,0,0,0,0,0,0,0,0,0,0,0,0,0,0,0,0,0,
0,0,0,526,527,0,0,0,0,0,0,0,0,0,0,0,522,523,0,0,0,565,566,567,0,0,0,0,526,527,522,523,522,523,0,539,540,541,542,543,544,0,522,523,522,523,524,525,0,0,
0,0,0,534,535,0,0,0,0,0,0,0,0,0,0,0,530,531,0,0,0,573,574,575,0,0,0,0,534,535,530,531,530,531,0,547,548,549,550,551,552,0,530,531,530,531,532,533,0,0,
0,0,0,0,0,0,0,0,0,0,0,0,0,0,0,0,0,0,0,0,0,0,0,0,0,0,0,0,0,0,0,0,0,0,0,0,0,0,0,0,0,0,0,0,0,0,0,0,0,0,
0,0,0,0,0,0,0,0,0,0,0,0,0,0,0,0,0,0,0,0,0,0,0,0,0,0,0,0,0,0,0,0,0,0,0,0,0,0,0,0,0,0,0,0,0,0,0,0,0,0,
0,0,0,0,0,0,0,0,0,0,0,0,0,0,0,0,0,0,0,0,0,0,0,0,0,0,0,0,0,0,0,0,0,0,0,0,0,537,538,0,0,0,0,0,0,0,0,0,0,0,
0,0,0,0,0,0,0,0,0,0,0,0,0,0,0,0,0,0,0,0,0,0,0,0,0,0,0,0,0,0,0,0,0,0,0,0,0,0,0,0,0,0,0,0,0,0,0,0,0,0,
0,0,0,0,0,0,0,0,0,0,0,0,0,0,0,0,0,0,0,0,0,0,0,0,0,0,0,0,0,0,0,0,0,0,0,0,0,0,0,0,0,0,0,0,0,0,0,0,0,0,
0,0,0,0,0,0,0,0,0,0,0,0,0,0,0,0,0,0,0,0,0,0,0,0,0,0,0,0,0,0,0,0,0,0,0,0,0,0,0,0,0,0,0,0,0,0,0,0,0,0,
0,0,0,0,0,0,0,0,0,0,0,0,0,0,0,0,0,0,0,0,0,0,0,0,0,0,0,0,0,0,0,0,0,0,0,0,0,0,0,0,0,0,0,0,0,0,0,0,0,0,
0,0,0,0,0,0,0,0,0,0,0,0,0,0,0,557,558,545,0,0,0,0,0,0,0,0,0,0,0,0,0,0,0,0,0,0,0,0,0,0,0,0,0,0,0,0,0,0,0,0,
0,0,0,0,0,0,0,0,0,0,0,0,0,0,0,565,566,553,0,0,0,0,0,0,0,0,0,0,0,0,0,0,0,0,0,0,0,0,0,0,0,0,0,0,0,0,0,0,0,0,
0,0,0,0,572,573,574,575,576,0,0,0,0,0,0,573,574,575,0,0,0,0,0,0,572,0,0,0,0,0,0,0,0,0,0,0,0,0,0,0,0,0,0,0,0,0,0,0,0,0,
0,0,0,0,0,0,0,0,0,0,0,0,0,0,0,0,0,0,0,0,0,0,0,0,0,0,0,0,0,0,0,0,521,0,0,0,0,0,0,0,0,0,0,0,0,0,0,0,0,0,
0,0,0,0,0,0,0,0,0,0,0,0,0,0,0,0,0,0,0,0,0,0,0,0,0,0,0,0,0,0,0,0,529,0,0,0,0,0,0,0,0,0,0,0,0,0,0,0,0,0,
0,0,0,0,0,0,0,0,0,0,0,0,0,0,0,0,0,0,0,0,0,0,0,0,0,0,0,0,0,0,0,0,0,0,0,0,0,0,0,0,0,0,0,0,0,0,0,0,0,0,
0,0,0,0,0,0,0,0,0,0,0,0,0,0,0,0,0,0,0,0,0,0,0,0,0,0,0,0,0,0,0,0,0,0,0,0,0,0,0,0,0,0,0,0,0,0,0,0,0,0,
0,0,0,0,0,0,0,0,0,0,0,0,0,0,0,0,0,0,0,0,0,0,0,0,0,0,0,0,0,0,0,0,0,0,0,0,0,0,0,0,0,0,0,0,0,0,0,0,0,0,
0,0,0,0,0,0,0,0,0,0,0,0,0,0,0,0,0,0,0,0,0,0,0,0,0,0,0,0,0,0,0,0,0,0,0,0,0,0,0,0,0,0,0,0,0,0,0,0,0,0
</data>
 </layer>
 <layer id="12" name="mask" width="50" height="60" opacity="0.5">
  <data encoding="csv">
0,0,0,0,0,0,0,0,0,0,0,0,0,0,0,0,0,0,0,0,0,0,0,0,0,0,0,0,0,0,0,0,0,0,0,0,0,0,0,0,0,0,0,0,0,0,0,0,0,0,
0,0,0,0,0,0,0,0,0,0,0,0,0,0,0,0,0,0,0,0,0,0,0,0,0,0,0,0,0,0,0,0,0,0,0,0,0,0,0,0,0,0,0,0,0,0,0,0,0,0,
0,0,0,0,0,0,0,0,0,0,0,0,0,0,0,0,0,0,0,0,0,0,0,0,0,0,0,0,0,0,0,0,0,0,0,0,0,0,0,0,0,0,0,0,0,0,0,0,0,0,
0,0,0,0,0,0,0,0,0,0,0,0,0,0,0,0,0,0,0,0,0,0,0,0,0,0,0,0,0,0,0,0,0,0,0,0,0,0,0,0,0,0,0,0,0,0,0,0,0,0,
0,0,0,0,0,0,0,0,0,0,0,0,0,0,0,0,0,0,0,0,0,0,0,0,0,0,0,0,0,0,0,0,0,0,0,0,0,0,0,0,0,0,0,0,0,0,0,0,0,0,
0,0,0,0,0,0,0,0,0,0,0,0,0,0,0,0,0,0,0,0,0,0,0,0,0,0,0,0,0,0,0,0,0,0,0,0,0,0,0,0,0,0,0,0,0,0,0,0,0,0,
0,0,0,0,0,0,0,0,0,0,0,0,0,0,0,0,0,0,0,0,0,0,0,0,0,0,0,0,0,0,0,0,0,0,0,0,0,0,0,0,0,0,0,0,0,0,0,0,0,0,
0,0,0,0,0,0,0,0,0,0,0,0,0,0,0,0,0,0,0,0,0,0,0,0,0,0,0,0,0,0,0,0,0,0,0,0,0,0,0,0,0,0,0,0,0,0,0,0,0,0,
0,0,0,0,0,0,0,0,0,0,0,0,0,0,0,0,0,0,0,0,0,0,0,0,0,0,0,0,0,0,0,0,0,0,0,0,0,0,0,0,0,0,0,0,0,0,0,0,0,0,
0,0,0,0,0,0,0,0,0,0,0,0,0,0,0,0,0,0,0,0,0,0,0,0,0,0,0,0,0,0,0,0,0,0,0,0,0,0,0,0,0,0,0,0,0,0,0,0,0,0,
0,0,0,0,0,0,0,0,0,0,0,0,0,0,0,0,0,0,0,0,0,0,0,0,0,0,0,0,0,0,0,0,0,0,0,0,0,0,0,0,0,0,0,0,0,0,0,0,0,0,
0,0,0,0,0,0,0,0,0,0,0,0,0,0,0,0,0,0,0,0,0,0,0,0,0,0,0,0,0,0,0,0,0,0,0,0,0,0,0,0,0,0,0,0,0,0,0,0,0,0,
0,0,0,0,0,0,0,0,0,0,0,0,0,0,0,0,0,0,0,0,0,0,0,0,0,0,0,0,0,0,0,0,0,0,0,0,0,0,0,0,0,0,0,0,0,0,0,0,0,0,
0,0,0,0,0,0,0,0,0,0,0,0,0,0,0,0,0,0,0,0,0,0,0,0,0,0,0,0,0,0,0,0,0,0,0,0,0,0,0,0,0,0,0,0,0,0,0,0,0,0,
0,0,0,0,0,0,0,0,0,0,0,0,0,0,0,0,0,0,0,0,0,0,0,0,0,0,0,0,0,0,0,0,0,0,0,0,0,0,0,0,0,0,0,0,0,0,0,0,0,0,
0,0,0,0,0,0,0,0,0,0,0,0,0,0,0,0,0,0,0,0,0,0,0,0,0,0,0,0,0,0,0,0,0,0,0,0,0,0,0,0,0,0,0,0,0,0,0,0,0,0,
0,0,0,0,0,0,0,0,0,0,0,0,0,0,0,0,0,0,0,0,0,0,0,0,0,0,0,0,0,0,0,0,0,0,0,0,0,0,0,0,0,0,0,0,0,0,0,0,0,0,
0,0,0,0,0,0,0,0,0,0,0,0,0,0,0,0,0,0,0,0,0,0,0,0,0,0,0,0,0,0,0,0,0,0,0,0,0,0,0,0,0,0,0,0,0,0,0,0,0,0,
0,0,0,0,0,0,0,0,0,0,0,0,0,0,0,0,0,0,0,0,0,0,0,0,0,0,0,0,0,0,0,0,0,0,0,0,0,0,0,0,0,0,0,0,0,0,0,0,0,0,
0,0,0,0,0,0,0,0,0,0,0,0,0,0,0,0,0,0,0,0,0,0,0,0,0,0,0,0,0,0,0,0,0,0,0,0,0,0,0,0,0,0,0,0,0,0,0,0,0,0,
0,0,0,636,636,636,636,636,636,636,636,636,636,636,636,636,636,636,636,636,636,636,636,636,644,0,0,0,641,636,636,636,636,636,636,636,636,636,636,636,636,636,636,636,636,636,636,0,0,0,
0,0,0,0,0,0,0,0,0,0,0,0,0,0,0,0,0,0,0,0,0,0,0,0,652,0,0,0,649,0,0,0,0,0,0,0,0,0,0,0,0,0,0,0,0,0,0,0,0,0,
0,0,0,0,0,0,0,0,0,0,0,0,0,0,0,0,0,0,0,0,0,0,0,0,0,0,0,0,0,0,0,0,0,0,0,0,0,0,0,0,0,0,0,0,0,0,0,0,0,0,
0,0,0,0,0,0,0,0,0,0,0,0,0,0,0,0,0,0,0,0,0,0,0,0,0,0,0,0,0,0,0,0,0,0,0,0,0,0,0,0,0,0,0,0,0,0,0,0,0,0,
0,0,0,0,0,0,0,0,0,0,0,0,0,0,0,0,0,0,0,0,0,0,0,0,0,0,0,0,0,0,0,0,0,0,0,0,0,0,0,0,0,0,0,0,0,0,0,0,0,0,
0,0,0,0,0,0,0,0,0,0,0,0,0,0,0,0,0,0,0,0,0,0,0,0,0,0,0,0,0,0,0,0,0,0,0,0,0,0,0,0,0,0,0,0,0,0,0,0,0,0,
0,0,0,0,0,0,0,0,0,0,637,0,0,637,0,0,0,0,0,0,0,0,0,0,0,0,0,0,0,0,0,0,0,0,0,0,0,0,0,0,0,0,0,0,0,0,0,0,0,0,
0,0,0,0,0,0,0,0,0,0,0,0,0,0,0,0,0,0,0,0,0,0,0,0,0,0,0,0,0,0,0,0,0,0,0,0,0,0,0,0,0,0,0,0,0,0,0,0,0,0,
0,0,0,0,0,0,0,0,0,0,0,0,0,0,0,0,0,0,0,0,0,0,0,0,0,0,0,0,0,0,0,0,0,0,0,0,0,0,0,0,0,0,0,0,0,0,0,0,0,0,
0,0,0,0,0,0,0,0,0,0,0,0,0,0,0,0,0,0,0,0,0,0,0,0,0,0,0,0,0,0,0,0,0,0,0,0,0,0,641,0,0,644,0,0,0,0,0,0,0,0,
0,0,0,0,0,0,0,0,0,0,0,0,0,0,0,0,0,0,0,0,0,0,0,0,0,0,0,0,0,0,0,0,634,635,0,0,0,0,649,0,0,652,0,0,0,0,0,0,0,0,
0,0,0,0,0,0,0,0,0,0,0,0,0,0,0,0,0,0,0,0,0,0,0,0,0,0,0,0,0,0,0,0,642,643,0,0,0,0,0,0,0,0,636,636,636,636,636,0,0,0,
0,0,0,0,0,0,0,0,0,0,0,0,0,0,0,0,0,0,0,0,0,0,0,0,0,0,0,0,0,0,0,0,650,651,0,0,0,0,0,0,0,0,0,0,0,0,0,0,0,0,
0,0,0,0,0,0,0,0,0,0,0,0,0,0,0,0,0,0,0,0,0,0,0,0,0,0,0,0,0,0,0,641,636,636,644,0,0,0,0,0,0,0,0,0,0,0,0,0,0,0,
0,0,0,636,636,636,644,0,0,0,641,636,636,636,636,636,636,636,636,636,0,0,0,0,0,0,0,0,0,0,0,649,636,636,652,0,0,0,0,0,0,0,0,0,0,0,0,0,0,0,
0,0,0,0,0,0,652,0,0,0,649,0,0,0,0,0,0,0,0,0,0,0,0,0,0,0,0,0,0,0,0,0,0,0,0,0,0,0,0,0,0,0,0,0,0,0,0,0,0,0,
0,0,0,0,0,0,0,0,0,0,0,0,0,0,0,0,0,0,0,0,0,0,0,0,0,0,0,0,0,0,0,0,0,0,0,0,0,0,0,0,0,0,0,0,0,0,0,0,0,0,
0,0,0,0,0,0,0,0,0,0,0,0,0,0,0,0,0,0,0,0,0,0,0,0,0,0,0,0,0,0,0,0,0,0,0,0,0,0,641,636,636,644,0,0,0,0,0,0,0,0,
0,0,0,0,0,0,0,0,0,0,0,0,0,0,0,0,0,0,0,0,0,0,0,0,0,0,0,0,0,0,641,636,636,636,636,636,636,636,636,636,636,636,636,636,644,0,0,0,0,0,
0,0,0,0,0,0,0,0,0,0,0,0,0,0,0,0,0,0,0,0,0,0,0,0,0,0,0,0,0,0,649,0,0,0,0,0,0,0,0,0,0,0,0,0,652,0,0,0,0,0,
0,0,0,636,636,636,636,636,636,636,636,636,636,636,636,636,636,636,636,636,644,0,0,0,641,636,636,636,636,636,636,0,0,0,0,0,0,0,0,0,0,0,0,0,636,636,636,0,0,0,
0,0,0,0,0,0,0,0,0,0,0,0,0,0,0,0,0,0,0,0,652,0,0,0,636,0,0,0,0,0,0,0,0,0,0,0,0,0,0,0,0,0,0,0,0,0,0,0,0,0,
0,0,0,0,0,0,0,0,0,0,0,0,0,0,0,0,0,0,0,0,0,0,0,0,0,0,0,0,0,0,0,0,0,0,0,0,0,0,0,0,0,0,0,0,0,0,0,0,0,0,
0,0,0,0,0,0,0,0,0,0,0,0,0,0,0,0,0,0,0,0,0,0,0,0,0,0,0,0,0,0,0,0,0,0,0,0,0,0,0,0,0,0,0,0,0,0,0,0,0,0,
0,0,0,0,0,0,0,0,0,0,0,0,0,0,0,0,0,0,0,0,0,0,0,0,0,0,0,0,0,0,0,0,0,0,0,0,0,0,0,0,0,0,0,0,0,0,0,0,0,0,
0,0,0,0,0,0,0,0,0,0,0,0,0,0,0,0,0,0,0,0,0,0,0,0,0,0,0,0,0,0,0,0,0,0,0,657,658,658,658,658,659,0,0,0,0,0,0,0,0,0,
0,0,0,0,0,0,0,0,0,0,0,0,0,0,0,0,0,0,0,0,0,0,0,0,0,0,0,0,0,0,0,0,0,0,0,0,0,0,0,0,0,0,0,0,0,0,0,0,0,0,
0,0,0,0,0,0,0,0,0,0,0,0,0,0,0,0,0,0,0,0,0,0,0,0,0,0,0,0,0,0,0,0,0,0,0,0,0,0,0,0,0,0,0,0,0,0,0,0,634,635,
0,0,0,0,0,0,0,0,0,0,0,0,0,0,0,0,0,0,0,0,0,0,0,0,0,0,0,0,0,0,0,0,0,0,0,0,0,0,0,0,0,0,0,0,0,0,0,0,642,643,
0,0,0,0,0,0,0,0,0,0,0,0,0,0,0,0,0,0,0,0,0,0,0,0,0,0,0,0,0,0,0,0,0,0,0,0,0,0,0,0,0,0,0,0,0,0,0,0,650,651,
0,0,0,636,644,0,0,0,641,636,636,636,636,636,644,0,0,0,641,636,636,636,636,636,644,0,0,0,641,636,636,636,644,0,0,0,0,0,0,0,0,0,0,0,0,0,0,641,636,636,
0,0,0,0,636,636,636,636,636,0,0,0,0,0,652,0,0,0,649,0,0,0,0,0,636,636,636,636,636,0,0,0,652,0,0,0,0,0,0,0,0,0,0,0,0,0,0,649,636,636,
0,0,0,0,0,0,0,0,0,0,0,0,0,0,0,0,0,0,0,0,0,0,0,0,0,0,0,0,0,0,0,0,0,0,0,0,0,0,0,0,0,0,0,0,0,0,0,0,0,0,
0,0,0,0,0,0,0,0,0,0,0,0,0,0,0,0,0,0,0,0,0,0,0,0,0,0,0,0,0,0,0,0,0,0,0,0,0,0,0,0,0,0,0,0,0,0,0,0,0,0,
0,0,0,0,0,0,0,0,0,0,0,0,0,0,0,0,0,0,0,0,0,0,0,0,0,0,0,0,0,0,0,0,0,0,0,0,0,0,0,0,0,0,0,0,0,0,0,0,0,0,
0,0,0,0,0,0,0,0,0,0,0,0,0,0,0,0,0,0,0,0,0,0,0,0,0,0,0,0,0,0,0,0,0,0,0,0,0,0,0,0,0,0,0,0,0,0,0,0,0,0,
0,0,0,0,0,0,0,0,0,0,0,0,0,0,0,0,0,0,0,0,0,0,0,0,0,0,0,0,0,0,0,0,0,0,0,0,0,0,0,0,0,0,0,0,0,0,0,0,0,0,
0,0,0,0,0,0,0,0,0,0,0,0,0,0,0,0,0,0,0,0,0,0,0,0,0,0,0,0,0,0,0,0,0,0,0,0,0,0,0,0,0,0,0,0,0,0,0,0,0,0,
0,0,0,636,636,636,636,636,636,636,636,636,636,636,636,636,636,636,636,0,0,0,0,636,636,636,636,636,636,636,636,636,636,636,636,636,636,636,636,636,636,636,636,636,636,636,636,0,0,0,
0,0,0,0,0,0,0,0,0,0,0,0,0,0,0,0,0,0,0,0,0,0,0,0,0,0,0,0,0,0,0,0,0,0,0,0,0,0,0,0,0,0,0,0,0,0,0,0,0,0
</data>
 </layer>
 <layer id="3" name="col" width="50" height="60" opacity="0.5">
  <data encoding="csv">
618,618,618,618,618,618,618,618,618,618,618,618,618,618,618,618,618,618,618,618,618,618,618,618,618,618,618,618,618,618,618,618,618,618,618,618,618,618,618,618,618,618,618,618,618,618,618,618,618,618,
618,618,618,618,618,618,618,618,618,618,618,618,618,618,618,618,618,618,618,618,618,618,618,618,618,618,618,618,618,618,618,618,618,618,618,618,618,618,618,618,618,618,618,618,618,618,618,618,618,618,
618,618,618,618,618,618,618,618,618,618,618,618,618,618,618,618,618,618,618,618,618,618,618,618,618,618,618,618,618,618,618,618,618,618,618,618,618,618,618,618,618,618,618,618,618,618,618,618,618,618,
618,618,618,619,619,619,619,618,619,619,619,619,618,619,619,619,619,618,619,619,619,619,618,618,618,618,618,618,619,619,619,619,619,619,619,619,619,619,619,619,619,619,619,619,619,619,619,618,618,618,
618,618,618,0,0,0,0,618,0,0,0,0,618,0,0,0,0,618,0,0,0,0,618,618,618,618,618,618,0,0,619,0,0,0,0,0,0,0,0,0,0,0,0,0,0,0,0,618,618,618,
618,618,618,0,0,0,0,618,0,0,0,0,618,0,0,0,0,618,0,0,0,0,618,618,618,618,618,618,0,0,0,0,0,0,0,0,0,0,0,0,0,0,0,0,0,0,0,618,618,618,
618,618,618,0,0,0,0,618,0,0,0,0,618,0,0,0,0,618,0,0,0,0,618,618,618,618,618,618,0,0,0,0,0,0,0,0,0,0,0,0,0,0,0,0,0,0,0,618,618,618,
618,618,618,0,0,0,0,618,0,0,0,0,618,0,0,0,0,618,0,0,0,0,618,618,618,618,618,618,0,0,0,0,0,0,0,0,0,0,0,0,0,0,0,0,0,0,0,618,618,618,
618,618,618,0,0,0,0,618,0,0,0,0,618,0,0,0,0,618,0,0,0,0,618,618,618,618,618,618,0,0,0,0,0,0,0,0,0,0,0,0,0,0,0,0,0,0,0,618,618,618,
618,618,618,0,0,0,0,618,0,0,0,0,618,0,0,0,0,618,0,0,0,0,618,618,618,618,618,618,0,0,0,0,0,0,0,0,0,0,0,0,0,0,0,0,0,0,0,618,618,618,
618,618,618,0,0,0,0,618,0,0,0,0,618,0,0,0,0,618,0,0,0,0,618,618,618,618,618,618,0,0,0,0,0,0,0,0,0,0,0,0,0,0,0,0,0,0,0,618,618,618,
618,618,618,0,0,0,0,618,0,0,0,0,618,0,0,0,0,618,0,0,0,0,618,618,618,618,618,618,0,0,0,0,0,0,0,0,0,0,0,0,0,0,0,0,0,0,0,618,618,618,
618,618,618,0,0,0,0,618,0,0,0,0,618,0,0,0,0,618,0,0,0,0,618,618,618,618,618,618,0,0,0,0,0,0,0,0,0,0,0,0,0,0,0,0,0,0,0,618,618,618,
618,618,618,619,619,619,619,618,619,619,619,619,618,619,619,619,619,618,619,619,619,619,618,618,618,618,618,618,0,0,0,0,0,0,0,0,0,0,0,0,0,0,0,0,0,0,0,618,618,618,
618,618,618,619,619,619,619,618,619,619,619,619,618,619,619,619,619,618,619,619,619,619,618,618,618,618,618,618,0,0,0,0,0,0,0,0,0,0,0,0,0,0,0,0,0,0,0,618,618,618,
618,618,618,0,0,0,0,618,0,0,0,0,618,0,0,0,0,618,0,0,0,0,618,618,618,618,618,618,0,0,0,0,0,0,0,0,0,0,0,0,0,0,0,0,0,0,0,618,618,618,
618,618,618,0,0,0,0,618,0,0,0,0,618,0,0,0,0,618,0,0,0,0,619,619,619,619,619,619,0,0,0,0,0,0,0,0,0,0,0,0,0,0,0,0,0,0,0,618,618,618,
618,618,618,0,0,0,0,0,0,0,0,0,0,0,0,0,0,0,0,0,0,0,0,0,0,0,0,0,0,0,0,0,0,0,0,0,0,0,0,0,0,0,0,0,0,0,0,618,618,618,
618,618,618,0,0,0,0,0,0,0,0,0,0,0,0,0,0,0,0,0,0,0,0,0,0,0,0,0,0,0,0,0,0,0,0,0,0,0,0,0,0,0,0,0,0,0,0,618,618,618,
618,618,618,0,0,0,0,0,0,0,0,0,0,0,0,0,0,0,0,0,0,0,0,0,0,0,0,0,0,0,0,0,0,0,0,0,0,0,0,0,0,0,0,0,0,0,0,618,618,618,
618,618,618,0,0,0,0,0,0,0,0,0,0,0,0,0,0,0,0,0,0,0,0,0,0,0,0,0,0,0,0,0,0,0,0,0,0,0,0,0,0,0,0,0,0,0,0,618,618,618,
618,618,618,618,618,618,618,618,618,618,618,618,618,618,618,618,618,618,618,618,618,618,618,618,618,619,619,619,618,618,618,618,618,618,618,618,618,618,618,618,618,618,618,618,618,618,618,618,618,618,
618,618,618,619,619,619,619,618,618,618,618,618,618,618,618,618,618,618,618,618,618,618,618,618,618,619,619,619,618,618,618,618,618,618,618,618,618,618,618,618,618,618,618,618,618,619,619,619,618,618,
618,618,618,619,619,619,619,619,619,619,619,619,619,619,619,619,619,619,619,619,618,618,618,619,619,0,0,0,619,619,619,618,618,618,618,619,619,619,618,618,618,618,619,619,619,619,619,619,618,618,
618,618,618,0,0,0,619,619,0,0,0,0,0,0,0,0,0,0,0,0,618,618,618,0,0,0,0,0,0,0,0,618,618,618,618,0,0,0,618,618,618,618,0,0,0,0,0,619,618,618,
618,618,618,0,0,0,0,0,0,0,0,0,0,0,0,0,0,0,0,0,618,618,618,0,0,0,0,0,0,0,0,618,618,618,618,0,0,0,618,618,618,618,0,0,0,0,0,619,618,618,
618,618,618,0,0,0,0,0,0,0,0,619,619,0,0,0,0,0,0,0,618,618,618,0,0,0,0,0,0,0,0,618,618,618,618,0,0,0,618,619,619,618,0,0,0,0,0,618,618,618,
618,618,618,0,0,0,0,0,0,619,619,619,619,619,619,0,0,0,0,0,618,618,618,0,0,0,0,0,0,0,0,618,618,618,618,0,0,0,618,619,619,618,0,0,0,0,0,618,618,618,
618,618,618,0,0,0,0,0,0,619,619,619,619,619,619,0,0,0,0,0,618,618,618,0,0,0,0,0,0,0,0,618,618,618,618,0,0,0,618,619,619,618,0,0,0,0,0,618,618,618,
618,618,618,0,0,0,0,0,0,619,619,619,619,619,619,0,0,0,0,0,618,618,618,0,0,0,0,0,0,0,0,618,618,618,618,0,0,0,618,618,618,618,0,0,0,0,0,618,618,618,
618,618,618,0,0,0,0,0,0,619,619,619,619,619,619,0,0,0,0,0,618,618,618,0,0,0,0,0,0,0,0,618,618,618,618,0,0,0,618,618,618,618,0,0,0,0,0,618,618,618,
618,618,618,0,0,0,0,0,0,0,619,619,619,619,0,0,0,0,0,0,618,618,618,0,0,0,0,0,0,0,0,618,618,618,618,0,0,0,618,618,618,618,0,0,0,0,0,618,618,618,
618,618,618,0,0,0,0,0,0,0,0,0,0,0,0,0,0,0,0,0,618,618,618,0,0,0,0,0,0,0,0,0,0,0,0,0,0,0,618,618,618,618,618,618,618,618,618,618,618,618,
618,618,618,0,0,0,0,0,0,0,0,0,0,0,0,0,0,0,0,0,618,618,618,0,0,0,0,0,0,0,0,0,0,0,0,0,0,0,618,618,618,618,618,618,618,619,619,619,618,618,
618,618,618,0,0,0,0,0,0,0,0,0,0,0,0,0,0,0,0,0,618,618,618,0,0,0,0,0,0,0,0,0,0,0,0,0,0,0,618,619,619,618,619,619,619,619,619,619,618,618,
618,618,618,618,618,618,618,619,619,619,618,618,618,618,618,618,618,618,618,618,618,618,618,0,0,0,0,0,0,0,0,618,618,618,618,0,0,0,618,619,619,618,0,0,0,0,0,619,619,618,
618,618,618,619,619,619,618,619,619,619,618,618,618,618,619,619,619,619,619,619,619,619,618,0,0,0,0,0,0,0,0,618,618,618,618,0,0,0,618,619,619,618,0,0,0,0,0,619,618,618,
618,618,618,619,619,619,619,0,0,0,619,619,619,619,619,619,619,619,619,619,619,619,619,0,0,0,0,0,0,0,0,618,618,618,618,0,0,0,618,618,618,618,0,0,0,0,0,618,618,618,
618,618,618,0,0,0,0,0,0,0,0,0,0,619,0,0,0,0,0,0,0,0,0,0,0,0,0,0,0,0,0,618,618,618,618,0,0,0,618,618,618,618,0,0,0,0,0,618,618,618,
618,618,618,0,0,0,0,0,0,0,0,0,0,0,0,0,0,0,0,0,0,0,0,0,0,0,0,0,0,0,0,618,618,618,618,618,618,618,618,618,618,618,618,618,0,0,0,618,618,618,
618,618,618,0,0,0,0,0,0,0,0,0,0,0,0,0,0,0,0,0,0,0,0,0,0,0,0,0,0,0,0,618,618,618,618,618,618,618,618,618,618,618,618,618,0,0,0,618,618,618,
618,618,618,618,618,618,618,618,618,618,618,618,618,618,618,618,618,618,618,618,618,619,619,619,618,618,618,618,618,618,618,618,618,618,618,618,618,618,618,618,618,618,618,618,618,618,618,618,618,618,
618,618,618,618,618,618,618,618,618,618,618,618,618,618,618,619,619,619,619,618,618,619,619,619,618,619,619,619,619,619,619,619,619,619,619,619,619,619,619,619,619,619,619,619,619,619,619,619,618,618,
618,618,618,619,619,619,619,619,619,619,619,619,619,619,619,619,619,619,619,619,619,0,0,0,619,619,619,619,619,619,619,619,619,619,619,619,619,619,619,619,619,619,619,619,619,619,619,619,618,618,
618,618,618,0,0,0,0,0,0,0,0,0,0,0,0,0,0,0,0,0,0,0,0,0,0,0,0,0,0,0,0,0,0,0,0,0,0,0,0,0,0,0,0,0,0,0,0,619,618,618,
618,618,618,0,0,0,0,0,0,0,0,0,0,0,0,0,0,0,0,0,0,0,0,0,0,0,0,0,0,0,0,0,0,0,0,0,0,0,0,0,0,0,0,0,0,0,0,619,618,618,
618,618,618,0,0,0,0,0,0,0,0,0,0,0,0,0,0,0,0,0,0,0,0,0,0,0,0,0,0,0,0,0,0,0,0,619,619,619,619,619,619,0,0,0,0,0,0,618,618,618,
618,618,618,0,0,0,0,0,0,0,0,0,0,0,0,0,0,0,0,0,0,0,0,0,0,0,0,0,0,0,0,0,0,0,0,619,619,619,619,619,619,0,0,0,0,0,0,618,618,618,
618,618,618,0,0,0,0,0,0,0,0,0,0,0,0,0,0,0,0,0,0,0,0,0,0,0,0,0,0,0,0,0,0,0,0,0,0,0,0,0,0,0,0,0,0,0,0,618,618,618,
618,618,618,0,0,0,0,0,0,0,0,0,0,0,0,0,0,0,0,0,0,0,0,0,0,0,0,0,0,0,0,0,0,0,0,0,0,0,0,0,0,0,0,0,0,0,0,0,0,0,
618,618,618,0,0,0,0,0,0,0,0,0,0,0,0,0,0,0,0,0,0,0,0,0,0,0,0,0,0,0,0,0,0,0,0,0,0,0,0,0,0,0,0,0,0,0,0,0,0,0,
618,618,618,618,618,618,618,618,618,618,618,618,618,618,618,619,619,619,618,618,618,618,618,618,618,618,618,618,618,618,618,618,618,0,0,0,0,0,0,0,0,0,0,0,0,0,0,0,0,0,
618,618,618,618,618,618,618,618,618,618,618,618,618,618,618,619,619,619,618,618,618,618,618,618,618,618,618,618,618,618,618,618,618,0,0,0,0,0,0,0,0,0,0,0,0,0,0,618,618,618,
618,618,618,618,618,0,0,0,618,618,618,618,618,618,618,0,0,0,618,618,618,618,618,618,618,0,0,0,618,618,618,618,618,0,0,0,0,0,0,0,0,0,0,0,0,0,0,618,618,618,
618,618,618,0,0,0,0,0,0,618,618,618,618,0,0,0,0,0,0,618,618,618,618,0,0,0,0,0,0,618,618,618,618,0,0,0,0,0,0,0,0,0,0,0,0,0,0,618,618,618,
618,618,618,0,0,0,0,0,0,618,618,618,618,0,0,0,0,0,0,618,618,618,618,0,0,0,0,0,0,618,618,618,618,0,0,0,0,0,0,0,0,0,0,0,0,0,0,618,618,618,
618,618,618,0,0,0,0,0,0,618,618,618,618,0,0,0,0,0,0,618,618,618,618,0,0,0,0,0,0,618,618,618,618,0,0,0,0,0,0,0,0,0,0,0,0,0,0,618,618,618,
618,618,618,0,0,0,0,0,0,618,618,618,618,0,0,0,0,0,0,618,618,618,618,0,0,0,0,0,0,618,618,618,618,0,0,0,0,0,0,0,0,0,0,0,0,0,0,618,618,618,
618,618,618,0,0,0,0,0,0,618,618,618,618,0,0,0,0,0,0,618,618,618,618,0,0,0,0,0,0,618,618,618,618,0,0,0,0,0,0,0,0,0,0,0,0,0,0,618,618,618,
618,618,618,618,618,618,618,618,618,618,618,618,618,618,618,618,618,618,618,618,618,618,618,618,618,618,618,618,618,618,618,618,618,618,618,618,618,618,618,618,618,618,618,618,618,618,618,618,618,618
</data>
 </layer>
 <layer id="14" name="anim" width="50" height="60" visible="0">
  <data encoding="csv">
0,0,0,0,0,0,0,0,0,0,0,0,0,0,0,0,0,0,0,0,0,0,0,0,0,0,0,0,0,0,0,0,0,0,0,0,0,0,0,0,0,0,0,0,0,0,0,0,0,0,
0,0,0,0,0,0,0,0,0,0,0,0,0,0,0,0,0,0,0,0,0,0,0,0,0,0,0,0,0,0,0,0,0,0,0,0,0,0,0,0,0,0,0,0,0,0,0,0,0,0,
0,0,0,0,0,0,0,0,0,0,0,0,0,0,0,0,0,0,0,0,0,0,0,0,0,0,0,0,0,0,0,0,0,0,0,0,0,0,0,0,0,0,0,0,0,0,0,0,0,0,
0,0,0,0,0,0,0,0,0,0,0,0,0,0,0,0,0,0,0,0,0,0,0,0,0,0,0,0,0,0,0,0,0,0,0,0,0,0,0,0,0,0,0,0,0,0,0,0,0,0,
0,0,0,0,0,0,0,0,0,0,0,0,0,0,0,0,0,0,0,0,0,0,0,0,0,0,0,0,0,0,0,0,0,0,0,0,0,0,0,0,0,0,0,0,0,0,0,0,0,0,
0,0,0,0,0,0,0,0,0,0,0,0,0,0,0,0,0,0,0,0,0,0,0,0,0,0,0,0,0,0,0,0,0,0,0,0,0,0,0,0,0,0,0,0,0,0,0,0,0,0,
0,0,0,0,0,0,0,0,0,0,0,0,0,0,0,0,0,0,0,0,0,0,0,0,0,0,0,0,0,0,0,0,0,0,0,0,0,0,0,0,0,0,0,0,0,0,0,0,0,0,
0,0,0,0,0,0,0,0,0,0,0,0,0,0,0,0,0,0,0,0,0,0,0,0,0,0,0,0,0,0,0,0,0,0,0,0,0,0,0,0,0,0,0,0,0,0,0,0,0,0,
0,0,0,0,0,0,0,0,0,0,0,0,0,0,0,0,0,0,0,0,0,0,0,0,0,0,0,0,0,0,0,0,0,0,0,0,0,0,0,0,0,0,0,0,0,0,0,0,0,0,
0,0,0,0,0,0,0,0,0,0,0,0,0,0,0,0,0,0,0,0,0,0,0,0,0,0,0,0,0,0,0,0,0,0,0,0,0,0,0,0,0,0,0,0,0,0,0,0,0,0,
0,0,0,0,0,0,0,0,0,0,0,0,0,0,0,0,0,0,0,0,0,0,0,0,0,0,0,0,0,0,0,0,0,0,0,0,0,0,0,0,0,0,0,0,0,0,0,0,0,0,
0,0,0,0,0,0,0,0,0,0,0,0,0,0,0,0,0,0,0,0,0,0,0,0,0,0,0,0,0,0,0,0,0,0,0,0,0,0,0,0,0,0,0,0,0,0,0,0,0,0,
0,0,0,0,0,0,0,0,0,0,0,0,0,0,0,0,0,0,0,0,0,0,0,0,0,0,0,0,0,0,0,0,0,0,0,0,0,0,0,0,0,0,0,0,0,0,0,0,0,0,
0,0,0,0,0,0,0,0,0,0,0,0,0,0,0,0,0,0,0,0,0,0,0,0,0,0,0,0,0,0,0,0,0,0,0,0,0,0,0,0,0,0,0,0,0,0,0,0,0,0,
0,0,0,0,0,0,0,0,0,0,0,0,0,0,0,0,0,0,0,0,0,0,0,0,0,0,0,0,0,0,0,0,0,0,0,0,0,0,0,0,0,0,0,0,0,0,0,0,0,0,
0,0,0,0,0,0,0,0,0,0,0,0,0,0,0,0,0,0,0,0,0,0,0,0,0,0,0,0,0,0,0,0,0,0,0,0,0,0,0,0,0,0,0,0,0,0,0,0,0,0,
0,0,0,0,0,0,0,0,0,0,0,0,0,0,0,0,0,0,0,0,0,0,0,0,0,0,0,0,0,0,0,0,0,0,0,0,0,0,0,0,0,0,0,0,0,0,0,0,0,0,
0,0,0,0,0,0,0,0,0,0,0,0,0,0,0,0,0,0,0,0,0,0,0,0,0,0,0,0,0,0,0,0,0,0,0,0,0,0,0,0,0,0,0,0,0,0,0,0,0,0,
0,0,0,0,0,0,0,0,0,0,0,0,0,0,0,0,0,0,0,0,0,0,0,0,0,0,0,0,0,0,0,0,0,0,0,0,0,0,0,0,0,0,0,0,0,0,0,0,0,0,
0,0,0,0,0,0,0,0,0,0,0,0,0,0,0,0,0,0,0,0,0,0,0,0,0,0,0,0,0,0,0,0,0,0,0,0,0,0,0,0,0,0,0,0,0,0,0,0,0,0,
0,0,0,0,0,0,0,0,0,0,0,0,0,0,0,0,0,0,0,0,0,0,0,0,0,0,0,0,0,0,0,0,0,0,0,0,0,0,0,0,0,0,0,0,0,0,0,0,0,0,
0,0,0,0,0,0,0,0,0,0,0,0,0,0,0,0,0,0,0,0,0,0,0,0,0,731,731,731,0,0,0,0,0,0,0,0,0,0,0,0,0,0,0,0,0,0,0,0,0,0,
0,0,0,730,730,0,0,0,0,0,730,730,730,730,730,730,0,0,0,0,0,0,0,0,0,731,731,731,0,0,730,730,0,0,0,0,0,730,730,0,0,0,0,0,0,0,730,730,0,0,
0,0,0,730,730,0,0,0,0,0,730,730,730,730,730,730,0,0,0,0,0,0,0,0,0,731,731,731,0,0,730,730,0,0,0,0,0,730,730,0,0,0,0,0,0,0,730,730,0,0,
0,0,0,0,0,0,0,0,0,0,0,0,0,0,0,0,0,0,0,0,0,0,0,0,0,0,0,0,0,0,0,0,0,0,0,0,0,0,0,0,0,0,0,0,0,0,0,0,0,0,
0,0,0,0,0,0,0,0,0,0,0,0,0,0,0,0,0,0,0,0,0,0,0,0,0,0,0,0,0,0,0,0,0,0,0,0,0,0,0,0,0,0,0,0,0,0,0,0,0,0,
0,0,0,0,0,0,0,0,0,0,0,0,0,0,0,0,0,0,0,0,0,0,0,0,0,0,0,0,0,0,0,0,0,0,0,0,0,0,0,732,732,0,0,0,0,0,0,0,0,0,
0,0,0,0,0,0,0,0,0,0,0,0,0,0,0,0,0,0,0,0,0,0,0,0,0,0,0,0,0,0,0,0,0,0,0,0,0,0,0,732,732,0,0,0,0,0,0,0,0,0,
0,0,0,0,0,0,0,0,0,0,0,0,0,0,0,0,0,0,0,0,0,0,0,0,0,0,0,0,0,0,0,0,0,0,0,0,0,0,0,732,732,0,0,0,0,0,0,0,0,0,
0,0,0,0,0,0,0,0,0,0,0,0,0,0,0,0,0,0,0,0,0,0,0,0,0,0,0,0,0,0,0,0,0,0,0,0,0,0,0,0,0,0,0,0,0,0,0,0,0,0,
0,0,0,0,0,0,0,0,0,0,0,0,0,0,0,0,0,0,0,0,0,0,0,0,0,0,0,0,0,0,0,0,0,0,0,0,0,0,0,0,0,0,0,0,0,0,0,0,0,0,
0,0,0,0,0,0,0,0,0,0,0,0,0,0,0,0,0,0,0,0,0,0,0,0,0,0,0,0,0,0,0,0,0,0,0,0,0,0,0,0,0,0,0,0,0,0,0,0,0,0,
0,0,0,0,0,0,0,0,0,0,0,0,0,0,0,0,0,0,0,0,0,0,0,0,0,0,0,0,0,0,0,0,0,0,0,0,0,0,0,0,0,0,0,0,0,0,0,0,0,0,
0,0,0,0,0,0,0,0,0,0,0,0,0,0,0,0,0,0,0,0,0,0,0,0,0,0,0,0,0,0,0,0,0,0,0,0,0,0,0,0,0,0,0,0,0,0,730,730,0,0,
0,0,0,0,0,0,0,0,0,0,0,0,0,0,0,0,0,0,0,0,0,0,0,0,0,0,0,0,0,0,0,0,0,0,0,0,0,0,0,732,732,0,0,0,0,0,730,730,0,0,
0,0,0,0,0,0,0,731,731,731,0,0,0,0,0,0,0,0,0,0,0,0,0,0,0,0,0,0,0,0,0,0,0,0,0,0,0,0,0,732,732,0,0,0,0,0,0,0,0,0,
0,0,0,730,730,0,0,731,731,731,0,0,0,0,0,730,730,0,0,0,730,730,0,0,0,0,0,0,0,0,0,0,0,0,0,0,0,0,0,732,732,0,0,0,0,0,0,0,0,0,
0,0,0,730,730,0,0,731,731,731,0,0,0,0,0,730,730,0,0,0,730,730,0,0,0,0,0,0,0,0,0,0,0,0,0,0,0,0,0,0,0,0,0,0,0,0,0,0,0,0,
0,0,0,0,0,0,0,0,0,0,0,0,0,0,0,0,0,0,0,0,0,0,0,0,0,0,0,0,0,0,0,0,0,0,0,0,0,0,0,0,0,0,0,0,0,0,0,0,0,0,
0,0,0,0,0,0,0,0,0,0,0,0,0,0,0,0,0,0,0,0,0,0,0,0,0,0,0,0,0,0,0,0,0,0,0,0,0,0,0,0,0,0,0,0,0,0,0,0,0,0,
0,0,0,0,0,0,0,0,0,0,0,0,0,0,0,0,0,0,0,0,0,0,0,0,0,0,0,0,0,0,0,0,0,0,0,0,0,0,0,0,0,0,0,0,0,0,0,0,0,0,
0,0,0,0,0,0,0,0,0,0,0,0,0,0,0,0,0,0,0,0,0,731,731,731,0,0,0,0,0,0,0,0,0,0,0,0,0,0,0,0,0,0,0,0,0,0,0,0,0,0,
0,0,0,730,730,0,0,0,0,0,0,0,0,0,0,0,730,730,0,0,0,731,731,731,0,0,0,0,730,730,730,730,730,730,0,730,730,730,730,730,730,0,730,730,730,730,730,730,0,0,
0,0,0,730,730,0,0,0,0,0,0,0,0,0,0,0,730,730,0,0,0,731,731,731,0,0,0,0,730,730,730,730,730,730,0,730,730,730,730,730,730,0,730,730,730,730,730,730,0,0,
0,0,0,0,0,0,0,0,0,0,0,0,0,0,0,0,0,0,0,0,0,0,0,0,0,0,0,0,0,0,0,0,0,0,0,0,0,0,0,0,0,0,0,0,0,0,0,0,0,0,
0,0,0,0,0,0,0,0,0,0,0,0,0,0,0,0,0,0,0,0,0,0,0,0,0,0,0,0,0,0,0,0,0,0,0,0,0,0,0,0,0,0,0,0,0,0,0,0,0,0,
0,0,0,0,0,0,0,0,0,0,0,0,0,0,0,0,0,0,0,0,0,0,0,0,0,0,0,0,0,0,0,0,0,0,0,0,0,730,730,0,0,0,0,0,0,0,0,0,0,0,
0,0,0,0,0,0,0,0,0,0,0,0,0,0,0,0,0,0,0,0,0,0,0,0,0,0,0,0,0,0,0,0,0,0,0,0,0,0,0,0,0,0,0,0,0,0,0,0,0,0,
0,0,0,0,0,0,0,0,0,0,0,0,0,0,0,0,0,0,0,0,0,0,0,0,0,0,0,0,0,0,0,0,0,0,0,0,0,0,0,0,0,0,0,0,0,0,0,0,0,0,
0,0,0,0,0,0,0,0,0,0,0,0,0,0,0,0,0,0,0,0,0,0,0,0,0,0,0,0,0,0,0,0,0,0,0,0,0,0,0,0,0,0,0,0,0,0,0,0,0,0,
0,0,0,0,0,0,0,0,0,0,0,0,0,0,0,0,0,0,0,0,0,0,0,0,0,0,0,0,0,0,0,0,0,0,0,0,0,0,0,0,0,0,0,0,0,0,0,0,0,0,
0,0,0,0,0,0,0,0,0,0,0,0,0,0,0,731,731,731,0,0,0,0,0,0,0,0,0,0,0,0,0,0,0,0,0,0,0,0,0,0,0,0,0,0,0,0,0,0,0,0,
0,0,0,0,0,0,0,0,0,0,0,0,0,0,0,731,731,731,0,0,0,0,0,0,0,0,0,0,0,0,0,0,0,0,0,0,0,0,0,0,0,0,0,0,0,0,0,0,0,0,
0,0,0,0,0,0,0,0,0,0,0,0,0,0,0,731,731,731,0,0,0,0,0,0,0,0,0,0,0,0,0,0,0,0,0,0,0,0,0,0,0,0,0,0,0,0,0,0,0,0,
0,0,0,0,0,0,0,0,0,0,0,0,0,0,0,0,0,0,0,0,0,0,0,0,0,0,0,0,0,0,0,0,730,0,0,0,0,0,0,0,0,0,0,0,0,0,0,0,0,0,
0,0,0,0,0,0,0,0,0,0,0,0,0,0,0,0,0,0,0,0,0,0,0,0,0,0,0,0,0,0,0,0,730,0,0,0,0,0,0,0,0,0,0,0,0,0,0,0,0,0,
0,0,0,0,0,0,0,0,0,0,0,0,0,0,0,0,0,0,0,0,0,0,0,0,0,0,0,0,0,0,0,0,0,0,0,0,0,0,0,0,0,0,0,0,0,0,0,0,0,0,
0,0,0,0,0,0,0,0,0,0,0,0,0,0,0,0,0,0,0,0,0,0,0,0,0,0,0,0,0,0,0,0,0,0,0,0,0,0,0,0,0,0,0,0,0,0,0,0,0,0,
0,0,0,0,0,0,0,0,0,0,0,0,0,0,0,0,0,0,0,0,0,0,0,0,0,0,0,0,0,0,0,0,0,0,0,0,0,0,0,0,0,0,0,0,0,0,0,0,0,0,
0,0,0,0,0,0,0,0,0,0,0,0,0,0,0,0,0,0,0,0,0,0,0,0,0,0,0,0,0,0,0,0,0,0,0,0,0,0,0,0,0,0,0,0,0,0,0,0,0,0
</data>
 </layer>
 <layer id="5" name="event" width="50" height="60" visible="0">
  <data encoding="csv">
0,0,0,0,0,0,0,0,0,0,0,0,0,0,0,0,0,0,0,0,0,0,0,0,0,0,0,0,0,0,0,0,0,0,0,0,0,0,0,0,0,0,0,0,0,0,0,0,0,0,
0,0,0,0,0,0,0,0,0,0,0,0,0,0,0,0,0,0,0,0,0,0,0,0,0,0,0,0,0,0,0,0,0,0,0,0,0,0,0,0,0,0,0,0,0,0,0,0,0,0,
0,0,0,0,0,0,0,0,0,0,0,0,0,0,0,0,0,0,0,0,0,0,0,0,0,0,0,0,0,0,0,0,0,0,0,0,0,0,0,0,0,0,0,0,0,0,0,0,0,0,
0,0,0,0,0,0,0,0,0,0,0,0,0,0,0,0,0,0,0,0,0,0,0,0,0,0,0,0,0,0,0,0,0,0,0,0,0,0,0,0,0,0,0,0,0,0,0,0,0,0,
0,0,0,0,0,0,0,0,0,0,0,0,0,0,0,0,0,0,0,0,0,0,0,0,0,0,0,0,0,0,0,0,0,0,0,0,0,0,0,0,0,0,0,0,0,0,0,0,0,0,
0,0,0,0,0,0,0,0,0,0,0,0,0,0,0,0,0,0,0,0,0,0,0,0,0,0,0,0,0,0,0,0,0,0,0,0,0,0,0,0,0,0,0,0,0,0,0,0,0,0,
0,0,0,0,0,0,0,0,0,0,0,0,0,0,0,0,0,0,0,0,0,0,0,0,0,0,0,0,0,0,0,0,0,0,0,0,0,0,0,0,0,0,0,0,0,0,0,0,0,0,
0,0,0,0,0,0,0,0,0,0,0,0,0,0,0,0,0,0,0,0,0,0,0,0,0,0,0,0,0,0,0,0,0,706,706,706,706,706,706,706,706,706,706,0,0,0,0,0,0,0,
0,0,0,0,0,0,0,0,0,0,0,0,0,0,0,0,0,0,0,0,0,0,0,0,0,0,0,0,0,0,0,0,0,706,706,706,706,706,706,706,706,706,706,0,0,0,0,0,0,0,
0,0,0,0,0,0,0,0,0,0,0,0,0,0,0,0,0,0,0,0,0,0,0,0,0,0,0,0,0,0,0,0,0,706,706,706,706,706,706,706,706,706,706,0,0,0,0,0,0,0,
0,0,0,0,0,0,0,0,0,0,0,0,0,0,0,0,0,0,0,0,0,0,0,0,0,0,0,0,0,0,0,0,0,706,706,706,706,706,706,706,706,706,706,0,0,0,0,0,0,0,
0,0,0,0,0,0,0,0,0,0,0,0,0,0,0,0,0,0,0,0,0,0,0,0,0,0,0,0,0,0,0,0,0,706,706,706,706,706,706,706,706,706,706,0,0,0,0,0,0,0,
0,0,0,0,0,0,0,0,0,0,0,0,0,0,0,0,0,0,0,0,0,0,0,0,0,0,0,0,0,0,0,0,0,706,706,706,706,706,706,706,706,706,706,0,0,0,0,0,0,0,
0,0,0,0,0,0,0,0,0,0,0,0,0,0,0,0,0,0,0,0,0,0,0,0,0,0,0,0,0,0,0,0,0,706,706,706,706,706,706,706,706,706,706,0,0,0,0,0,0,0,
0,0,0,702,702,702,702,0,703,703,703,703,0,704,704,704,704,0,705,705,705,705,0,0,0,0,0,0,0,0,0,0,0,706,706,706,706,706,706,706,706,706,706,0,0,0,0,0,0,0,
0,0,0,702,702,702,702,0,703,703,703,703,0,704,704,704,704,0,705,705,705,705,0,0,0,0,0,0,0,0,0,0,0,706,706,706,706,706,706,706,706,706,706,0,0,0,0,0,0,0,
0,0,0,702,702,702,702,0,703,703,703,703,0,704,704,704,704,0,705,705,705,705,0,0,0,0,0,0,0,0,0,0,0,706,706,706,706,706,706,706,706,706,706,0,0,0,0,0,0,0,
0,0,0,0,0,0,0,0,0,0,0,0,0,0,0,0,0,0,0,0,0,0,0,0,715,715,715,715,715,0,0,0,0,0,0,0,0,0,0,0,0,0,0,0,0,0,0,0,0,0,
0,0,0,0,0,0,0,0,0,0,0,0,0,0,0,0,0,0,0,0,0,0,0,715,715,715,715,715,715,715,0,0,0,0,0,0,0,0,0,0,0,0,0,0,0,0,0,0,0,0,
0,0,0,0,0,0,0,0,0,0,0,0,0,0,0,0,0,0,0,0,0,0,0,715,715,701,701,701,715,715,0,0,0,0,0,0,0,0,0,0,0,0,0,0,0,0,0,0,0,0,
0,0,0,0,0,0,0,0,0,0,0,0,0,0,0,0,0,0,0,0,0,0,0,0,701,701,701,701,701,0,0,0,0,0,0,0,0,0,0,0,0,0,0,0,0,0,0,0,0,0,
0,0,0,0,0,0,0,0,0,0,0,0,0,0,0,0,0,0,0,0,0,0,0,0,701,701,701,701,701,0,0,0,0,0,0,0,0,0,0,0,0,0,0,0,0,0,0,0,0,0,
0,0,0,0,0,0,0,0,0,0,0,0,0,0,0,0,0,0,0,0,0,0,0,0,701,701,701,701,701,0,0,0,0,0,0,0,0,0,0,0,0,0,0,0,0,0,0,0,0,0,
0,0,0,0,0,0,0,0,0,0,0,0,0,0,0,0,0,0,0,0,0,0,0,0,701,701,701,701,701,0,0,0,0,0,0,0,0,0,0,0,0,0,0,0,0,0,0,0,0,0,
0,0,0,0,0,0,0,0,0,0,0,0,0,0,0,0,0,0,0,0,0,0,0,0,0,701,701,701,0,0,0,0,0,0,0,0,0,0,0,0,0,0,0,0,0,0,0,0,0,0,
0,0,0,0,0,0,0,0,0,714,714,714,714,714,714,0,0,0,0,0,0,0,0,0,0,0,0,0,0,0,0,0,0,0,0,0,0,0,0,0,0,0,0,0,0,0,0,0,0,0,
0,0,0,0,0,0,0,0,714,714,714,0,0,714,714,714,0,0,0,0,0,0,0,0,0,0,0,0,0,0,0,0,0,0,0,0,0,0,0,0,0,0,0,0,0,0,0,0,0,0,
0,0,0,0,0,0,0,714,714,0,0,0,0,0,0,714,714,0,0,0,0,0,0,0,0,0,0,0,0,0,0,0,0,0,0,0,711,711,0,0,0,0,0,0,0,0,0,0,0,0,
0,0,0,0,0,0,0,714,714,0,0,0,0,0,0,714,714,0,0,0,0,0,0,0,0,0,0,0,0,0,0,0,0,0,0,0,711,711,0,0,0,0,0,0,0,0,0,0,0,0,
0,0,0,0,0,0,0,0,0,0,0,0,0,0,0,0,0,0,0,0,0,0,0,0,0,0,0,0,0,0,0,0,0,0,0,0,711,711,0,0,0,0,0,0,0,0,0,0,0,0,
0,0,0,0,0,0,0,0,0,0,0,0,0,0,0,0,0,0,0,0,0,0,0,0,0,0,0,0,0,0,0,0,0,0,0,0,0,0,0,0,0,0,0,0,0,0,0,0,0,0,
0,0,0,0,0,0,0,0,0,0,0,0,0,0,0,0,0,0,0,0,0,0,0,0,0,0,0,0,0,0,0,0,0,0,0,0,0,0,0,0,0,0,0,0,0,0,0,0,0,0,
0,0,0,0,0,708,708,708,708,708,708,0,0,0,0,0,0,0,0,0,0,0,0,0,0,0,0,0,0,0,0,0,0,0,0,0,0,0,0,0,0,0,0,0,0,0,0,0,0,0,
0,0,0,0,0,708,708,700,700,700,708,0,0,0,0,0,0,0,0,0,0,0,0,0,0,0,0,0,0,0,0,0,0,0,0,0,0,0,0,0,0,0,0,0,0,0,0,0,0,0,
0,0,0,0,0,0,700,700,700,700,700,0,0,0,0,0,0,0,0,0,0,0,0,0,0,0,0,0,0,0,0,0,0,0,0,0,0,0,0,0,0,0,0,0,0,0,0,0,0,0,
0,0,0,0,0,0,700,700,700,700,700,0,0,0,0,0,0,0,0,0,0,0,0,0,0,0,0,0,0,0,0,0,0,0,0,0,712,712,0,0,0,0,0,0,0,0,0,0,0,0,
0,0,0,0,0,0,700,700,700,700,700,0,0,0,0,0,0,0,0,0,0,0,0,0,0,0,0,0,0,0,0,0,0,0,0,0,712,712,0,0,0,0,0,0,0,0,0,0,0,0,
0,0,0,0,0,0,700,700,700,700,700,0,0,0,0,0,0,0,0,0,0,0,0,0,0,0,0,0,0,0,0,0,0,0,0,0,712,712,0,0,0,0,0,0,0,0,0,0,0,0,
0,0,0,0,0,0,0,700,700,700,0,0,0,0,0,0,0,0,0,0,0,0,0,0,0,0,0,0,0,0,0,0,0,0,0,0,0,0,0,0,0,0,0,0,0,0,0,0,0,0,
0,0,0,0,0,0,0,0,0,0,0,0,0,0,0,0,0,0,0,0,0,699,699,699,0,0,0,0,0,0,0,0,0,0,0,0,0,0,0,0,0,0,0,0,0,0,0,0,0,0,
0,0,0,0,0,0,0,0,0,0,0,0,0,0,0,0,0,0,0,0,699,699,699,699,699,0,0,0,0,0,0,0,0,0,0,0,0,0,0,0,0,0,0,0,0,0,0,0,0,0,
0,0,0,0,0,0,0,0,0,0,0,0,0,0,0,0,0,0,0,0,699,699,699,699,699,0,0,0,0,0,0,0,0,0,0,0,0,0,0,0,0,0,0,0,0,0,0,0,0,0,
0,0,0,0,0,0,0,0,0,0,0,0,0,0,0,0,0,0,0,0,699,699,699,699,699,0,0,0,0,0,0,0,0,0,0,0,0,0,0,0,0,0,0,0,0,0,0,0,0,0,
0,0,0,0,0,0,0,0,0,0,0,0,0,0,0,0,0,0,0,0,699,699,699,699,699,0,0,0,0,0,0,0,0,0,0,0,0,0,0,0,0,0,0,0,0,0,0,0,0,0,
0,0,0,0,0,0,0,0,0,0,0,0,0,0,0,0,0,0,0,0,0,699,699,699,0,0,0,0,0,0,0,0,0,0,0,709,709,709,709,709,709,0,0,0,0,0,0,0,0,0,
0,0,0,0,0,0,0,0,0,0,0,0,0,0,0,0,0,0,0,0,0,0,0,0,0,0,0,0,0,0,0,0,0,0,0,709,709,709,709,709,709,0,0,0,0,0,0,0,0,0,
0,0,0,0,0,710,710,710,710,710,0,0,0,0,0,0,0,0,0,0,0,0,0,0,0,0,0,0,0,0,0,0,0,0,0,0,709,709,709,709,0,0,0,0,0,0,0,0,0,0,
0,0,0,0,0,710,710,710,710,710,0,0,0,0,0,0,0,0,0,0,0,0,0,0,0,0,0,0,0,0,0,0,0,0,0,0,0,0,0,0,0,0,0,707,707,707,707,0,0,0,
0,0,0,0,0,710,710,710,710,710,0,0,0,0,0,0,0,0,0,0,0,0,0,0,0,0,0,0,0,0,0,0,0,0,0,0,0,713,713,0,0,0,0,707,707,707,707,0,0,0,
0,0,0,0,0,0,0,0,0,0,0,0,0,0,0,698,698,698,0,0,0,0,0,0,0,0,0,0,0,0,0,0,0,0,0,0,713,713,713,0,0,0,0,707,707,716,716,0,697,697,
0,0,0,0,0,0,0,0,0,0,0,0,0,0,698,698,698,698,698,0,0,0,0,0,0,0,0,0,0,0,0,0,0,0,0,713,713,713,0,0,0,0,0,707,707,716,716,0,697,697,
0,0,0,0,0,0,0,0,0,0,0,0,0,0,698,698,698,698,698,0,0,0,0,0,0,0,0,0,0,0,0,0,0,0,713,713,713,0,0,0,0,0,0,707,707,716,716,0,697,697,
0,0,0,0,0,0,0,0,0,0,0,0,0,0,698,698,698,698,698,0,0,0,0,0,0,0,0,0,0,0,0,0,0,713,713,713,0,0,0,0,0,0,0,707,707,707,707,0,0,0,
0,0,0,0,0,0,0,0,0,0,0,0,0,0,698,698,698,698,698,0,0,0,0,0,0,0,0,0,0,0,0,0,0,713,713,0,0,0,0,0,0,0,0,707,707,707,707,0,0,0,
0,0,0,0,0,0,0,0,0,0,0,0,0,0,0,698,698,698,0,0,0,0,0,0,0,0,0,0,0,0,0,0,0,0,0,0,0,0,0,0,0,0,0,0,0,0,0,0,0,0,
0,0,0,0,0,0,0,0,0,0,0,0,0,0,0,0,0,0,0,0,0,0,0,0,0,0,0,0,0,0,0,0,0,0,0,0,0,0,0,0,0,0,0,0,0,0,0,0,0,0,
0,0,0,0,0,0,0,0,0,0,0,0,0,0,0,0,0,0,0,0,0,0,0,0,0,0,0,0,0,0,0,0,0,0,0,0,0,0,0,0,0,0,0,0,0,0,0,0,0,0,
0,0,0,0,0,0,0,0,0,0,0,0,0,0,0,0,0,0,0,0,0,0,0,0,0,0,0,0,0,0,0,0,0,0,0,0,0,0,0,0,0,0,0,0,0,0,0,0,0,0,
0,0,0,0,0,0,0,0,0,0,0,0,0,0,0,0,0,0,0,0,0,0,0,0,0,0,0,0,0,0,0,0,0,0,0,0,0,0,0,0,0,0,0,0,0,0,0,0,0,0,
0,0,0,0,0,0,0,0,0,0,0,0,0,0,0,0,0,0,0,0,0,0,0,0,0,0,0,0,0,0,0,0,0,0,0,0,0,0,0,0,0,0,0,0,0,0,0,0,0,0
</data>
 </layer>
 <layer id="6" name="hspot" width="50" height="60">
  <data encoding="csv">
0,0,0,0,0,0,0,0,0,0,0,0,0,0,0,0,0,0,0,0,0,0,0,0,0,0,0,0,0,0,0,0,0,0,0,0,0,0,0,0,0,0,0,0,0,0,0,0,0,0,
0,0,0,0,0,0,0,0,0,0,0,0,0,0,0,0,0,0,0,0,0,0,0,0,0,0,0,0,0,0,0,0,0,0,0,0,0,0,0,0,0,0,0,0,0,0,0,0,0,0,
0,0,0,0,0,0,0,0,0,0,0,0,0,0,0,0,0,0,0,0,0,0,0,0,0,0,0,0,0,0,0,0,0,0,0,0,0,0,0,0,0,0,0,0,0,0,0,0,0,0,
0,0,0,0,0,0,0,0,0,0,0,0,0,0,0,0,0,0,0,0,0,0,0,0,0,0,0,0,0,0,0,0,0,0,0,0,0,0,0,0,0,0,0,0,0,0,0,0,0,0,
0,0,0,0,0,0,0,0,0,0,0,0,0,0,0,0,0,0,0,0,0,0,0,0,0,0,0,0,0,0,0,0,0,0,0,0,0,0,0,0,0,0,0,0,0,0,0,0,0,0,
0,0,0,0,0,0,0,0,0,0,0,0,0,0,0,0,0,0,0,0,0,0,0,0,0,0,0,0,0,0,0,0,0,0,0,0,0,0,0,0,0,0,0,0,0,0,0,0,0,0,
0,0,0,0,0,0,0,0,0,0,0,0,0,0,0,0,0,0,0,0,0,0,0,0,0,0,0,0,0,0,0,0,0,0,0,0,0,0,0,0,0,0,0,0,0,0,0,0,0,0,
0,0,0,0,0,0,0,0,0,0,0,0,0,0,0,0,0,0,0,0,0,0,0,0,0,0,0,0,0,0,0,0,0,0,0,0,0,0,0,0,0,0,0,0,0,0,0,0,0,0,
0,0,0,0,0,0,0,0,0,0,0,0,0,0,0,0,0,0,0,0,0,0,0,0,0,0,0,0,0,0,0,0,0,0,0,0,0,0,0,0,0,0,0,0,0,0,0,0,0,0,
0,0,0,0,0,0,0,0,0,0,0,0,0,0,0,0,0,0,0,0,0,0,0,0,0,0,0,0,0,0,0,0,0,0,0,592,592,592,592,592,592,0,0,0,0,0,0,0,0,0,
0,0,0,0,0,0,0,0,0,0,0,0,0,0,0,0,0,0,0,0,0,0,0,0,0,0,0,0,0,0,0,0,0,0,0,592,592,592,592,592,592,0,0,0,0,0,0,0,0,0,
0,0,0,0,0,0,0,0,0,0,0,0,0,0,0,0,0,0,0,0,0,0,0,0,0,0,0,0,0,0,0,0,0,0,0,592,592,592,592,592,592,0,0,0,0,0,0,0,0,0,
0,0,0,0,0,0,0,0,0,0,0,0,0,0,0,0,0,0,0,0,0,0,0,0,0,0,0,0,0,0,0,0,0,0,0,592,592,592,592,592,592,0,0,0,0,0,0,0,0,0,
0,0,0,0,0,588,0,0,0,0,589,589,0,0,0,590,0,0,0,0,591,591,0,0,0,0,0,0,0,0,0,0,0,0,0,592,592,592,592,592,592,0,0,0,0,0,0,0,0,0,
0,0,0,0,0,0,0,0,0,0,0,0,0,0,0,0,0,0,0,0,0,0,0,0,0,0,0,0,0,0,0,0,0,0,0,592,592,592,592,592,592,0,0,0,0,0,0,0,0,0,
0,0,0,0,0,0,0,0,0,0,0,0,0,0,0,0,0,0,0,0,0,0,0,0,0,0,0,0,0,0,0,0,0,0,0,0,0,0,0,0,0,0,0,0,0,0,0,0,0,0,
0,0,0,0,0,0,0,0,0,0,0,0,0,0,0,0,0,0,0,0,0,0,0,0,0,0,0,0,0,0,0,0,0,0,0,0,0,0,0,0,0,0,0,0,0,0,0,0,0,0,
0,0,0,0,0,0,0,0,0,0,0,0,0,0,0,0,0,0,0,0,0,0,0,0,0,0,0,0,0,0,0,0,0,0,0,0,0,0,0,0,0,0,0,0,0,0,0,0,0,0,
0,0,0,0,0,0,0,0,0,0,0,0,0,0,0,0,0,0,0,0,0,0,0,0,0,0,0,0,0,0,0,0,0,0,0,0,0,0,0,0,0,0,0,0,0,0,0,0,0,0,
0,0,0,0,0,0,0,0,0,0,0,0,0,0,0,0,0,0,0,0,0,0,0,0,0,0,0,0,0,0,0,0,0,0,0,0,0,0,0,0,0,0,0,0,0,0,0,0,0,0,
0,0,0,0,0,0,0,0,0,0,0,0,0,0,0,0,0,0,0,0,0,0,0,0,0,0,0,0,0,0,0,0,0,0,0,0,0,0,0,0,0,0,0,0,0,0,0,0,0,0,
0,0,0,0,0,0,0,0,0,0,0,0,0,0,0,0,0,0,0,0,0,0,0,0,0,0,0,0,0,0,0,0,0,0,0,0,0,0,0,0,0,0,0,0,0,0,0,0,0,0,
0,0,0,585,585,0,0,0,0,0,0,0,0,0,0,0,0,0,0,0,0,0,0,0,0,0,0,0,0,0,585,585,0,0,0,0,0,585,585,0,0,0,0,0,0,0,585,585,0,0,
0,0,0,585,585,0,0,0,0,0,0,0,0,0,0,0,0,0,0,0,0,0,0,0,0,0,0,0,0,0,585,585,0,0,0,0,0,585,585,0,0,0,0,0,0,0,585,585,0,0,
0,0,0,0,0,0,0,0,0,0,0,0,0,0,0,0,0,0,0,0,0,0,0,0,0,0,0,0,0,0,0,0,0,0,0,0,0,0,0,0,0,0,0,0,0,0,0,0,0,0,
0,0,0,0,0,0,0,0,0,0,0,0,0,0,0,0,0,0,0,0,0,0,0,0,0,0,0,0,0,0,0,0,0,0,0,0,0,0,0,0,0,0,0,0,0,0,0,0,0,0,
0,0,0,0,0,0,0,0,0,0,0,0,0,0,0,0,0,0,0,0,0,0,0,0,0,0,0,0,0,0,0,0,0,0,0,0,0,0,0,0,0,0,0,0,0,0,0,0,0,0,
0,0,0,0,0,0,0,0,0,0,0,0,0,0,0,0,0,0,0,0,0,0,0,0,0,0,0,0,0,0,0,0,0,0,0,0,0,0,0,0,0,0,0,0,0,0,0,0,0,0,
0,0,0,0,0,0,0,0,0,0,0,0,0,0,0,0,0,0,0,0,0,0,0,0,0,0,0,0,0,0,0,0,0,0,0,0,0,0,0,0,0,0,0,0,0,0,0,0,0,0,
0,0,0,0,0,0,0,0,0,0,0,0,0,0,0,0,0,0,0,0,0,0,0,0,0,0,0,0,0,0,0,0,0,0,0,0,0,0,0,0,0,0,0,0,0,0,0,0,0,0,
0,0,0,0,0,0,0,0,0,0,0,0,0,0,0,0,0,0,0,0,0,0,0,0,0,0,0,0,0,0,0,0,0,0,0,0,0,0,0,0,0,0,0,0,0,0,0,0,0,0,
0,0,0,0,0,0,0,0,0,0,0,0,0,0,0,0,0,0,0,0,0,0,0,0,0,0,0,0,0,0,0,0,0,0,0,0,0,0,0,0,0,0,0,0,0,0,0,0,0,0,
0,0,0,0,0,0,0,0,0,0,0,0,0,0,0,0,0,0,0,0,0,0,0,0,0,0,0,0,0,0,0,0,0,0,0,0,0,0,0,0,0,0,0,0,0,0,0,0,0,0,
0,0,0,0,0,0,0,0,0,0,0,0,0,0,0,0,0,0,0,0,0,0,0,0,0,0,0,0,0,0,0,0,0,0,0,0,0,0,0,0,0,0,0,0,0,0,585,585,0,0,
0,0,0,0,0,0,0,0,0,0,0,0,0,0,0,0,0,0,0,0,0,0,0,0,0,0,0,0,0,0,0,0,0,0,0,0,0,0,0,0,0,0,0,0,0,0,585,585,0,0,
0,0,0,0,0,0,0,0,0,0,0,0,0,0,0,0,0,0,0,0,0,0,0,0,0,0,0,0,0,0,0,0,0,0,0,0,0,0,0,0,0,0,0,0,0,0,0,0,0,0,
0,0,0,585,585,0,0,0,0,0,0,0,0,0,0,0,0,0,0,0,0,0,0,0,0,0,0,0,0,0,0,0,0,0,0,0,0,0,0,0,0,0,0,0,0,0,0,0,0,0,
0,0,0,585,585,0,0,0,0,0,0,0,0,0,0,0,0,0,0,0,0,0,0,0,0,0,0,0,0,0,0,0,0,0,0,0,0,0,0,0,0,0,0,0,0,0,0,0,0,0,
0,0,0,0,0,0,0,0,0,0,0,0,0,0,0,0,0,0,0,0,0,0,0,0,0,0,0,0,0,0,0,0,0,0,0,0,0,0,0,0,0,0,0,0,0,0,0,0,0,0,
0,0,0,0,0,0,0,0,0,0,0,0,0,0,0,0,0,0,0,0,0,0,0,0,0,0,0,0,0,0,0,0,0,0,0,0,0,0,0,0,0,0,0,0,0,0,0,0,0,0,
0,0,0,0,0,0,0,0,0,0,0,0,0,0,0,0,0,0,0,0,0,0,0,0,0,0,0,0,0,0,0,0,0,587,587,587,587,587,587,587,587,587,587,0,0,0,0,0,0,0,
0,0,0,0,0,0,0,0,0,0,0,0,0,0,0,0,0,0,0,0,0,0,0,0,0,0,0,0,0,0,0,0,0,587,587,587,587,587,587,587,587,587,587,0,0,0,0,0,0,0,
0,0,0,585,585,0,0,0,0,0,0,0,0,0,0,0,0,0,0,0,0,0,0,0,0,0,0,0,585,585,0,0,0,0,0,0,0,0,0,0,0,0,0,0,0,0,585,585,0,0,
0,0,0,585,585,0,0,0,0,0,0,0,0,0,0,0,0,0,0,0,0,0,0,0,0,0,0,0,585,585,0,0,0,0,0,0,0,0,0,0,0,0,0,0,0,0,585,585,0,0,
0,0,0,0,0,0,0,0,0,0,0,0,0,0,0,0,0,0,0,0,0,0,0,0,0,0,0,0,0,0,0,0,0,0,0,0,0,0,0,0,0,0,0,0,0,0,0,0,0,0,
0,0,0,0,0,0,0,0,0,0,0,0,0,0,0,0,0,0,0,0,0,0,0,0,0,0,0,0,0,0,0,0,0,0,0,0,586,586,586,586,0,0,0,0,0,0,0,0,0,0,
0,0,0,0,0,0,0,0,0,0,0,0,0,0,0,0,0,0,0,0,0,0,0,0,0,0,0,0,0,0,0,0,0,0,0,0,0,586,586,0,0,0,0,0,0,0,0,0,0,0,
0,0,0,0,0,0,0,0,0,0,0,0,0,0,0,0,0,0,0,0,0,0,0,0,0,0,0,0,0,0,0,0,0,0,0,0,0,0,0,0,0,0,0,0,0,0,0,0,0,0,
0,0,0,0,0,0,0,0,0,0,0,0,0,0,0,0,0,0,0,0,0,0,0,0,0,0,0,0,0,0,0,0,0,0,0,0,0,0,0,0,0,0,0,0,0,0,0,0,0,0,
0,0,0,0,0,0,0,0,0,0,0,0,0,0,0,0,0,0,0,0,0,0,0,0,0,0,0,0,0,0,0,0,0,0,0,0,0,0,0,0,0,0,0,0,0,0,0,0,0,0,
0,0,0,0,0,0,0,0,0,0,0,0,0,0,0,0,0,0,0,0,0,0,0,0,0,0,0,0,0,0,0,0,0,0,0,0,0,0,0,0,0,0,0,0,0,0,0,0,0,0,
0,0,0,0,0,593,593,593,0,0,0,0,0,0,0,0,0,0,0,0,0,0,0,0,0,0,0,0,0,0,0,0,0,0,0,0,0,0,0,0,0,0,0,0,0,0,0,0,0,0,
0,0,0,0,0,593,593,593,0,0,0,0,0,0,0,0,0,0,0,0,0,0,0,0,0,0,0,0,0,0,0,0,0,0,0,0,0,0,0,0,0,0,0,0,0,0,0,0,0,0,
0,0,0,0,0,593,593,593,0,0,0,0,0,0,0,0,0,0,0,0,0,0,0,0,0,0,0,0,0,0,0,0,0,0,0,0,0,0,0,0,0,0,0,0,0,0,0,0,0,0,
0,0,0,0,0,0,0,0,0,0,0,0,0,0,0,0,0,0,0,0,0,0,0,0,0,0,0,0,0,0,0,0,0,0,0,0,0,0,0,0,0,0,0,0,0,0,0,0,0,0,
0,0,0,0,0,0,0,0,0,0,0,0,0,0,0,0,0,0,0,0,0,0,0,0,0,0,0,0,0,0,0,0,0,0,0,0,0,0,0,0,0,0,0,0,0,0,0,0,0,0,
0,0,0,0,0,0,0,0,0,0,0,0,594,0,0,0,0,0,0,0,0,0,594,0,0,0,0,0,0,0,0,0,0,0,0,0,0,0,0,0,0,0,0,0,0,0,0,0,0,0,
0,0,0,0,0,0,0,0,0,0,0,0,0,0,0,0,0,0,0,0,0,0,0,0,0,0,0,0,0,0,0,0,0,0,0,0,0,0,0,0,0,0,0,0,0,0,0,0,0,0,
0,0,0,0,0,0,0,0,0,0,0,0,0,0,0,0,0,0,0,0,0,0,0,0,0,0,0,0,0,0,0,0,0,0,0,0,0,0,0,0,0,0,0,0,0,0,0,0,0,0,
0,0,0,0,0,0,0,0,0,0,0,0,0,0,0,0,0,0,0,0,0,0,0,0,0,0,0,0,0,0,0,0,0,0,0,0,0,0,0,0,0,0,0,0,0,0,0,0,0,0
</data>
 </layer>
</map>
