<?xml version="1.0" encoding="UTF-8"?>
<map version="1.10" tiledversion="1.10.2" orientation="orthogonal" renderorder="right-down" width="66" height="64" tilewidth="16" tileheight="16" infinite="0" nextlayerid="16" nextobjectid="4">
 <editorsettings>
  <export target="m.csv" format="csv"/>
 </editorsettings>
 <tileset firstgid="1" source="scn6_1_back_tileset.tsx"/>
 <tileset firstgid="521" source="scn6_1_fore_tileset.tsx"/>
 <tileset firstgid="649" source="scn6_1_events_tileset.tsx"/>
 <tileset firstgid="681" source="scn6_1_hotspot_tileset.tsx"/>
 <tileset firstgid="713" source="scn6_1_col_tileset.tsx"/>
 <tileset firstgid="729" source="scn6_1_mask_tileset.tsx"/>
 <tileset firstgid="793" source="scn6_1_anim_tileset.tsx"/>
 <layer id="1" name="back" width="66" height="64">
  <data encoding="csv">
271,272,272,272,272,272,272,272,272,272,272,272,272,272,272,272,272,272,272,272,272,272,272,272,272,273,272,272,272,272,272,272,272,272,272,272,272,272,272,272,272,272,272,272,272,272,272,272,272,274,343,343,344,271,272,272,272,272,272,272,272,272,272,272,272,274,
291,254,332,332,332,332,332,332,332,253,254,332,332,332,332,332,332,332,253,254,332,332,332,332,332,332,253,254,332,332,332,332,332,332,332,332,332,332,332,332,332,332,332,332,332,332,332,332,332,334,2,2,2,331,333,333,333,333,333,333,333,333,333,333,253,294,
291,294,223,224,225,226,373,353,352,291,294,352,353,373,353,352,223,224,291,294,223,224,352,352,227,228,291,294,373,352,354,373,353,352,373,352,353,353,354,373,373,354,373,352,354,352,353,352,352,281,22,1,1,284,352,354,354,353,354,354,352,353,354,352,291,294,
311,294,243,244,245,246,372,372,372,311,294,372,372,372,372,372,243,244,311,294,243,244,372,372,247,248,311,294,372,372,372,372,372,372,372,372,372,372,372,372,372,372,372,372,372,372,372,372,372,301,22,1,1,304,372,372,372,372,372,372,372,372,372,372,291,314,
311,294,263,264,265,266,23,23,23,291,314,21,23,23,23,23,263,264,291,314,263,264,23,23,267,268,291,314,21,23,23,23,23,23,23,23,23,23,23,23,23,23,23,23,23,23,23,23,23,23,41,1,1,42,23,23,23,23,23,23,23,23,23,23,311,294,
311,294,22,1,1,1,1,1,1,311,294,22,1,1,1,1,1,1,311,294,22,1,1,1,1,1,311,294,22,1,271,272,273,272,272,272,272,272,272,272,272,272,272,272,272,272,273,273,272,272,272,272,272,272,272,272,272,272,272,273,272,272,272,272,233,294,
311,294,22,1,1,1,1,1,1,311,294,22,1,1,1,1,1,1,311,294,22,1,1,1,1,1,311,294,22,1,291,254,332,332,332,332,332,332,332,332,253,254,332,332,333,332,332,332,332,332,332,332,332,332,332,332,333,253,254,332,333,332,332,332,253,294,
311,234,272,272,274,1,1,271,272,233,234,272,274,1,1,271,273,272,233,234,272,274,1,1,271,272,233,314,22,1,291,294,351,352,353,352,223,224,223,224,291,294,351,354,354,353,354,352,353,373,354,352,353,373,352,354,352,291,294,351,353,354,222,222,311,294,
311,254,332,332,334,1,1,331,332,332,332,332,334,287,288,331,332,333,332,333,332,334,1,1,331,332,332,334,22,1,291,294,371,372,372,372,243,244,243,244,291,294,371,372,372,372,372,372,372,372,372,372,372,372,372,372,372,331,334,371,372,372,242,242,311,294,
311,294,352,353,352,22,1,373,352,353,353,352,281,307,308,284,352,353,373,352,353,352,22,1,373,352,353,352,22,1,311,294,21,23,23,23,263,264,263,264,291,314,21,23,23,23,23,23,23,23,23,23,23,23,23,23,23,351,352,21,23,23,262,262,311,294,
311,294,372,372,372,22,1,372,372,372,372,372,301,327,328,304,372,372,372,372,372,372,22,1,372,372,372,372,22,1,291,294,22,1,1,1,1,1,1,1,311,294,22,1,1,1,1,1,1,1,1,1,1,1,1,1,1,371,372,22,1,1,1,1,311,294,
311,294,21,23,23,41,1,42,23,23,23,23,23,41,1,42,23,23,23,23,23,23,41,1,42,23,23,23,41,1,291,294,22,1,1,1,1,1,1,1,331,334,22,1,271,272,273,272,273,272,273,272,273,274,1,1,1,42,23,41,1,1,1,1,311,294,
311,294,22,1,1,1,1,1,1,1,1,1,1,1,1,1,1,1,1,1,1,1,1,1,1,1,1,1,1,1,291,294,22,1,1,1,1,1,1,1,352,352,22,1,311,254,332,333,332,333,332,333,253,294,1,1,1,271,274,1,1,1,1,1,311,294,
311,234,272,273,273,273,273,273,273,273,273,273,273,273,274,1,1,1,271,272,273,273,273,272,273,272,272,273,272,273,233,294,22,1,1,1,1,1,1,1,372,372,22,1,311,314,352,373,352,222,223,224,291,314,22,1,1,311,234,272,273,272,272,273,233,314,
311,254,332,332,332,332,332,333,332,333,333,332,333,253,294,1,1,1,311,254,332,332,332,332,332,332,332,332,332,333,253,294,22,1,1,1,1,1,1,1,42,23,41,1,331,334,372,372,372,242,243,244,311,314,22,1,1,311,254,332,333,332,332,333,253,314,
311,294,225,226,352,353,352,353,352,353,352,373,352,311,294,22,1,1,311,294,352,353,352,353,352,353,352,373,225,226,291,294,22,1,1,1,1,1,1,1,271,274,1,1,351,352,21,23,23,262,263,264,291,314,22,1,1,331,334,351,352,354,222,222,311,314,
311,294,245,246,372,372,372,372,372,372,372,372,372,311,294,22,1,1,311,294,372,372,372,372,372,372,372,372,245,246,291,294,22,1,1,1,1,1,1,1,291,314,1,1,371,372,22,1,1,1,1,1,291,314,22,1,1,351,352,371,372,372,242,242,291,314,
311,294,265,266,23,23,23,23,23,23,23,23,23,311,294,22,1,1,311,294,21,23,23,23,23,23,23,23,265,266,291,294,22,1,1,1,1,1,1,1,311,314,22,1,42,23,41,1,1,1,1,1,311,294,22,1,1,371,372,21,23,23,262,262,291,314,
311,234,272,273,272,272,274,1,1,271,272,272,272,233,294,22,1,1,311,234,272,272,274,1,1,271,272,272,272,273,233,234,272,272,272,272,272,272,272,273,233,234,272,273,272,274,1,1,1,1,1,1,291,314,22,1,1,42,23,41,1,1,1,1,311,294,
311,254,332,332,332,332,334,1,1,331,332,332,332,332,334,22,1,1,331,332,332,332,334,1,1,331,332,332,332,332,253,254,332,333,333,333,333,333,333,333,333,332,333,253,292,294,1,1,1,1,1,1,311,294,22,1,1,271,274,1,1,1,1,1,291,294,
311,294,352,353,353,373,352,1,1,352,352,353,353,373,352,22,1,1,351,352,373,354,352,22,1,352,353,353,373,352,291,294,352,353,352,373,353,352,373,353,352,353,373,291,292,314,22,1,1,1,1,1,311,294,22,1,1,311,314,22,1,1,1,1,311,314,
311,294,372,372,372,372,372,22,1,372,372,372,372,372,372,22,1,1,371,372,372,372,372,22,1,372,372,372,372,372,291,294,372,372,448,449,450,372,372,448,449,450,372,311,292,234,273,272,273,272,272,273,233,314,22,1,1,311,234,272,273,272,272,273,233,294,
311,294,21,23,23,23,23,41,1,42,23,23,23,23,23,41,1,1,42,23,23,23,23,41,1,42,23,23,23,23,291,294,21,23,468,469,470,23,23,468,469,470,23,331,333,333,333,333,333,333,333,333,333,334,22,1,1,331,333,333,333,333,333,333,253,314,
311,294,22,1,1,1,1,1,1,1,1,1,1,1,1,1,1,1,1,1,1,1,1,1,1,1,1,1,1,1,291,294,22,1,1,1,1,1,1,1,1,1,1,351,352,353,373,353,352,353,353,373,354,352,22,1,1,352,352,354,354,352,373,354,311,294,
311,314,22,1,1,271,272,272,272,272,272,272,272,272,272,272,272,272,272,272,272,272,272,272,272,273,274,1,1,1,291,314,22,1,1,1,1,1,1,1,1,1,1,371,372,372,372,372,372,372,372,372,372,372,22,1,1,372,372,372,372,372,372,372,291,314,
311,294,22,1,1,291,254,332,332,332,332,332,332,333,332,332,332,332,332,332,332,332,332,332,333,253,314,1,1,1,291,294,22,1,1,1,1,1,1,1,1,1,1,42,23,23,23,23,23,23,23,23,23,23,41,1,1,42,23,23,23,23,23,23,311,294,
311,294,22,1,1,291,294,352,352,352,353,352,373,352,353,352,373,354,352,353,373,354,353,352,352,311,314,1,1,1,291,314,22,1,1,1,1,1,1,1,1,1,1,271,274,1,1,1,271,272,273,272,273,272,273,272,272,273,274,1,1,271,272,273,233,294,
311,294,22,1,1,291,314,372,372,372,372,372,372,372,372,372,372,372,372,372,372,372,372,372,372,311,314,22,1,1,291,294,22,1,1,1,1,1,1,1,1,1,1,291,294,1,1,1,291,292,292,292,292,254,332,333,332,333,334,287,288,331,332,333,253,294,
311,294,22,1,1,291,294,21,23,23,23,23,23,23,23,23,23,23,23,23,23,23,23,23,23,311,314,22,1,1,291,234,272,273,272,273,272,273,272,273,272,273,272,233,314,22,1,1,311,292,292,292,292,314,354,352,353,354,281,307,308,284,225,226,291,294,
311,294,22,1,1,291,314,22,1,1,1,1,1,1,1,1,1,1,1,1,1,1,1,1,1,311,314,22,1,1,291,254,332,332,332,332,332,332,332,253,254,332,332,332,334,22,1,1,331,332,332,332,253,294,372,372,372,372,301,327,328,304,245,246,311,294,
311,294,22,1,1,291,234,272,273,272,273,272,272,273,272,272,274,1,1,1,271,272,272,272,272,233,314,22,1,1,291,294,223,224,223,224,352,227,228,291,294,352,353,373,352,22,1,1,352,353,373,354,291,314,21,23,23,23,23,41,1,42,265,266,311,294,
311,294,22,1,1,331,332,332,332,332,332,332,333,332,332,332,334,1,1,1,331,332,333,332,332,333,334,22,1,1,291,294,243,244,243,244,372,247,248,291,294,372,372,372,372,22,1,1,372,372,372,372,311,294,22,1,1,1,1,1,1,1,1,1,311,294,
311,294,22,1,1,352,373,353,354,352,352,353,353,352,373,352,281,22,1,1,284,352,354,354,373,354,352,22,1,1,291,294,263,264,263,264,23,267,268,331,334,21,23,23,23,41,1,1,42,23,23,23,291,314,22,1,1,1,1,1,1,1,1,1,311,294,
311,294,22,1,1,372,372,372,372,372,372,372,372,372,372,372,301,22,1,1,304,372,372,372,372,372,372,22,1,1,291,294,22,1,1,1,1,1,1,351,352,22,1,1,1,1,1,1,1,1,1,1,311,234,273,272,272,272,272,272,272,272,272,272,233,294,
311,294,22,1,1,42,23,23,23,23,23,23,23,23,23,23,23,41,1,1,42,23,23,23,23,23,23,41,1,1,291,294,22,1,1,1,1,1,1,371,372,22,1,1,1,1,1,1,1,1,1,1,291,254,332,332,332,332,332,332,332,332,332,332,253,294,
311,294,22,1,1,1,1,1,1,1,1,1,1,1,1,1,1,1,1,1,1,1,1,1,1,1,1,1,1,1,291,294,22,1,1,1,1,1,1,42,23,41,1,1,1,1,1,1,1,1,1,1,291,294,223,224,223,224,352,354,353,373,354,352,311,294,
311,234,273,272,272,272,274,1,1,271,272,272,273,274,1,1,1,271,272,273,272,272,272,272,272,272,272,272,272,273,233,294,22,1,1,1,1,1,1,271,274,1,1,1,1,1,1,1,1,1,1,1,291,294,243,244,243,244,372,372,372,372,372,372,311,294,
311,254,332,333,332,333,334,1,1,331,333,333,253,294,1,1,1,291,254,332,333,332,333,332,333,333,332,333,332,333,253,294,22,1,1,1,1,1,1,291,294,1,1,1,1,1,1,1,1,1,1,1,291,294,263,264,263,264,23,23,23,23,23,23,311,294,
311,294,225,226,352,353,352,1,1,352,353,352,311,294,1,1,1,311,294,354,352,354,352,373,352,373,353,352,353,352,291,234,272,273,272,273,272,273,272,233,234,272,273,272,274,1,1,1,271,272,273,272,233,294,22,1,1,1,1,1,1,1,1,1,311,294,
311,294,245,246,372,372,372,22,1,372,372,372,311,294,22,1,1,291,294,372,372,372,372,372,372,372,372,372,372,372,291,254,333,333,333,333,333,333,333,253,254,332,333,333,334,1,1,1,331,332,332,333,253,294,22,1,1,1,1,1,1,1,1,1,311,294,
311,294,265,266,23,23,23,41,1,42,23,23,291,294,22,1,1,291,294,21,23,23,23,23,23,23,23,23,23,23,291,294,352,352,353,352,222,222,222,291,294,352,352,352,281,22,1,1,284,352,352,352,291,294,22,1,1,1,1,1,1,1,1,1,311,294,
311,294,22,1,1,1,1,1,1,1,1,1,291,294,22,1,1,291,314,22,1,1,1,1,1,1,1,1,1,1,291,294,372,372,372,372,242,242,242,331,334,448,449,450,301,22,1,1,304,448,449,450,311,234,273,273,273,274,1,1,271,273,272,273,233,294,
311,294,22,1,1,1,1,1,1,1,1,1,311,294,22,1,1,291,294,22,1,1,1,1,1,1,1,1,1,1,291,314,21,23,23,23,262,262,262,351,352,468,469,470,23,41,1,1,42,468,469,470,331,333,333,333,333,334,1,1,331,333,333,333,253,294,
311,234,272,272,273,272,273,272,273,272,272,273,233,294,22,1,1,291,314,22,1,1,1,1,1,1,1,1,1,1,291,294,22,1,1,1,1,1,1,371,372,22,1,1,1,1,1,1,1,1,1,1,352,373,373,352,373,354,22,1,352,373,352,352,311,294,
311,254,332,333,333,333,332,333,333,333,332,333,253,314,22,1,1,291,234,272,272,273,274,1,1,271,272,273,272,273,233,294,22,1,1,1,1,1,1,42,23,41,1,1,1,1,1,1,1,1,1,1,372,372,372,372,372,372,22,1,372,372,372,372,311,294,
311,294,351,352,353,354,373,353,354,352,227,228,331,334,22,1,1,331,332,333,332,332,334,1,1,331,332,253,292,292,293,294,22,1,1,1,1,1,1,271,274,1,1,1,1,1,1,1,1,1,1,1,42,23,23,23,23,23,41,1,42,23,23,23,311,294,
311,294,371,372,372,372,372,372,372,372,247,248,351,352,22,1,1,351,373,354,352,351,354,22,1,351,352,291,292,292,292,294,22,1,1,1,1,1,1,311,314,1,1,1,1,1,1,1,1,1,1,1,1,1,1,1,1,1,1,1,1,1,1,1,311,294,
311,294,21,23,23,23,23,23,23,23,267,268,371,372,22,1,1,371,372,372,372,372,372,22,1,371,372,311,292,292,292,234,273,273,273,273,273,273,273,233,234,273,273,273,273,273,273,273,273,273,273,273,273,273,273,273,273,273,273,273,274,1,1,1,311,294,
311,294,22,1,1,1,1,1,1,1,1,1,42,23,41,1,1,42,23,23,23,23,23,41,1,42,23,291,254,332,332,333,332,332,332,332,332,332,253,254,332,332,332,332,332,332,253,254,332,332,332,332,332,332,332,332,332,332,332,253,294,1,1,1,311,294,
311,314,22,1,1,1,1,1,1,1,1,1,271,274,1,1,1,1,1,1,1,1,1,1,1,1,1,311,294,222,222,222,222,222,222,374,374,374,291,294,373,352,353,352,223,224,291,294,225,226,225,226,374,374,374,223,224,223,224,291,314,22,1,1,311,294,
311,294,22,1,1,1,1,1,1,1,1,1,291,234,272,273,272,273,274,1,1,1,271,272,273,272,273,233,314,242,242,242,242,242,242,372,372,372,291,314,372,372,372,372,243,244,291,294,245,246,245,246,372,372,372,243,244,243,244,291,294,22,1,1,311,294,
311,294,22,1,1,1,1,1,1,1,1,1,311,254,332,332,332,332,334,1,1,1,331,332,333,332,333,253,314,262,262,262,262,262,262,23,23,23,311,294,21,23,23,23,263,264,291,314,265,266,265,266,23,23,23,263,264,263,264,291,314,22,1,1,311,294,
311,234,272,272,272,272,272,272,272,272,272,272,233,314,352,353,352,353,281,22,1,1,284,352,352,353,352,291,294,22,1,1,1,1,1,1,1,1,291,294,22,1,1,1,1,1,291,294,22,1,1,1,1,1,1,1,1,1,1,291,294,22,1,1,311,294,
311,254,332,332,332,332,332,332,332,332,332,332,253,314,372,448,449,450,301,22,1,1,304,448,449,450,372,311,314,22,1,1,1,1,1,1,1,1,291,314,22,1,1,1,1,1,291,294,22,1,1,1,1,1,1,1,1,1,1,291,294,22,1,1,311,294,
311,294,223,224,223,224,352,353,354,352,222,222,291,314,21,468,469,470,23,41,1,1,42,468,469,470,23,291,234,272,273,274,1,1,271,272,272,273,233,234,272,274,1,1,271,272,233,234,272,272,272,274,1,1,271,272,272,272,272,233,314,22,1,1,311,294,
311,294,243,244,243,244,372,372,372,372,242,242,331,334,22,1,1,1,1,1,1,1,1,1,1,1,1,331,332,333,333,334,287,288,331,332,332,332,332,332,333,334,1,1,331,332,332,332,332,332,332,334,287,288,331,332,332,332,332,332,334,22,1,1,311,294,
311,294,263,264,263,264,21,23,23,23,262,262,351,352,22,1,1,1,1,1,1,1,1,1,1,1,1,351,352,353,354,281,307,308,284,352,353,373,353,352,373,281,22,1,284,352,353,373,353,352,353,281,307,308,284,354,352,353,373,353,352,22,1,1,311,294,
311,294,21,23,23,23,41,1,1,1,42,23,371,372,22,1,1,1,1,1,1,1,1,1,1,1,1,371,372,372,372,301,327,328,304,372,372,372,372,372,372,301,22,1,304,372,372,372,372,372,372,301,327,328,304,372,372,372,372,372,372,22,1,1,311,294,
311,294,22,1,1,1,1,1,1,1,1,1,42,23,41,1,1,1,1,1,1,1,1,1,1,1,1,42,23,23,23,23,41,1,42,23,23,23,23,23,23,23,41,1,42,23,23,23,23,23,23,23,41,1,42,23,23,23,23,23,23,41,1,1,311,294,
311,294,22,1,1,1,1,1,1,1,1,1,271,274,1,1,1,1,1,1,1,1,1,1,1,1,1,271,274,1,1,1,1,1,1,1,1,1,1,1,1,1,1,1,1,1,1,1,1,1,1,1,1,1,1,1,1,1,1,1,1,1,1,1,311,294,
311,234,272,272,272,272,272,272,272,272,272,272,233,234,273,272,272,273,274,1,1,1,271,272,272,272,272,233,234,272,273,273,272,272,272,272,272,272,272,272,272,272,272,272,272,272,272,272,272,272,272,272,272,272,272,272,272,272,272,272,272,272,272,272,233,294,
331,332,332,332,332,332,332,332,332,332,332,332,332,332,332,332,332,332,334,401,402,403,331,332,332,332,332,332,332,332,332,332,332,332,332,332,332,332,332,332,332,332,332,332,332,332,332,332,332,332,332,332,332,332,332,332,332,332,332,332,332,332,332,332,332,334,
374,374,374,374,374,374,374,374,374,374,374,374,374,374,374,374,374,374,281,421,422,423,284,374,374,374,374,374,374,374,374,374,374,374,374,374,374,374,374,374,374,374,374,374,374,374,374,374,374,374,374,374,374,374,374,374,374,374,374,374,374,374,374,374,374,374,
371,372,372,372,372,372,372,372,372,372,372,372,372,372,372,372,372,372,301,441,442,443,304,372,372,372,372,372,372,372,372,372,372,372,372,372,372,372,372,372,372,372,372,372,372,372,372,372,372,372,372,372,372,372,372,372,372,372,372,372,372,372,372,372,372,372
</data>
 </layer>
 <layer id="2" name="fore" width="66" height="64">
  <data encoding="csv">
0,0,0,0,0,0,0,0,0,0,0,0,0,0,0,0,0,0,0,0,0,0,0,0,0,0,0,0,0,0,0,0,0,0,0,0,0,0,0,0,0,0,0,0,0,0,0,0,0,0,0,0,0,0,0,0,0,0,0,0,0,0,0,0,0,0,
0,0,0,0,0,0,0,0,0,0,0,0,0,0,0,0,0,0,0,0,0,0,0,0,0,0,0,0,0,0,0,0,0,0,0,0,0,0,0,0,0,0,0,0,0,0,0,0,0,0,521,522,523,0,0,0,0,0,0,0,0,0,0,0,0,0,
0,0,550,551,569,570,526,526,526,0,0,526,526,526,526,526,550,551,0,0,550,551,526,526,571,572,0,0,526,526,526,526,526,526,526,526,526,526,526,526,526,526,526,526,526,526,526,526,526,0,529,530,524,0,526,526,526,526,526,526,526,526,526,526,0,0,
0,0,558,559,577,578,0,0,0,0,0,0,0,0,0,0,558,559,0,0,558,559,0,0,579,580,0,0,0,0,0,0,0,0,0,0,0,0,0,0,0,0,0,0,0,0,0,0,0,0,537,538,539,0,0,0,0,0,0,0,0,0,0,0,0,0,
0,0,566,567,585,586,0,0,0,0,0,0,0,0,0,0,566,567,0,0,566,567,0,0,587,588,0,0,0,0,0,0,0,0,0,0,0,0,0,0,0,0,0,0,0,0,0,0,0,0,0,0,0,0,0,0,0,0,0,0,0,0,0,0,0,0,
0,0,0,0,0,0,0,0,0,0,0,0,0,0,0,0,0,0,0,0,0,0,0,0,0,0,0,0,0,0,0,0,0,0,0,0,0,0,0,0,0,0,0,0,0,0,0,0,0,0,0,0,0,0,0,0,0,0,0,0,0,0,0,0,0,0,
0,0,0,0,0,0,0,0,0,0,0,0,0,0,0,0,0,0,0,0,0,0,0,0,0,0,0,0,0,0,0,0,0,0,0,0,0,0,0,0,0,0,0,0,0,0,0,0,0,0,0,0,0,0,0,0,0,0,0,0,0,0,0,0,0,0,
0,0,0,0,0,0,0,0,0,0,0,0,0,0,0,0,0,0,0,0,0,0,0,0,0,0,0,0,0,0,0,0,526,526,526,526,550,551,550,551,0,0,526,526,526,526,526,526,526,526,526,526,526,526,526,526,526,0,0,526,526,526,549,549,0,0,
0,0,0,0,0,0,0,0,0,0,0,0,0,573,574,0,0,0,0,0,0,0,0,0,0,0,0,0,0,0,0,0,0,0,0,0,558,559,558,559,0,0,0,0,0,0,0,0,0,0,0,0,0,0,0,0,0,0,0,0,0,0,557,557,0,0,
0,0,526,526,526,0,0,526,526,526,526,526,0,581,582,0,526,526,526,526,526,526,0,0,526,526,526,526,0,0,0,0,0,0,0,0,566,567,566,567,0,0,0,0,0,0,0,0,0,0,0,0,0,0,0,0,0,526,526,0,0,0,565,565,0,0,
0,0,0,0,0,0,0,0,0,0,0,0,0,589,590,0,0,0,0,0,0,0,0,0,0,0,0,0,0,0,0,0,0,0,0,0,0,0,0,0,0,0,0,0,0,0,0,0,0,0,0,0,0,0,0,0,0,0,0,0,0,0,0,0,0,0,
0,0,0,0,0,0,0,0,0,0,0,0,0,0,0,0,0,0,0,0,0,0,0,0,0,0,0,0,0,0,0,0,0,0,0,0,0,0,0,0,0,0,0,0,0,0,0,0,0,0,0,0,0,0,0,0,0,0,0,0,0,0,0,0,0,0,
0,0,0,0,0,0,0,0,0,0,0,0,0,0,0,0,0,0,0,0,0,0,0,0,0,0,0,0,0,0,0,0,0,0,0,0,0,0,0,0,526,526,0,0,0,0,0,0,0,0,0,0,0,0,0,0,0,0,0,0,0,0,0,0,0,0,
0,0,0,0,0,0,0,0,0,0,0,0,0,0,0,0,0,0,0,0,0,0,0,0,0,0,0,0,0,0,0,0,0,0,0,0,0,0,0,0,0,0,0,0,0,0,526,526,526,549,550,551,0,0,0,0,0,0,0,0,0,0,0,0,0,0,
0,0,0,0,0,0,0,0,0,0,0,0,0,0,0,0,0,0,0,0,0,0,0,0,0,0,0,0,0,0,0,0,0,0,0,0,0,0,0,0,0,0,0,0,0,0,0,0,0,557,558,559,0,0,0,0,0,0,0,0,0,0,0,0,0,0,
0,0,569,570,526,526,526,526,526,526,526,526,526,0,0,0,0,0,0,0,526,526,526,526,526,526,526,526,569,570,0,0,0,0,0,0,0,0,0,0,0,0,0,0,526,526,0,0,0,565,566,567,0,0,0,0,0,0,0,526,526,526,549,549,0,0,
0,0,577,578,0,0,0,0,0,0,0,0,0,0,0,0,0,0,0,0,0,0,0,0,0,0,0,0,577,578,0,0,0,0,0,0,0,0,0,0,0,0,0,0,0,0,0,0,0,0,0,0,0,0,0,0,0,526,526,0,0,0,557,557,0,0,
0,0,585,586,0,0,0,0,0,0,0,0,0,0,0,0,0,0,0,0,0,0,0,0,0,0,0,0,585,586,0,0,0,0,0,0,0,0,0,0,0,0,0,0,0,0,0,0,0,0,0,0,0,0,0,0,0,0,0,0,0,0,565,565,0,0,
0,0,0,0,0,0,0,0,0,0,0,0,0,0,0,0,0,0,0,0,0,0,0,0,0,0,0,0,0,0,0,0,0,0,0,0,0,0,0,0,0,0,0,0,0,0,0,0,0,0,0,0,0,0,0,0,0,0,0,0,0,0,0,0,0,0,
0,0,0,0,0,0,0,0,0,0,0,0,0,0,0,0,0,0,0,0,0,0,0,0,0,0,0,0,0,0,0,0,0,0,0,0,0,0,0,0,0,0,0,0,0,0,0,0,0,0,0,0,0,0,0,0,0,0,0,0,0,0,0,0,0,0,
0,0,526,526,526,526,526,0,0,526,526,526,526,526,526,0,0,0,526,526,526,526,526,0,0,526,526,526,526,526,0,0,526,526,526,526,526,526,526,526,526,526,526,0,0,0,0,0,0,0,0,0,0,0,0,0,0,0,0,0,0,0,0,0,0,0,
0,0,0,0,0,0,0,0,0,0,0,0,0,0,0,0,0,0,0,0,0,0,0,0,0,0,0,0,0,0,0,0,0,0,533,534,535,0,0,533,534,535,0,0,0,0,0,0,0,0,0,0,0,0,0,0,0,0,0,0,0,0,0,0,0,0,
0,0,0,0,0,0,0,0,0,0,0,0,0,0,0,0,0,0,0,0,0,0,0,0,0,0,0,0,0,0,0,0,0,0,541,542,543,0,0,541,542,543,0,0,0,0,0,0,0,0,0,0,0,0,0,0,0,0,0,0,0,0,0,0,0,0,
0,0,0,0,0,0,0,0,0,0,0,0,0,0,0,0,0,0,0,0,0,0,0,0,0,0,0,0,0,0,0,0,0,0,0,0,0,0,0,0,0,0,0,526,526,526,526,526,526,526,526,526,526,526,0,0,0,526,526,526,526,526,526,526,0,0,
0,0,0,0,0,0,0,0,0,0,0,0,0,0,0,0,0,0,0,0,0,0,0,0,0,0,0,0,0,0,0,0,0,0,0,0,0,0,0,0,0,0,0,0,0,0,0,0,0,0,0,0,0,0,0,0,0,0,0,0,0,0,0,0,0,0,
0,0,0,0,0,0,0,0,0,0,0,0,0,0,0,0,0,0,0,0,0,0,0,0,0,0,0,0,0,0,0,0,0,0,0,0,0,0,0,0,0,0,0,0,0,0,0,0,0,0,0,0,0,0,0,0,0,0,0,0,0,0,0,0,0,0,
0,0,0,0,0,0,0,526,526,526,526,526,526,526,526,526,526,526,526,526,526,526,526,526,526,0,0,0,0,0,0,0,0,0,0,0,0,0,0,0,0,0,0,0,0,0,0,0,0,0,0,0,0,0,0,0,0,0,0,0,0,0,0,0,0,0,
0,0,0,0,0,0,0,0,0,0,0,0,0,0,0,0,0,0,0,0,0,0,0,0,0,0,0,0,0,0,0,0,0,0,0,0,0,0,0,0,0,0,0,0,0,0,0,0,0,0,0,0,0,0,0,0,0,0,0,573,574,0,0,0,0,0,
0,0,0,0,0,0,0,0,0,0,0,0,0,0,0,0,0,0,0,0,0,0,0,0,0,0,0,0,0,0,0,0,0,0,0,0,0,0,0,0,0,0,0,0,0,0,0,0,0,0,0,0,0,0,526,526,526,526,0,581,582,0,569,570,0,0,
0,0,0,0,0,0,0,0,0,0,0,0,0,0,0,0,0,0,0,0,0,0,0,0,0,0,0,0,0,0,0,0,0,0,0,0,0,0,0,0,0,0,0,0,0,0,0,0,0,0,0,0,0,0,0,0,0,0,0,589,590,0,577,578,0,0,
0,0,0,0,0,0,0,0,0,0,0,0,0,0,0,0,0,0,0,0,0,0,0,0,0,0,0,0,0,0,0,0,550,551,550,551,526,571,572,0,0,526,526,526,526,0,0,0,526,526,526,526,0,0,0,0,0,0,0,0,0,0,585,586,0,0,
0,0,0,0,0,0,0,0,0,0,0,0,0,0,0,0,0,561,562,563,0,0,0,0,0,0,0,0,0,0,0,0,558,559,558,559,0,579,580,0,0,0,0,0,0,0,0,0,0,0,0,0,0,0,0,0,0,0,0,0,0,0,0,0,0,0,
0,0,0,0,0,526,526,526,526,526,526,526,526,526,526,526,0,529,530,548,0,0,0,0,0,0,0,0,0,0,0,0,566,567,566,567,0,587,588,0,0,0,0,0,0,0,0,0,0,0,0,0,0,0,0,0,0,0,0,0,0,0,0,0,0,0,
0,0,0,0,0,0,0,0,0,0,0,0,0,0,0,0,0,537,538,539,0,0,0,0,0,0,0,0,0,0,0,0,0,0,0,0,0,0,0,526,526,0,0,0,0,0,0,0,0,0,0,0,0,0,0,0,0,0,0,0,0,0,0,0,0,0,
0,0,0,0,0,0,0,0,0,0,0,0,0,0,0,0,0,0,0,0,0,0,0,0,0,0,0,0,0,0,0,0,0,0,0,0,0,0,0,0,0,0,0,0,0,0,0,0,0,0,0,0,0,0,0,0,0,0,0,0,0,0,0,0,0,0,
0,0,0,0,0,0,0,0,0,0,0,0,0,0,0,0,0,0,0,0,0,0,0,0,0,0,0,0,0,0,0,0,0,0,0,0,0,0,0,0,0,0,0,0,0,0,0,0,0,0,0,0,0,0,550,551,550,551,526,526,526,526,526,526,0,0,
0,0,0,0,0,0,0,0,0,0,0,0,0,0,0,0,0,0,0,0,0,0,0,0,0,0,0,0,0,0,0,0,0,0,0,0,0,0,0,0,0,0,0,0,0,0,0,0,0,0,0,0,0,0,558,559,558,559,0,0,0,0,0,0,0,0,
0,0,0,0,0,0,0,0,0,0,0,0,0,0,0,0,0,0,0,0,0,0,0,0,0,0,0,0,0,0,0,0,0,0,0,0,0,0,0,0,0,0,0,0,0,0,0,0,0,0,0,0,0,0,566,567,566,567,0,0,0,0,0,0,0,0,
0,0,569,570,526,526,526,0,0,526,526,526,0,0,0,0,0,0,0,526,526,526,526,526,526,526,526,526,526,526,0,0,0,0,0,0,0,0,0,0,0,0,0,0,0,0,0,0,0,0,0,0,0,0,0,0,0,0,0,0,0,0,0,0,0,0,
0,0,577,578,0,0,0,0,0,0,0,0,0,0,0,0,0,0,0,0,0,0,0,0,0,0,0,0,0,0,0,0,0,0,0,0,0,0,0,0,0,0,0,0,0,545,546,547,0,0,0,0,0,0,0,0,0,0,0,0,0,0,0,0,0,0,
0,0,585,586,0,0,0,0,0,0,0,0,0,0,0,0,0,0,0,0,0,0,0,0,0,0,0,0,0,0,0,0,526,526,526,526,549,549,549,0,0,526,526,526,0,529,530,532,0,526,526,526,0,0,0,0,0,0,0,0,0,0,0,0,0,0,
0,0,0,0,0,0,0,0,0,0,0,0,0,0,0,0,0,0,0,0,0,0,0,0,0,0,0,0,0,0,0,0,0,0,0,0,557,557,557,0,0,533,534,535,0,537,538,539,0,533,534,535,0,0,0,0,0,0,0,0,0,0,0,0,0,0,
0,0,0,0,0,0,0,0,0,0,0,0,0,0,0,0,0,0,0,0,0,0,0,0,0,0,0,0,0,0,0,0,0,0,0,0,565,565,565,526,526,541,542,543,0,0,0,0,0,541,542,543,0,0,0,0,0,0,0,0,0,0,0,0,0,0,
0,0,0,0,0,0,0,0,0,0,0,0,0,0,0,0,0,0,0,0,0,0,0,0,0,0,0,0,0,0,0,0,0,0,0,0,0,0,0,0,0,0,0,0,0,0,0,0,0,0,0,0,526,526,526,526,526,526,0,0,526,526,526,526,0,0,
0,0,0,0,0,0,0,0,0,0,0,0,0,0,0,0,0,0,0,0,0,0,0,0,0,0,0,0,0,0,0,0,0,0,0,0,0,0,0,0,0,0,0,0,0,0,0,0,0,0,0,0,0,0,0,0,0,0,0,0,0,0,0,0,0,0,
0,0,526,526,526,526,526,526,526,526,571,572,0,0,0,0,0,0,0,0,0,0,0,0,0,0,0,0,0,0,0,0,0,0,0,0,0,0,0,0,0,0,0,0,0,0,0,0,0,0,0,0,0,0,0,0,0,0,0,0,0,0,0,0,0,0,
0,0,0,0,0,0,0,0,0,0,579,580,526,526,0,0,0,526,526,526,526,526,526,0,0,526,526,0,0,0,0,0,0,0,0,0,0,0,0,0,0,0,0,0,0,0,0,0,0,0,0,0,0,0,0,0,0,0,0,0,0,0,0,0,0,0,
0,0,0,0,0,0,0,0,0,0,587,588,0,0,0,0,0,0,0,0,0,0,0,0,0,0,0,0,0,0,0,0,0,0,0,0,0,0,0,0,0,0,0,0,0,0,0,0,0,0,0,0,0,0,0,0,0,0,0,0,0,0,0,0,0,0,
0,0,0,0,0,0,0,0,0,0,0,0,0,0,0,0,0,0,0,0,0,0,0,0,0,0,0,0,0,0,0,0,0,0,0,0,0,0,0,0,0,0,0,0,0,0,0,0,0,0,0,0,0,0,0,0,0,0,0,0,0,0,0,0,0,0,
0,0,0,0,0,0,0,0,0,0,0,0,0,0,0,0,0,0,0,0,0,0,0,0,0,0,0,0,0,549,549,549,549,549,549,0,0,0,0,0,526,526,526,526,550,551,0,0,569,570,569,570,0,0,0,550,551,550,551,0,0,0,0,0,0,0,
0,0,0,0,0,0,0,0,0,0,0,0,0,0,0,0,0,0,0,0,0,0,0,0,0,0,0,0,0,557,557,557,557,557,557,0,0,0,0,0,0,0,0,0,558,559,0,0,577,578,577,578,0,0,0,558,559,558,559,0,0,0,0,0,0,0,
0,0,0,0,0,0,0,0,0,0,0,0,0,0,0,0,0,0,0,553,554,555,0,0,0,0,0,0,0,565,565,565,565,565,565,0,0,0,0,0,0,0,0,0,566,567,0,0,585,586,585,586,0,0,0,566,567,566,567,0,0,0,0,0,0,0,
0,0,0,0,0,0,0,0,0,0,0,0,0,0,526,526,526,526,0,529,530,540,0,526,526,526,526,0,0,0,0,0,0,0,0,0,0,0,0,0,0,0,0,0,0,0,0,0,0,0,0,0,0,0,0,0,0,0,0,0,0,0,0,0,0,0,
0,0,0,0,0,0,0,0,0,0,0,0,0,0,0,533,534,535,0,537,538,539,0,533,534,535,0,0,0,0,0,0,0,0,0,0,0,0,0,0,0,0,0,0,0,0,0,0,0,0,0,0,0,0,0,0,0,0,0,0,0,0,0,0,0,0,
0,0,550,551,550,551,526,526,526,526,549,549,0,0,0,541,542,543,0,0,0,0,0,541,542,543,0,0,0,0,0,0,0,0,0,0,0,0,0,0,0,0,0,0,0,0,0,0,0,0,0,0,0,0,0,0,0,0,0,0,0,0,0,0,0,0,
0,0,558,559,558,559,0,0,0,0,557,557,0,0,0,0,0,0,0,0,0,0,0,0,0,0,0,0,0,0,0,0,573,574,0,0,0,0,0,0,0,0,0,0,0,0,0,0,0,0,0,0,573,574,0,0,0,0,0,0,0,0,0,0,0,0,
0,0,566,567,566,567,0,0,0,0,565,565,526,526,0,0,0,0,0,0,0,0,0,0,0,0,0,526,526,526,526,0,581,582,0,526,526,526,526,526,526,0,0,0,0,526,526,526,526,526,526,0,581,582,0,526,526,526,526,526,526,0,0,0,0,0,
0,0,0,0,0,0,0,0,0,0,0,0,0,0,0,0,0,0,0,0,0,0,0,0,0,0,0,0,0,0,0,0,589,590,0,0,0,0,0,0,0,0,0,0,0,0,0,0,0,0,0,0,589,590,0,0,0,0,0,0,0,0,0,0,0,0,
0,0,0,0,0,0,0,0,0,0,0,0,0,0,0,0,0,0,0,0,0,0,0,0,0,0,0,0,0,0,0,0,0,0,0,0,0,0,0,0,0,0,0,0,0,0,0,0,0,0,0,0,0,0,0,0,0,0,0,0,0,0,0,0,0,0,
0,0,0,0,0,0,0,0,0,0,0,0,0,0,0,0,0,0,0,0,0,0,0,0,0,0,0,0,0,0,0,0,0,0,0,0,0,0,0,0,0,0,0,0,0,0,0,0,0,0,0,0,0,0,0,0,0,0,0,0,0,0,0,0,0,0,
0,0,0,0,0,0,0,0,0,0,0,0,0,0,0,0,0,0,0,0,0,0,0,0,0,0,0,0,0,0,0,0,0,0,0,0,0,0,0,0,0,0,0,0,0,0,0,0,0,0,0,0,0,0,0,0,0,0,0,0,0,0,0,0,0,0,
0,0,0,0,0,0,0,0,0,0,0,0,0,0,0,0,0,0,0,0,0,0,0,0,0,0,0,0,0,0,0,0,0,0,0,0,0,0,0,0,0,0,0,0,0,0,0,0,0,0,0,0,0,0,0,0,0,0,0,0,0,0,0,0,0,0,
0,0,0,0,0,0,0,0,0,0,0,0,0,0,0,0,0,0,0,0,0,0,0,0,0,0,0,0,0,0,0,0,0,0,0,0,0,0,0,0,0,0,0,0,0,0,0,0,0,0,0,0,0,0,0,0,0,0,0,0,0,0,0,0,0,0,
0,0,0,0,0,0,0,0,0,0,0,0,0,0,0,0,0,0,0,0,0,0,0,0,0,0,0,0,0,0,0,0,0,0,0,0,0,0,0,0,0,0,0,0,0,0,0,0,0,0,0,0,0,0,0,0,0,0,0,0,0,0,0,0,0,0
</data>
 </layer>
 <layer id="12" name="mask" width="66" height="64" visible="0" opacity="0.5">
  <data encoding="csv">
0,0,0,0,0,0,0,0,0,0,0,0,0,0,0,0,0,0,0,0,0,0,0,0,0,0,0,0,0,0,0,0,0,0,0,0,0,0,0,0,0,0,0,0,0,0,0,0,0,0,0,0,0,0,0,0,0,0,0,0,0,0,0,0,0,0,
0,0,0,0,0,0,0,0,0,0,0,0,0,0,0,0,0,0,0,0,0,0,0,0,0,0,0,0,0,0,0,0,0,0,0,0,0,0,0,0,0,0,0,0,0,0,0,0,0,0,0,0,0,0,0,0,0,0,0,0,0,0,0,0,0,0,
0,0,0,0,0,0,0,0,0,0,0,0,0,0,0,0,0,0,0,0,0,0,0,0,0,0,0,0,0,0,0,0,0,0,0,0,0,0,0,0,0,0,0,0,0,0,0,0,0,0,0,0,0,0,0,0,0,0,0,0,0,0,0,0,0,0,
0,0,0,0,0,0,0,0,0,0,0,0,0,0,0,0,0,0,0,0,0,0,0,0,0,0,0,0,0,0,0,0,0,0,0,0,0,0,0,0,0,0,0,0,0,0,0,0,0,0,0,0,0,0,0,0,0,0,0,0,0,0,0,0,0,0,
0,0,0,0,0,0,0,0,0,0,0,0,0,0,0,0,0,0,0,0,0,0,0,0,0,0,0,0,0,0,0,0,0,0,0,0,0,0,0,0,0,0,0,0,0,0,0,0,0,0,0,0,0,0,0,0,0,0,0,0,0,0,0,0,0,0,
0,0,0,0,0,0,0,0,0,0,0,0,0,0,0,0,0,0,0,0,0,0,0,0,0,0,0,0,0,0,732,732,732,732,732,732,732,732,732,732,732,732,732,732,732,732,732,732,732,732,732,732,732,732,732,732,732,732,732,732,732,732,732,732,0,0,
0,0,0,0,0,0,0,0,0,0,0,0,0,0,0,0,0,0,0,0,0,0,0,0,0,0,0,0,0,0,740,740,740,740,740,740,740,740,740,740,740,740,740,740,740,740,740,740,740,740,740,740,740,740,740,740,740,740,740,740,740,740,740,740,0,0,
0,0,732,732,732,0,0,732,732,0,0,732,732,0,0,732,732,732,0,0,732,732,0,0,732,732,0,0,0,0,0,0,0,0,0,0,0,0,0,0,0,0,0,0,0,0,0,0,0,0,0,0,0,0,0,0,0,0,0,0,0,0,0,0,0,0,
0,0,740,740,740,0,0,740,740,0,0,740,740,0,0,740,740,740,0,0,740,740,0,0,740,740,0,0,0,0,0,0,0,0,0,0,0,0,0,0,0,0,0,0,0,0,0,0,0,0,0,0,0,0,0,0,0,0,0,0,0,0,0,0,0,0,
0,0,0,0,0,0,0,0,0,0,0,0,0,0,0,0,0,0,0,0,0,0,0,0,0,0,0,0,0,0,0,0,0,0,0,0,0,0,0,0,0,0,0,0,0,0,0,0,0,0,0,0,0,0,0,0,0,0,0,0,0,0,0,0,0,0,
0,0,0,0,0,0,0,0,0,0,0,0,0,0,0,0,0,0,0,0,0,0,0,0,0,0,0,0,0,0,0,0,0,0,0,0,0,0,0,0,0,0,0,0,0,0,0,0,0,0,0,0,0,0,0,0,0,0,0,0,0,0,0,0,0,0,
0,0,0,0,0,0,0,0,0,0,0,0,0,0,0,0,0,0,0,0,0,0,0,0,0,0,0,0,0,0,0,0,0,0,0,0,0,0,0,0,0,0,0,0,732,732,732,732,732,732,732,732,732,732,0,0,0,0,0,0,0,0,0,0,0,0,
0,0,0,0,0,0,0,0,0,0,0,0,0,0,0,0,0,0,0,0,0,0,0,0,0,0,0,0,0,0,0,0,0,0,0,0,0,0,0,0,0,0,0,0,740,740,740,740,740,740,740,740,740,740,0,0,0,732,732,0,0,0,0,0,0,0,
0,0,732,732,732,732,732,732,732,732,732,732,732,732,732,0,0,0,732,732,732,732,732,732,732,732,732,732,732,732,0,0,0,0,0,0,0,0,0,0,0,0,0,0,0,0,0,0,0,0,0,0,0,0,0,0,0,740,740,732,732,732,732,732,0,0,
0,0,740,740,740,740,740,740,740,740,740,740,740,740,740,0,0,0,740,740,740,740,740,740,740,740,740,740,740,740,0,0,0,0,0,0,0,0,0,0,0,0,0,0,0,0,0,0,0,0,0,0,0,0,0,0,0,0,0,740,740,740,740,740,0,0,
0,0,0,0,0,0,0,0,0,0,0,0,0,0,0,0,0,0,0,0,0,0,0,0,0,0,0,0,0,0,0,0,0,0,0,0,0,0,0,0,732,732,0,0,0,0,0,0,0,0,0,0,0,0,0,0,0,0,0,0,0,0,0,0,0,0,
0,0,0,0,0,0,0,0,0,0,0,0,0,0,0,0,0,0,0,0,0,0,0,0,0,0,0,0,0,0,0,0,0,0,0,0,0,0,0,0,0,0,0,0,0,0,0,0,0,0,0,0,0,0,0,0,0,0,0,0,0,0,0,0,0,0,
0,0,0,0,0,0,0,0,0,0,0,0,0,0,0,0,0,0,0,0,0,0,0,0,0,0,0,0,0,0,0,0,0,0,0,0,0,0,0,0,0,0,0,0,0,0,0,0,0,0,0,0,0,0,0,0,0,0,0,0,0,0,0,0,0,0,
0,0,732,732,732,732,732,0,0,732,732,732,732,0,0,0,0,0,0,0,732,732,732,0,0,732,732,732,732,732,0,0,732,732,732,732,732,732,732,732,0,0,732,732,732,732,0,0,0,0,0,0,0,0,0,0,0,0,0,0,0,0,0,0,0,0,
0,0,740,740,740,740,740,0,0,740,740,740,740,0,0,0,0,0,0,0,740,740,740,0,0,740,740,740,740,740,0,0,740,740,740,740,740,740,740,740,0,0,740,740,740,740,0,0,0,0,0,0,0,0,0,0,0,732,732,0,0,0,0,0,0,0,
0,0,0,0,0,0,0,0,0,0,0,0,0,0,0,0,0,0,0,0,0,0,0,0,0,0,0,0,0,0,0,0,0,0,0,0,0,0,0,0,0,0,0,0,0,0,0,0,0,0,0,0,0,0,0,0,0,740,740,0,0,0,0,0,0,0,
0,0,0,0,0,0,0,0,0,0,0,0,0,0,0,0,0,0,0,0,0,0,0,0,0,0,0,0,0,0,0,0,0,0,0,0,0,0,0,0,0,0,0,0,0,0,732,732,732,732,732,732,0,0,0,0,0,0,0,732,732,732,732,732,0,0,
0,0,0,0,0,0,0,0,0,0,0,0,0,0,0,0,0,0,0,0,0,0,0,0,0,0,0,0,0,0,0,0,0,0,0,0,0,0,0,0,0,0,0,0,0,0,740,740,740,740,740,740,0,0,0,0,0,0,0,740,740,740,740,740,0,0,
0,0,0,0,0,0,0,0,0,0,0,0,0,0,0,0,0,0,0,0,0,0,0,0,0,0,0,0,0,0,0,0,0,0,0,0,0,0,0,0,0,0,0,0,0,0,0,0,0,0,0,0,0,0,0,0,0,0,0,0,0,0,0,0,0,0,
0,0,0,0,0,732,732,732,732,732,732,732,732,732,732,732,732,732,732,732,732,732,732,732,732,732,732,0,0,0,0,0,0,0,0,0,0,0,0,0,0,0,0,0,0,0,0,0,0,0,0,0,0,0,0,0,0,0,0,0,0,0,0,0,0,0,
0,0,0,0,0,740,740,740,740,740,740,740,740,740,740,740,740,740,740,740,740,740,740,740,740,740,740,0,0,0,0,0,0,0,0,0,0,0,0,0,0,0,0,0,0,0,0,0,0,0,0,0,0,0,0,0,0,0,0,0,0,0,0,0,0,0,
0,0,0,0,0,0,0,0,0,0,0,0,0,0,0,0,0,0,0,0,0,0,0,0,0,0,0,0,0,0,0,0,0,0,0,0,0,0,0,0,0,0,0,732,732,0,0,0,732,732,732,732,732,732,732,732,732,732,732,0,0,732,732,732,0,0,
0,0,0,0,0,0,0,0,0,0,0,0,0,0,0,0,0,0,0,0,0,0,0,0,0,0,0,0,0,0,0,0,0,0,0,0,0,0,0,0,0,0,0,740,740,0,0,0,740,740,740,740,740,740,740,740,740,740,740,0,0,740,740,740,0,0,
0,0,0,0,0,0,0,0,0,0,0,0,0,0,0,0,0,0,0,0,0,0,0,0,0,0,0,0,0,0,0,0,732,732,732,732,732,732,732,732,732,732,732,0,0,0,0,0,0,0,0,0,0,0,0,0,0,0,0,0,0,0,0,0,0,0,
0,0,0,0,0,0,0,0,0,0,0,0,0,0,0,0,0,0,0,0,0,0,0,0,0,0,0,0,0,0,0,0,740,740,740,740,740,740,740,740,740,740,740,0,0,0,0,0,0,0,0,0,0,0,0,0,0,0,0,0,0,0,0,0,0,0,
0,0,0,0,0,0,0,732,732,732,732,732,732,732,732,732,732,0,0,0,732,732,732,732,732,0,0,0,0,0,0,0,0,0,0,0,0,0,0,0,0,0,0,0,0,0,0,0,0,0,0,0,0,0,0,0,0,0,0,0,0,0,0,0,0,0,
0,0,0,0,0,0,0,740,740,740,740,740,740,740,740,740,740,0,0,0,740,740,740,740,740,0,0,0,0,0,0,0,0,0,0,0,0,0,0,0,0,0,0,0,0,0,0,0,0,0,0,0,0,0,0,0,0,0,0,0,0,0,0,0,0,0,
0,0,0,0,0,0,0,0,0,0,0,0,0,0,0,0,0,0,0,0,0,0,0,0,0,0,0,0,0,0,0,0,0,0,0,0,0,0,0,0,0,0,0,0,0,0,0,0,0,0,0,0,0,0,0,0,0,0,0,0,0,0,0,0,0,0,
0,0,0,0,0,0,0,0,0,0,0,0,0,0,0,0,0,0,0,0,0,0,0,0,0,0,0,0,0,0,0,0,0,0,0,0,0,0,0,0,0,0,0,0,0,0,0,0,0,0,0,0,0,0,732,732,732,732,732,732,732,732,732,732,0,0,
0,0,0,0,0,0,0,0,0,0,0,0,0,0,0,0,0,0,0,0,0,0,0,0,0,0,0,0,0,0,0,0,0,0,0,0,0,0,0,0,0,0,0,0,0,0,0,0,0,0,0,0,0,0,740,740,740,740,740,740,740,740,740,740,0,0,
0,0,0,0,0,0,0,0,0,0,0,0,0,0,0,0,0,0,0,0,0,0,0,0,0,0,0,0,0,0,0,0,0,0,0,0,0,0,0,0,0,0,0,0,0,0,0,0,0,0,0,0,0,0,0,0,0,0,0,0,0,0,0,0,0,0,
0,0,732,732,732,732,732,0,0,732,732,732,732,732,0,0,0,732,732,732,732,732,732,732,732,732,732,732,732,732,0,0,0,0,0,0,0,0,0,732,732,0,0,0,0,0,0,0,0,0,0,0,0,0,0,0,0,0,0,0,0,0,0,0,0,0,
0,0,740,740,740,740,740,0,0,740,740,740,740,740,0,0,0,740,740,740,740,740,740,740,740,740,740,740,740,740,0,0,0,0,0,0,0,0,0,740,740,0,0,0,0,0,0,0,0,0,0,0,0,0,0,0,0,0,0,0,0,0,0,0,0,0,
0,0,0,0,0,0,0,0,0,0,0,0,0,0,0,0,0,0,0,0,0,0,0,0,0,0,0,0,0,0,0,0,732,732,732,732,732,732,732,0,0,732,732,732,732,0,0,0,732,732,732,732,0,0,0,0,0,0,0,0,0,0,0,0,0,0,
0,0,0,0,0,0,0,0,0,0,0,0,0,0,0,0,0,0,0,0,0,0,0,0,0,0,0,0,0,0,0,0,740,740,740,740,740,740,740,0,0,740,740,740,740,0,0,0,740,740,740,740,0,0,0,0,0,0,0,0,0,0,0,0,0,0,
0,0,0,0,0,0,0,0,0,0,0,0,0,0,0,0,0,0,0,0,0,0,0,0,0,0,0,0,0,0,0,0,0,0,0,0,0,0,0,0,0,0,0,0,0,0,0,0,0,0,0,0,0,0,0,0,0,0,0,0,0,0,0,0,0,0,
0,0,0,0,0,0,0,0,0,0,0,0,0,0,0,0,0,0,0,0,0,0,0,0,0,0,0,0,0,0,0,0,0,0,0,0,0,0,0,0,0,0,0,0,0,0,0,0,0,0,0,0,0,0,732,732,732,732,0,0,732,732,732,732,0,0,
0,0,0,0,0,0,0,0,0,0,0,0,0,0,0,0,0,0,0,0,0,0,0,0,0,0,0,0,0,0,0,0,0,0,0,0,0,0,0,0,0,0,0,0,0,0,0,0,0,0,0,0,0,0,740,740,740,740,0,0,740,740,740,740,0,0,
0,0,732,732,732,732,732,732,732,732,732,732,0,0,0,0,0,0,0,0,0,0,0,0,0,0,0,0,0,0,0,0,0,0,0,0,0,0,0,0,0,0,0,0,0,0,0,0,0,0,0,0,0,0,0,0,0,0,0,0,0,0,0,0,0,0,
0,0,740,740,740,740,740,740,740,740,740,740,0,0,0,0,0,0,0,732,732,732,732,0,0,732,732,732,732,732,0,0,0,0,0,0,0,0,0,0,0,0,0,0,0,0,0,0,0,0,0,0,0,0,0,0,0,0,0,0,0,0,0,0,0,0,
0,0,0,0,0,0,0,0,0,0,0,0,0,0,0,0,0,0,0,740,740,740,740,0,0,740,740,740,740,740,0,0,0,0,0,0,0,0,0,732,732,0,0,0,0,0,0,0,0,0,0,0,0,0,0,0,0,0,0,0,0,0,0,0,0,0,
0,0,0,0,0,0,0,0,0,0,0,0,0,0,0,0,0,0,0,0,0,0,0,0,0,0,0,0,0,0,0,0,0,0,0,0,0,0,0,740,740,0,0,0,0,0,0,0,0,0,0,0,0,0,0,0,0,0,0,0,0,0,0,0,0,0,
0,0,0,0,0,0,0,0,0,0,0,0,0,0,0,0,0,0,0,0,0,0,0,0,0,0,0,0,0,0,0,0,732,732,732,732,732,732,732,0,0,732,732,732,732,732,732,732,732,732,732,732,732,732,732,732,732,732,732,732,732,0,0,0,0,0,
0,0,0,0,0,0,0,0,0,0,0,0,0,0,0,0,0,0,0,0,0,0,0,0,0,0,0,0,0,0,0,0,740,740,740,740,740,740,740,0,0,740,740,740,740,740,740,740,740,740,740,740,740,740,740,740,740,740,740,740,740,0,0,0,0,0,
0,0,0,0,0,0,0,0,0,0,0,0,732,732,0,0,0,0,0,0,0,0,0,0,0,0,0,0,0,0,0,0,0,0,0,0,0,0,0,0,0,0,0,0,0,0,0,0,0,0,0,0,0,0,0,0,0,0,0,0,0,0,0,0,0,0,
0,0,0,0,0,0,0,0,0,0,0,0,740,740,732,732,732,732,732,0,0,0,732,732,732,732,732,0,0,0,0,0,0,0,0,0,0,0,0,0,0,0,0,0,0,0,0,0,0,0,0,0,0,0,0,0,0,0,0,0,0,0,0,0,0,0,
0,0,0,0,0,0,0,0,0,0,0,0,0,0,740,740,740,740,740,0,0,0,740,740,740,740,740,0,0,0,0,0,0,0,0,0,0,0,0,0,0,0,0,0,0,0,0,0,0,0,0,0,0,0,0,0,0,0,0,0,0,0,0,0,0,0,
0,0,732,732,732,732,732,732,732,732,732,732,0,0,0,0,0,0,0,0,0,0,0,0,0,0,0,0,0,0,0,0,0,0,0,0,0,0,0,0,0,0,0,0,0,0,0,0,0,0,0,0,0,0,0,0,0,0,0,0,0,0,0,0,0,0,
0,0,740,740,740,740,740,740,740,740,740,740,0,0,0,0,0,0,0,0,0,0,0,0,0,0,0,0,0,0,0,0,0,0,0,0,0,0,0,0,0,0,0,0,0,0,0,0,0,0,0,0,0,0,0,0,0,0,0,0,0,0,0,0,0,0,
0,0,0,0,0,0,0,0,0,0,0,0,0,0,0,0,0,0,0,0,0,0,0,0,0,0,0,0,0,732,732,732,0,0,732,732,732,732,0,0,732,732,0,0,732,732,0,0,732,732,732,732,0,0,732,732,732,732,732,0,0,0,0,0,0,0,
0,0,0,0,0,0,0,0,0,0,0,0,0,0,0,0,0,0,0,0,0,0,0,0,0,0,0,0,0,740,740,740,0,0,740,740,740,740,0,0,740,740,0,0,740,740,0,0,740,740,740,740,0,0,740,740,740,740,740,0,0,0,0,0,0,0,
0,0,0,0,0,0,0,0,0,0,0,0,0,0,0,0,0,0,0,0,0,0,0,0,0,0,0,0,0,0,0,0,0,0,0,0,0,0,0,0,0,0,0,0,0,0,0,0,0,0,0,0,0,0,0,0,0,0,0,0,0,0,0,0,0,0,
0,0,0,0,0,0,0,0,0,0,0,0,0,0,0,0,0,0,0,0,0,0,0,0,0,0,0,0,0,0,0,0,0,0,0,0,0,0,0,0,0,0,0,0,0,0,0,0,0,0,0,0,0,0,0,0,0,0,0,0,0,0,0,0,0,0,
0,0,0,0,0,0,0,0,0,0,0,0,0,0,0,0,0,0,0,0,0,0,0,0,0,0,0,0,0,0,0,0,0,0,0,0,0,0,0,0,0,0,0,0,0,0,0,0,0,0,0,0,0,0,0,0,0,0,0,0,0,0,0,0,0,0,
0,0,0,0,0,0,0,0,0,0,0,0,732,732,0,0,0,0,0,0,0,0,0,0,0,0,0,732,732,0,0,0,0,0,0,0,0,0,0,0,0,0,0,0,0,0,0,0,0,0,0,0,0,0,0,0,0,0,0,0,0,0,0,0,0,0,
0,0,732,732,732,732,732,732,732,732,732,732,732,732,732,732,732,732,732,0,0,0,732,732,732,732,732,732,732,732,732,732,732,732,732,732,732,732,732,732,732,732,732,732,732,732,732,732,732,732,732,732,732,732,732,732,732,732,732,732,732,732,732,732,0,0,
0,0,732,732,732,732,732,732,732,732,732,732,732,732,732,732,732,732,732,732,732,732,732,732,732,732,732,732,732,732,732,732,732,732,732,732,732,732,732,732,732,732,732,732,732,732,732,732,732,732,732,732,732,732,732,732,732,732,732,732,732,732,732,732,0,0,
0,0,0,0,0,0,0,0,0,0,0,0,0,0,0,0,0,0,0,732,732,732,0,0,0,0,0,0,0,0,0,0,0,0,0,0,0,0,0,0,0,0,0,0,0,0,0,0,0,0,0,0,0,0,0,0,0,0,0,0,0,0,0,0,0,0,
0,0,0,0,0,0,0,0,0,0,0,0,0,0,0,0,0,0,0,0,0,0,0,0,0,0,0,0,0,0,0,0,0,0,0,0,0,0,0,0,0,0,0,0,0,0,0,0,0,0,0,0,0,0,0,0,0,0,0,0,0,0,0,0,0,0
</data>
 </layer>
 <layer id="3" name="col" width="66" height="64" opacity="0.5">
  <data encoding="csv">
714,714,714,714,714,714,714,714,714,714,714,714,714,714,714,714,714,714,714,714,714,714,714,714,714,714,714,714,714,714,714,714,714,714,714,714,714,714,714,714,714,714,714,714,714,714,714,714,714,714,714,714,714,714,714,714,714,714,714,714,714,714,714,714,714,714,
714,714,714,714,714,714,714,714,714,714,714,714,714,714,714,714,714,714,714,714,714,714,714,714,714,714,714,714,714,714,714,714,714,714,714,714,714,714,714,714,714,714,714,714,714,714,714,714,714,714,714,714,714,714,714,714,714,714,714,714,714,714,714,714,714,714,
714,714,714,714,714,714,714,714,714,714,714,714,714,714,714,714,714,714,714,714,714,714,714,714,714,714,714,714,714,714,714,714,714,714,714,714,714,714,714,714,714,714,714,714,714,714,714,714,714,714,714,714,714,714,714,714,714,714,714,714,714,714,714,714,714,714,
714,714,715,715,715,715,715,715,715,714,714,715,715,715,715,715,715,715,714,714,715,715,715,715,715,715,714,714,715,715,715,715,715,715,715,715,715,715,715,715,715,715,715,715,715,715,715,715,715,715,715,715,715,715,715,715,715,715,715,715,715,715,715,715,714,714,
714,714,715,715,715,715,0,0,0,714,714,0,0,0,0,0,715,715,714,714,715,715,0,0,715,715,714,714,0,0,0,0,0,0,0,0,0,0,0,0,0,0,0,0,0,0,0,0,0,0,0,0,0,0,0,0,0,0,0,0,0,0,0,0,714,714,
714,714,0,0,0,0,0,0,0,714,714,0,0,0,0,0,0,0,714,714,0,0,0,0,0,0,714,714,0,0,0,0,0,0,0,0,0,0,0,0,0,0,0,0,0,0,0,0,0,0,0,0,0,0,0,0,0,0,0,0,0,0,0,0,714,714,
714,714,0,0,0,0,0,0,0,714,714,0,0,0,0,0,0,0,714,714,0,0,0,0,0,0,714,714,0,0,714,714,714,714,714,714,714,714,714,714,714,714,714,714,714,714,714,714,714,714,714,714,714,714,714,714,714,714,714,714,714,714,714,714,714,714,
714,714,0,0,0,0,0,0,0,714,714,0,0,0,0,0,0,0,714,714,0,0,0,0,0,0,714,714,0,0,714,714,714,714,714,714,714,714,714,714,714,714,714,714,714,714,714,714,714,714,714,714,714,714,714,714,714,714,714,714,714,714,714,714,714,714,
714,714,714,714,714,0,0,714,714,714,714,714,714,714,714,714,714,714,714,714,714,714,0,0,714,714,714,714,0,0,714,714,715,715,715,715,715,715,715,715,714,714,715,715,715,715,715,715,715,715,715,715,715,715,715,715,715,714,714,715,715,715,715,715,714,714,
714,714,714,714,714,0,0,714,714,714,714,714,714,715,715,714,714,714,714,714,714,714,0,0,714,714,714,714,0,0,714,714,0,0,0,0,715,715,715,715,714,714,0,0,0,0,0,0,0,0,0,0,0,0,0,0,0,714,714,0,0,0,715,715,714,714,
714,714,715,715,715,0,0,715,715,715,715,715,715,715,715,715,715,715,715,715,715,715,0,0,715,715,715,715,0,0,714,714,0,0,0,0,0,0,0,0,714,714,0,0,0,0,0,0,0,0,0,0,0,0,0,0,0,715,715,0,0,0,0,0,714,714,
714,714,0,0,0,0,0,0,0,0,0,0,0,0,0,0,0,0,0,0,0,0,0,0,0,0,0,0,0,0,714,714,0,0,0,0,0,0,0,0,714,714,0,0,0,0,0,0,0,0,0,0,0,0,0,0,0,0,0,0,0,0,0,0,714,714,
714,714,0,0,0,0,0,0,0,0,0,0,0,0,0,0,0,0,0,0,0,0,0,0,0,0,0,0,0,0,714,714,0,0,0,0,0,0,0,0,714,714,0,0,714,714,714,714,714,714,714,714,714,714,0,0,0,0,0,0,0,0,0,0,714,714,
714,714,0,0,0,0,0,0,0,0,0,0,0,0,0,0,0,0,0,0,0,0,0,0,0,0,0,0,0,0,714,714,0,0,0,0,0,0,0,0,715,715,0,0,714,714,714,714,714,714,714,714,714,714,0,0,0,714,714,0,0,0,0,0,714,714,
714,714,714,714,714,714,714,714,714,714,714,714,714,714,714,0,0,0,714,714,714,714,714,714,714,714,714,714,714,714,714,714,0,0,0,0,0,0,0,0,0,0,0,0,714,714,715,715,715,715,715,715,714,714,0,0,0,714,714,714,714,714,714,714,714,714,
714,714,714,714,714,714,714,714,714,714,714,714,714,714,714,0,0,0,714,714,714,714,714,714,714,714,714,714,714,714,714,714,0,0,0,0,0,0,0,0,0,0,0,0,714,714,0,0,0,715,715,715,714,714,0,0,0,714,714,714,714,714,714,714,714,714,
714,714,715,715,715,715,715,715,715,715,715,715,715,714,714,0,0,0,714,714,715,715,715,715,715,715,715,715,715,715,714,714,0,0,0,0,0,0,0,0,714,714,0,0,715,715,0,0,0,0,0,0,714,714,0,0,0,714,714,715,715,715,715,715,714,714,
714,714,715,715,0,0,0,0,0,0,0,0,0,714,714,0,0,0,714,714,0,0,0,0,0,0,0,0,715,715,714,714,0,0,0,0,0,0,0,0,714,714,0,0,0,0,0,0,0,0,0,0,714,714,0,0,0,715,715,0,0,0,715,715,714,714,
714,714,0,0,0,0,0,0,0,0,0,0,0,714,714,0,0,0,714,714,0,0,0,0,0,0,0,0,0,0,714,714,0,0,0,0,0,0,0,0,714,714,0,0,0,0,0,0,0,0,0,0,714,714,0,0,0,0,0,0,0,0,0,0,714,714,
714,714,714,714,714,714,714,0,0,714,714,714,714,714,714,0,0,0,714,714,714,714,714,0,0,714,714,714,714,714,714,714,714,714,714,714,714,714,714,714,714,714,714,714,714,714,0,0,0,0,0,0,714,714,0,0,0,0,0,0,0,0,0,0,714,714,
714,714,714,714,714,714,714,0,0,714,714,714,714,714,714,0,0,0,714,714,714,714,714,0,0,714,714,714,714,714,714,714,714,714,714,714,714,714,714,714,714,714,714,714,714,714,0,0,0,0,0,0,714,714,0,0,0,714,714,0,0,0,0,0,714,714,
714,714,715,715,715,715,715,0,0,715,715,715,715,715,715,0,0,0,715,715,715,715,715,0,0,715,715,715,715,715,714,714,715,715,715,715,715,715,715,715,715,715,715,714,714,714,0,0,0,0,0,0,714,714,0,0,0,714,714,0,0,0,0,0,714,714,
714,714,0,0,0,0,0,0,0,0,0,0,0,0,0,0,0,0,0,0,0,0,0,0,0,0,0,0,0,0,714,714,0,0,715,715,715,0,0,715,715,715,0,714,714,714,714,714,714,714,714,714,714,714,0,0,0,714,714,714,714,714,714,714,714,714,
714,714,0,0,0,0,0,0,0,0,0,0,0,0,0,0,0,0,0,0,0,0,0,0,0,0,0,0,0,0,714,714,0,0,0,0,0,0,0,0,0,0,0,714,714,714,714,714,714,714,714,714,714,714,0,0,0,714,714,714,714,714,714,714,714,714,
714,714,0,0,0,0,0,0,0,0,0,0,0,0,0,0,0,0,0,0,0,0,0,0,0,0,0,0,0,0,714,714,0,0,0,0,0,0,0,0,0,0,0,715,715,715,715,715,715,715,715,715,715,715,0,0,0,715,715,715,715,715,715,715,714,714,
714,714,0,0,0,714,714,714,714,714,714,714,714,714,714,714,714,714,714,714,714,714,714,714,714,714,714,0,0,0,714,714,0,0,0,0,0,0,0,0,0,0,0,0,0,0,0,0,0,0,0,0,0,0,0,0,0,0,0,0,0,0,0,0,714,714,
714,714,0,0,0,714,714,714,714,714,714,714,714,714,714,714,714,714,714,714,714,714,714,714,714,714,714,0,0,0,714,714,0,0,0,0,0,0,0,0,0,0,0,0,0,0,0,0,0,0,0,0,0,0,0,0,0,0,0,0,0,0,0,0,714,714,
714,714,0,0,0,714,714,0,0,0,0,0,0,0,0,0,0,0,0,0,0,0,0,0,0,714,714,0,0,0,714,714,0,0,0,0,0,0,0,0,0,0,0,714,714,0,0,0,714,714,714,714,714,714,714,714,714,714,714,714,714,714,714,714,714,714,
714,714,0,0,0,714,714,0,0,0,0,0,0,0,0,0,0,0,0,0,0,0,0,0,0,714,714,0,0,0,714,714,0,0,0,0,0,0,0,0,0,0,0,714,714,0,0,0,714,714,714,714,714,714,714,714,714,714,714,714,714,714,714,714,714,714,
714,714,0,0,0,714,714,0,0,0,0,0,0,0,0,0,0,0,0,0,0,0,0,0,0,714,714,0,0,0,714,714,714,714,714,714,714,714,714,714,714,714,714,714,714,0,0,0,714,714,714,714,714,714,715,715,715,715,715,715,715,715,715,715,714,714,
714,714,0,0,0,714,714,0,0,0,0,0,0,0,0,0,0,0,0,0,0,0,0,0,0,714,714,0,0,0,714,714,714,714,714,714,714,714,714,714,714,714,714,714,714,0,0,0,714,714,714,714,714,714,0,0,0,0,0,0,0,0,715,715,714,714,
714,714,0,0,0,714,714,714,714,714,714,714,714,714,714,714,714,714,714,714,714,714,714,714,714,714,714,0,0,0,714,714,715,715,715,715,715,715,715,714,714,715,715,715,715,0,0,0,715,715,715,715,714,714,0,0,0,0,0,0,0,0,0,0,714,714,
714,714,0,0,0,714,714,714,714,714,714,714,714,714,714,714,714,714,714,714,714,714,714,714,714,714,714,0,0,0,714,714,715,715,715,715,0,715,715,714,714,0,0,0,0,0,0,0,0,0,0,0,714,714,0,0,0,0,0,0,0,0,0,0,714,714,
714,714,0,0,0,715,715,715,715,715,715,715,715,715,715,715,715,715,715,715,715,715,715,715,715,715,715,0,0,0,714,714,0,0,0,0,0,0,0,714,714,0,0,0,0,0,0,0,0,0,0,0,714,714,0,0,0,0,0,0,0,0,0,0,714,714,
714,714,0,0,0,0,0,0,0,0,0,0,0,0,0,0,0,0,0,0,0,0,0,0,0,0,0,0,0,0,714,714,0,0,0,0,0,0,0,715,715,0,0,0,0,0,0,0,0,0,0,0,714,714,714,714,714,714,714,714,714,714,714,714,714,714,
714,714,0,0,0,0,0,0,0,0,0,0,0,0,0,0,0,0,0,0,0,0,0,0,0,0,0,0,0,0,714,714,0,0,0,0,0,0,0,0,0,0,0,0,0,0,0,0,0,0,0,0,714,714,714,714,714,714,714,714,714,714,714,714,714,714,
714,714,0,0,0,0,0,0,0,0,0,0,0,0,0,0,0,0,0,0,0,0,0,0,0,0,0,0,0,0,714,714,0,0,0,0,0,0,0,0,0,0,0,0,0,0,0,0,0,0,0,0,714,714,715,715,715,715,715,715,715,715,715,715,714,714,
714,714,714,714,714,714,714,0,0,714,714,714,714,714,0,0,0,714,714,714,714,714,714,714,714,714,714,714,714,714,714,714,0,0,0,0,0,0,0,714,714,0,0,0,0,0,0,0,0,0,0,0,714,714,715,715,715,715,0,0,0,0,0,0,714,714,
714,714,714,714,714,714,714,0,0,714,714,714,714,714,0,0,0,714,714,714,714,714,714,714,714,714,714,714,714,714,714,714,0,0,0,0,0,0,0,714,714,0,0,0,0,0,0,0,0,0,0,0,714,714,0,0,0,0,0,0,0,0,0,0,714,714,
714,714,715,715,715,715,715,0,0,715,715,715,714,714,0,0,0,714,714,715,715,715,715,715,715,715,715,715,715,715,714,714,714,714,714,714,714,714,714,714,714,714,714,714,714,714,714,714,714,714,714,714,714,714,0,0,0,0,0,0,0,0,0,0,714,714,
714,714,715,715,0,0,0,0,0,0,0,0,714,714,0,0,0,714,714,0,0,0,0,0,0,0,0,0,0,0,714,714,714,714,714,714,714,714,714,714,714,714,714,714,714,714,714,714,714,714,714,714,714,714,0,0,0,0,0,0,0,0,0,0,714,714,
714,714,0,0,0,0,0,0,0,0,0,0,714,714,0,0,0,714,714,0,0,0,0,0,0,0,0,0,0,0,714,714,715,715,715,715,715,715,715,714,714,715,715,715,715,715,715,715,715,715,715,715,714,714,0,0,0,0,0,0,0,0,0,0,714,714,
714,714,0,0,0,0,0,0,0,0,0,0,714,714,0,0,0,714,714,0,0,0,0,0,0,0,0,0,0,0,714,714,0,0,0,0,715,715,715,714,714,715,715,715,0,0,0,0,0,715,715,715,714,714,714,714,714,714,0,0,714,714,714,714,714,714,
714,714,0,0,0,0,0,0,0,0,0,0,714,714,0,0,0,714,714,0,0,0,0,0,0,0,0,0,0,0,714,714,0,0,0,0,0,0,0,715,715,0,0,0,0,0,0,0,0,0,0,0,714,714,714,714,714,714,0,0,714,714,714,714,714,714,
714,714,714,714,714,714,714,714,714,714,714,714,714,714,0,0,0,714,714,0,0,0,0,0,0,0,0,0,0,0,714,714,0,0,0,0,0,0,0,0,0,0,0,0,0,0,0,0,0,0,0,0,715,715,715,715,715,715,0,0,715,715,715,715,714,714,
714,714,714,714,714,714,714,714,714,714,714,714,714,714,0,0,0,714,714,714,714,714,714,0,0,714,714,714,714,714,714,714,0,0,0,0,0,0,0,0,0,0,0,0,0,0,0,0,0,0,0,0,0,0,0,0,0,0,0,0,0,0,0,0,714,714,
714,714,715,715,715,715,715,715,715,715,715,715,714,714,0,0,0,714,714,714,714,714,714,0,0,714,714,714,714,714,714,714,0,0,0,0,0,0,0,714,714,0,0,0,0,0,0,0,0,0,0,0,0,0,0,0,0,0,0,0,0,0,0,0,714,714,
714,714,0,0,0,0,0,0,0,0,715,715,715,715,0,0,0,715,715,715,715,715,715,0,0,715,715,714,714,714,714,714,0,0,0,0,0,0,0,714,714,0,0,0,0,0,0,0,0,0,0,0,0,0,0,0,0,0,0,0,0,0,0,0,714,714,
714,714,0,0,0,0,0,0,0,0,0,0,0,0,0,0,0,0,0,0,0,0,0,0,0,0,0,714,714,714,714,714,714,714,714,714,714,714,714,714,714,714,714,714,714,714,714,714,714,714,714,714,714,714,714,714,714,714,714,714,714,0,0,0,714,714,
714,714,0,0,0,0,0,0,0,0,0,0,0,0,0,0,0,0,0,0,0,0,0,0,0,0,0,714,714,714,714,714,714,714,714,714,714,714,714,714,714,714,714,714,714,714,714,714,714,714,714,714,714,714,714,714,714,714,714,714,714,0,0,0,714,714,
714,714,0,0,0,0,0,0,0,0,0,0,714,714,0,0,0,0,0,0,0,0,0,0,0,0,0,714,714,715,715,715,715,715,715,715,715,715,714,714,715,715,715,715,715,715,714,714,715,715,715,715,715,715,715,715,715,715,715,714,714,0,0,0,714,714,
714,714,0,0,0,0,0,0,0,0,0,0,714,714,714,714,714,714,714,714,714,714,714,714,714,714,714,714,714,715,715,715,715,715,715,0,0,0,714,714,0,0,0,0,715,715,714,714,715,715,715,715,0,0,0,715,715,715,715,714,714,0,0,0,714,714,
714,714,0,0,0,0,0,0,0,0,0,0,714,714,714,714,714,714,714,714,714,714,714,714,714,714,714,714,714,0,0,0,0,0,0,0,0,0,714,714,0,0,0,0,0,0,714,714,0,0,0,0,0,0,0,0,0,0,0,714,714,0,0,0,714,714,
714,714,714,714,714,714,714,714,714,714,714,714,714,714,715,715,715,715,715,715,715,715,715,715,715,715,715,714,714,0,0,0,0,0,0,0,0,0,714,714,0,0,0,0,0,0,714,714,0,0,0,0,0,0,0,0,0,0,0,714,714,0,0,0,714,714,
714,714,714,714,714,714,714,714,714,714,714,714,714,714,0,715,715,715,0,0,0,0,0,715,715,715,0,714,714,0,0,0,0,0,0,0,0,0,714,714,0,0,0,0,0,0,714,714,0,0,0,0,0,0,0,0,0,0,0,714,714,0,0,0,714,714,
714,714,715,715,715,715,715,715,715,715,715,715,714,714,0,0,0,0,0,0,0,0,0,0,0,0,0,714,714,714,714,714,714,714,714,714,714,714,714,714,714,714,0,0,714,714,714,714,714,714,714,714,714,714,714,714,714,714,714,714,714,0,0,0,714,714,
714,714,715,715,715,715,0,0,0,0,715,715,714,714,0,0,0,0,0,0,0,0,0,0,0,0,0,714,714,714,714,714,715,715,714,714,714,714,714,714,714,714,0,0,714,714,714,714,714,714,714,714,715,715,714,714,714,714,714,714,714,0,0,0,714,714,
714,714,0,0,0,0,0,0,0,0,0,0,715,715,0,0,0,0,0,0,0,0,0,0,0,0,0,715,715,715,715,715,715,715,715,715,715,715,715,715,715,715,0,0,715,715,715,715,715,715,715,715,715,715,715,715,715,715,715,715,715,0,0,0,714,714,
714,714,0,0,0,0,0,0,0,0,0,0,0,0,0,0,0,0,0,0,0,0,0,0,0,0,0,0,0,0,0,0,0,0,0,0,0,0,0,0,0,0,0,0,0,0,0,0,0,0,0,0,0,0,0,0,0,0,0,0,0,0,0,0,714,714,
714,714,0,0,0,0,0,0,0,0,0,0,0,0,0,0,0,0,0,0,0,0,0,0,0,0,0,0,0,0,0,0,0,0,0,0,0,0,0,0,0,0,0,0,0,0,0,0,0,0,0,0,0,0,0,0,0,0,0,0,0,0,0,0,714,714,
714,714,0,0,0,0,0,0,0,0,0,0,714,714,0,0,0,0,0,0,0,0,0,0,0,0,0,714,714,0,0,0,0,0,0,0,0,0,0,0,0,0,0,0,0,0,0,0,0,0,0,0,0,0,0,0,0,0,0,0,0,0,0,0,714,714,
714,714,714,714,714,714,714,714,714,714,714,714,714,714,714,714,714,714,714,0,0,0,714,714,714,714,714,714,714,714,714,714,714,714,714,714,714,714,714,714,714,714,714,714,714,714,714,714,714,714,714,714,714,714,714,714,714,714,714,714,714,714,714,714,714,714,
714,714,714,714,714,714,714,714,714,714,714,714,714,714,714,714,714,714,714,714,714,714,714,714,714,714,714,714,714,714,714,714,714,714,714,714,714,714,714,714,714,714,714,714,714,714,714,714,714,714,714,714,714,714,714,714,714,714,714,714,714,714,714,714,714,714,
714,714,714,714,714,714,714,714,714,714,714,714,714,714,714,714,714,714,714,714,714,714,714,714,714,714,714,714,714,714,714,714,714,714,714,714,714,714,714,714,714,714,714,714,714,714,714,714,714,714,714,714,714,714,714,714,714,714,714,714,714,714,714,714,714,714
</data>
 </layer>
 <layer id="15" name="anim" width="66" height="64" visible="0">
  <data encoding="csv">
0,0,0,0,0,0,0,0,0,0,0,0,0,0,0,0,0,0,0,0,0,0,0,0,0,0,0,0,0,0,0,0,0,0,0,0,0,0,0,0,0,0,0,0,0,0,0,0,0,0,0,0,0,0,0,0,0,0,0,0,0,0,0,0,0,0,
0,0,0,0,0,0,0,0,0,0,0,0,0,0,0,0,0,0,0,0,0,0,0,0,0,0,0,0,0,0,0,0,0,0,0,0,0,0,0,0,0,0,0,0,0,0,0,0,0,0,795,795,795,0,0,0,0,0,0,0,0,0,0,0,0,0,
0,0,794,794,794,794,794,794,794,0,0,794,794,794,794,794,794,794,0,0,794,794,794,794,794,794,0,0,794,794,794,794,794,794,794,794,794,794,794,794,794,794,794,794,794,794,794,794,794,0,795,795,795,0,794,794,794,794,794,794,794,794,794,794,0,0,
0,0,794,794,794,794,0,0,0,0,0,0,0,0,0,0,794,794,0,0,794,794,0,0,794,794,0,0,0,0,0,0,0,0,0,0,0,0,0,0,0,0,0,0,0,0,0,0,0,0,795,795,795,0,0,0,0,0,0,0,0,0,0,0,0,0,
0,0,794,794,794,794,0,0,0,0,0,0,0,0,0,0,794,794,0,0,794,794,0,0,794,794,0,0,0,0,0,0,0,0,0,0,0,0,0,0,0,0,0,0,0,0,0,0,0,0,0,0,0,0,0,0,0,0,0,0,0,0,0,0,0,0,
0,0,0,0,0,0,0,0,0,0,0,0,0,0,0,0,0,0,0,0,0,0,0,0,0,0,0,0,0,0,0,0,0,0,0,0,0,0,0,0,0,0,0,0,0,0,0,0,0,0,0,0,0,0,0,0,0,0,0,0,0,0,0,0,0,0,
0,0,0,0,0,0,0,0,0,0,0,0,0,0,0,0,0,0,0,0,0,0,0,0,0,0,0,0,0,0,0,0,0,0,0,0,0,0,0,0,0,0,0,0,0,0,0,0,0,0,0,0,0,0,0,0,0,0,0,0,0,0,0,0,0,0,
0,0,0,0,0,0,0,0,0,0,0,0,0,0,0,0,0,0,0,0,0,0,0,0,0,0,0,0,0,0,0,0,794,794,794,794,794,794,794,794,0,0,794,794,794,794,794,794,794,794,794,794,794,794,794,794,794,0,0,794,794,794,794,794,0,0,
0,0,0,0,0,0,0,0,0,0,0,0,0,794,794,0,0,0,0,0,0,0,0,0,0,0,0,0,0,0,0,0,0,0,0,0,794,794,794,794,0,0,0,0,0,0,0,0,0,0,0,0,0,0,0,0,0,0,0,0,0,0,794,794,0,0,
0,0,794,794,794,0,0,794,794,794,794,794,0,794,794,0,794,794,794,794,794,794,0,0,794,794,794,794,0,0,0,0,0,0,0,0,794,794,794,794,0,0,0,0,0,0,0,0,0,0,0,0,0,0,0,0,0,794,794,0,0,0,794,794,0,0,
0,0,0,0,0,0,0,0,0,0,0,0,0,794,794,0,0,0,0,0,0,0,0,0,0,0,0,0,0,0,0,0,0,0,0,0,0,0,0,0,0,0,0,0,0,0,0,0,0,0,0,0,0,0,0,0,0,0,0,0,0,0,0,0,0,0,
0,0,0,0,0,0,0,0,0,0,0,0,0,0,0,0,0,0,0,0,0,0,0,0,0,0,0,0,0,0,0,0,0,0,0,0,0,0,0,0,0,0,0,0,0,0,0,0,0,0,0,0,0,0,0,0,0,0,0,0,0,0,0,0,0,0,
0,0,0,0,0,0,0,0,0,0,0,0,0,0,0,0,0,0,0,0,0,0,0,0,0,0,0,0,0,0,0,0,0,0,0,0,0,0,0,0,794,794,0,0,0,0,0,0,0,0,0,0,0,0,0,0,0,0,0,0,0,0,0,0,0,0,
0,0,0,0,0,0,0,0,0,0,0,0,0,0,0,0,0,0,0,0,0,0,0,0,0,0,0,0,0,0,0,0,0,0,0,0,0,0,0,0,0,0,0,0,0,0,794,794,794,794,794,794,0,0,0,0,0,0,0,0,0,0,0,0,0,0,
0,0,0,0,0,0,0,0,0,0,0,0,0,0,0,0,0,0,0,0,0,0,0,0,0,0,0,0,0,0,0,0,0,0,0,0,0,0,0,0,0,0,0,0,0,0,0,0,0,794,794,794,0,0,0,0,0,0,0,0,0,0,0,0,0,0,
0,0,794,794,794,794,794,794,794,794,794,794,794,0,0,0,0,0,0,0,794,794,794,794,794,794,794,794,794,794,0,0,0,0,0,0,0,0,0,0,0,0,0,0,794,794,0,0,0,794,794,794,0,0,0,0,0,0,0,794,794,794,794,794,0,0,
0,0,794,794,0,0,0,0,0,0,0,0,0,0,0,0,0,0,0,0,0,0,0,0,0,0,0,0,794,794,0,0,0,0,0,0,0,0,0,0,0,0,0,0,0,0,0,0,0,0,0,0,0,0,0,0,0,794,794,0,0,0,794,794,0,0,
0,0,794,794,0,0,0,0,0,0,0,0,0,0,0,0,0,0,0,0,0,0,0,0,0,0,0,0,794,794,0,0,0,0,0,0,0,0,0,0,0,0,0,0,0,0,0,0,0,0,0,0,0,0,0,0,0,0,0,0,0,0,794,794,0,0,
0,0,0,0,0,0,0,0,0,0,0,0,0,0,0,0,0,0,0,0,0,0,0,0,0,0,0,0,0,0,0,0,0,0,0,0,0,0,0,0,0,0,0,0,0,0,0,0,0,0,0,0,0,0,0,0,0,0,0,0,0,0,0,0,0,0,
0,0,0,0,0,0,0,0,0,0,0,0,0,0,0,0,0,0,0,0,0,0,0,0,0,0,0,0,0,0,0,0,0,0,0,0,0,0,0,0,0,0,0,0,0,0,0,0,0,0,0,0,0,0,0,0,0,0,0,0,0,0,0,0,0,0,
0,0,794,794,794,794,794,0,0,794,794,794,794,794,794,0,0,0,794,794,794,794,794,0,0,794,794,794,794,794,0,0,794,794,794,794,794,794,794,794,794,794,794,0,0,0,0,0,0,0,0,0,0,0,0,0,0,0,0,0,0,0,0,0,0,0,
0,0,0,0,0,0,0,0,0,0,0,0,0,0,0,0,0,0,0,0,0,0,0,0,0,0,0,0,0,0,0,0,0,0,794,794,794,0,0,794,794,794,0,0,0,0,0,0,0,0,0,0,0,0,0,0,0,0,0,0,0,0,0,0,0,0,
0,0,0,0,0,0,0,0,0,0,0,0,0,0,0,0,0,0,0,0,0,0,0,0,0,0,0,0,0,0,0,0,0,0,794,794,794,0,0,794,794,794,0,0,0,0,0,0,0,0,0,0,0,0,0,0,0,0,0,0,0,0,0,0,0,0,
0,0,0,0,0,0,0,0,0,0,0,0,0,0,0,0,0,0,0,0,0,0,0,0,0,0,0,0,0,0,0,0,0,0,0,0,0,0,0,0,0,0,0,794,794,794,794,794,794,794,794,794,794,794,0,0,0,794,794,794,794,794,794,794,0,0,
0,0,0,0,0,0,0,0,0,0,0,0,0,0,0,0,0,0,0,0,0,0,0,0,0,0,0,0,0,0,0,0,0,0,0,0,0,0,0,0,0,0,0,0,0,0,0,0,0,0,0,0,0,0,0,0,0,0,0,0,0,0,0,0,0,0,
0,0,0,0,0,0,0,0,0,0,0,0,0,0,0,0,0,0,0,0,0,0,0,0,0,0,0,0,0,0,0,0,0,0,0,0,0,0,0,0,0,0,0,0,0,0,0,0,0,0,0,0,0,0,0,0,0,0,0,0,0,0,0,0,0,0,
0,0,0,0,0,0,0,794,794,794,794,794,794,794,794,794,794,794,794,794,794,794,794,794,794,0,0,0,0,0,0,0,0,0,0,0,0,0,0,0,0,0,0,0,0,0,0,0,0,0,0,0,0,0,0,0,0,0,0,0,0,0,0,0,0,0,
0,0,0,0,0,0,0,0,0,0,0,0,0,0,0,0,0,0,0,0,0,0,0,0,0,0,0,0,0,0,0,0,0,0,0,0,0,0,0,0,0,0,0,0,0,0,0,0,0,0,0,0,0,0,0,0,0,0,0,794,794,0,0,0,0,0,
0,0,0,0,0,0,0,0,0,0,0,0,0,0,0,0,0,0,0,0,0,0,0,0,0,0,0,0,0,0,0,0,0,0,0,0,0,0,0,0,0,0,0,0,0,0,0,0,0,0,0,0,0,0,794,794,794,794,0,794,794,0,794,794,0,0,
0,0,0,0,0,0,0,0,0,0,0,0,0,0,0,0,0,0,0,0,0,0,0,0,0,0,0,0,0,0,0,0,0,0,0,0,0,0,0,0,0,0,0,0,0,0,0,0,0,0,0,0,0,0,0,0,0,0,0,794,794,0,794,794,0,0,
0,0,0,0,0,0,0,0,0,0,0,0,0,0,0,0,0,0,0,0,0,0,0,0,0,0,0,0,0,0,0,0,794,794,794,794,794,794,794,0,0,794,794,794,794,0,0,0,794,794,794,794,0,0,0,0,0,0,0,0,0,0,794,794,0,0,
0,0,0,0,0,0,0,0,0,0,0,0,0,0,0,0,0,795,795,795,0,0,0,0,0,0,0,0,0,0,0,0,794,794,794,794,0,794,794,0,0,0,0,0,0,0,0,0,0,0,0,0,0,0,0,0,0,0,0,0,0,0,0,0,0,0,
0,0,0,0,0,794,794,794,794,794,794,794,794,794,794,794,0,795,795,795,0,0,0,0,0,0,0,0,0,0,0,0,794,794,794,794,0,794,794,0,0,0,0,0,0,0,0,0,0,0,0,0,0,0,0,0,0,0,0,0,0,0,0,0,0,0,
0,0,0,0,0,0,0,0,0,0,0,0,0,0,0,0,0,795,795,795,0,0,0,0,0,0,0,0,0,0,0,0,0,0,0,0,0,0,0,794,794,0,0,0,0,0,0,0,0,0,0,0,0,0,0,0,0,0,0,0,0,0,0,0,0,0,
0,0,0,0,0,0,0,0,0,0,0,0,0,0,0,0,0,0,0,0,0,0,0,0,0,0,0,0,0,0,0,0,0,0,0,0,0,0,0,0,0,0,0,0,0,0,0,0,0,0,0,0,0,0,0,0,0,0,0,0,0,0,0,0,0,0,
0,0,0,0,0,0,0,0,0,0,0,0,0,0,0,0,0,0,0,0,0,0,0,0,0,0,0,0,0,0,0,0,0,0,0,0,0,0,0,0,0,0,0,0,0,0,0,0,0,0,0,0,0,0,794,794,794,794,794,794,794,794,794,794,0,0,
0,0,0,0,0,0,0,0,0,0,0,0,0,0,0,0,0,0,0,0,0,0,0,0,0,0,0,0,0,0,0,0,0,0,0,0,0,0,0,0,0,0,0,0,0,0,0,0,0,0,0,0,0,0,794,794,794,794,0,0,0,0,0,0,0,0,
0,0,0,0,0,0,0,0,0,0,0,0,0,0,0,0,0,0,0,0,0,0,0,0,0,0,0,0,0,0,0,0,0,0,0,0,0,0,0,0,0,0,0,0,0,0,0,0,0,0,0,0,0,0,794,794,794,794,0,0,0,0,0,0,0,0,
0,0,794,794,794,794,794,0,0,794,794,794,0,0,0,0,0,0,0,794,794,794,794,794,794,794,794,794,794,794,0,0,0,0,0,0,0,0,0,0,0,0,0,0,0,0,0,0,0,0,0,0,0,0,0,0,0,0,0,0,0,0,0,0,0,0,
0,0,794,794,0,0,0,0,0,0,0,0,0,0,0,0,0,0,0,0,0,0,0,0,0,0,0,0,0,0,0,0,0,0,0,0,0,0,0,0,0,0,0,0,0,795,795,795,0,0,0,0,0,0,0,0,0,0,0,0,0,0,0,0,0,0,
0,0,794,794,0,0,0,0,0,0,0,0,0,0,0,0,0,0,0,0,0,0,0,0,0,0,0,0,0,0,0,0,794,794,794,794,794,794,794,0,0,794,794,794,0,795,795,795,0,794,794,794,0,0,0,0,0,0,0,0,0,0,0,0,0,0,
0,0,0,0,0,0,0,0,0,0,0,0,0,0,0,0,0,0,0,0,0,0,0,0,0,0,0,0,0,0,0,0,0,0,0,0,794,794,794,0,0,794,794,794,0,795,795,795,0,794,794,794,0,0,0,0,0,0,0,0,0,0,0,0,0,0,
0,0,0,0,0,0,0,0,0,0,0,0,0,0,0,0,0,0,0,0,0,0,0,0,0,0,0,0,0,0,0,0,0,0,0,0,794,794,794,794,794,794,794,794,0,0,0,0,0,794,794,794,0,0,0,0,0,0,0,0,0,0,0,0,0,0,
0,0,0,0,0,0,0,0,0,0,0,0,0,0,0,0,0,0,0,0,0,0,0,0,0,0,0,0,0,0,0,0,0,0,0,0,0,0,0,0,0,0,0,0,0,0,0,0,0,0,0,0,794,794,794,794,794,794,0,0,794,794,794,794,0,0,
0,0,0,0,0,0,0,0,0,0,0,0,0,0,0,0,0,0,0,0,0,0,0,0,0,0,0,0,0,0,0,0,0,0,0,0,0,0,0,0,0,0,0,0,0,0,0,0,0,0,0,0,0,0,0,0,0,0,0,0,0,0,0,0,0,0,
0,0,794,794,794,794,794,794,794,794,794,794,0,0,0,0,0,0,0,0,0,0,0,0,0,0,0,0,0,0,0,0,0,0,0,0,0,0,0,0,0,0,0,0,0,0,0,0,0,0,0,0,0,0,0,0,0,0,0,0,0,0,0,0,0,0,
0,0,0,0,0,0,0,0,0,0,794,794,794,794,0,0,0,794,794,794,794,794,794,0,0,794,794,0,0,0,0,0,0,0,0,0,0,0,0,0,0,0,0,0,0,0,0,0,0,0,0,0,0,0,0,0,0,0,0,0,0,0,0,0,0,0,
0,0,0,0,0,0,0,0,0,0,794,794,0,0,0,0,0,0,0,0,0,0,0,0,0,0,0,0,0,0,0,0,0,0,0,0,0,0,0,0,0,0,0,0,0,0,0,0,0,0,0,0,0,0,0,0,0,0,0,0,0,0,0,0,0,0,
0,0,0,0,0,0,0,0,0,0,0,0,0,0,0,0,0,0,0,0,0,0,0,0,0,0,0,0,0,0,0,0,0,0,0,0,0,0,0,0,0,0,0,0,0,0,0,0,0,0,0,0,0,0,0,0,0,0,0,0,0,0,0,0,0,0,
0,0,0,0,0,0,0,0,0,0,0,0,0,0,0,0,0,0,0,0,0,0,0,0,0,0,0,0,0,794,794,794,794,794,794,0,0,0,0,0,794,794,794,794,794,794,0,0,794,794,794,794,0,0,0,794,794,794,794,0,0,0,0,0,0,0,
0,0,0,0,0,0,0,0,0,0,0,0,0,0,0,0,0,0,0,0,0,0,0,0,0,0,0,0,0,794,794,794,794,794,794,0,0,0,0,0,0,0,0,0,794,794,0,0,794,794,794,794,0,0,0,794,794,794,794,0,0,0,0,0,0,0,
0,0,0,0,0,0,0,0,0,0,0,0,0,0,0,0,0,0,0,795,795,795,0,0,0,0,0,0,0,794,794,794,794,794,794,0,0,0,0,0,0,0,0,0,794,794,0,0,794,794,794,794,0,0,0,794,794,794,794,0,0,0,0,0,0,0,
0,0,0,0,0,0,0,0,0,0,0,0,0,0,794,794,794,794,0,795,795,795,0,794,794,794,794,0,0,0,0,0,0,0,0,0,0,0,0,0,0,0,0,0,0,0,0,0,0,0,0,0,0,0,0,0,0,0,0,0,0,0,0,0,0,0,
0,0,0,0,0,0,0,0,0,0,0,0,0,0,0,794,794,794,0,795,795,795,0,794,794,794,0,0,0,0,0,0,0,0,0,0,0,0,0,0,0,0,0,0,0,0,0,0,0,0,0,0,0,0,0,0,0,0,0,0,0,0,0,0,0,0,
0,0,794,794,794,794,794,794,794,794,794,794,0,0,0,794,794,794,0,0,0,0,0,794,794,794,0,0,0,0,0,0,0,0,0,0,0,0,0,0,0,0,0,0,0,0,0,0,0,0,0,0,0,0,0,0,0,0,0,0,0,0,0,0,0,0,
0,0,794,794,794,794,0,0,0,0,794,794,0,0,0,0,0,0,0,0,0,0,0,0,0,0,0,0,0,0,0,0,794,794,0,0,0,0,0,0,0,0,0,0,0,0,0,0,0,0,0,0,794,794,0,0,0,0,0,0,0,0,0,0,0,0,
0,0,794,794,794,794,0,0,0,0,794,794,794,794,0,0,0,0,0,0,0,0,0,0,0,0,0,794,794,794,794,0,794,794,0,794,794,794,794,794,794,0,0,0,0,794,794,794,794,794,794,0,794,794,0,794,794,794,794,794,794,0,0,0,0,0,
0,0,0,0,0,0,0,0,0,0,0,0,0,0,0,0,0,0,0,0,0,0,0,0,0,0,0,0,0,0,0,0,794,794,0,0,0,0,0,0,0,0,0,0,0,0,0,0,0,0,0,0,794,794,0,0,0,0,0,0,0,0,0,0,0,0,
0,0,0,0,0,0,0,0,0,0,0,0,0,0,0,0,0,0,0,0,0,0,0,0,0,0,0,0,0,0,0,0,0,0,0,0,0,0,0,0,0,0,0,0,0,0,0,0,0,0,0,0,0,0,0,0,0,0,0,0,0,0,0,0,0,0,
0,0,0,0,0,0,0,0,0,0,0,0,0,0,0,0,0,0,0,0,0,0,0,0,0,0,0,0,0,0,0,0,0,0,0,0,0,0,0,0,0,0,0,0,0,0,0,0,0,0,0,0,0,0,0,0,0,0,0,0,0,0,0,0,0,0,
0,0,0,0,0,0,0,0,0,0,0,0,0,0,0,0,0,0,0,0,0,0,0,0,0,0,0,0,0,0,0,0,0,0,0,0,0,0,0,0,0,0,0,0,0,0,0,0,0,0,0,0,0,0,0,0,0,0,0,0,0,0,0,0,0,0,
0,0,0,0,0,0,0,0,0,0,0,0,0,0,0,0,0,0,0,0,0,0,0,0,0,0,0,0,0,0,0,0,0,0,0,0,0,0,0,0,0,0,0,0,0,0,0,0,0,0,0,0,0,0,0,0,0,0,0,0,0,0,0,0,0,0,
0,0,0,0,0,0,0,0,0,0,0,0,0,0,0,0,0,0,0,0,0,0,0,0,0,0,0,0,0,0,0,0,0,0,0,0,0,0,0,0,0,0,0,0,0,0,0,0,0,0,0,0,0,0,0,0,0,0,0,0,0,0,0,0,0,0,
0,0,0,0,0,0,0,0,0,0,0,0,0,0,0,0,0,0,0,0,0,0,0,0,0,0,0,0,0,0,0,0,0,0,0,0,0,0,0,0,0,0,0,0,0,0,0,0,0,0,0,0,0,0,0,0,0,0,0,0,0,0,0,0,0,0
</data>
 </layer>
 <layer id="5" name="event" width="66" height="64">
  <data encoding="csv">
0,0,0,0,0,0,0,0,0,0,0,0,0,0,0,0,0,0,0,0,0,0,0,0,0,0,0,0,0,0,0,0,0,0,0,0,0,0,0,0,0,0,0,0,0,0,0,0,0,0,0,0,0,0,0,0,0,0,0,0,0,0,0,0,0,0,
0,0,0,0,0,0,0,0,0,0,0,0,0,0,0,0,0,0,0,0,0,0,0,0,0,0,0,0,0,0,0,0,0,0,0,0,0,0,0,0,0,0,0,0,0,0,0,0,0,0,664,664,664,0,0,0,0,0,0,0,0,0,0,0,0,0,
0,0,0,0,0,0,0,0,0,0,0,0,0,0,0,0,0,0,0,0,0,0,0,0,0,0,0,0,0,0,0,0,0,0,0,0,0,0,0,0,0,0,0,0,0,0,0,0,0,0,664,664,664,0,0,0,0,0,0,0,0,0,0,0,0,0,
0,0,0,0,0,0,0,0,0,0,0,0,0,0,0,0,0,0,0,0,0,0,0,0,0,0,0,0,0,0,0,0,0,0,0,0,0,0,0,0,0,0,0,0,0,0,0,0,0,652,652,652,652,652,0,0,0,0,0,0,0,0,0,0,0,0,
0,0,0,0,0,0,653,653,653,0,0,0,0,0,0,0,0,0,0,0,0,0,0,0,0,0,0,0,0,0,0,0,0,0,0,0,0,0,0,0,0,0,0,0,0,0,0,0,0,652,652,652,652,652,0,0,0,0,0,0,0,0,0,0,0,0,
0,0,653,653,653,653,653,653,653,0,0,0,0,0,0,0,0,0,0,0,0,0,0,0,0,0,0,0,0,0,0,0,0,0,0,0,0,0,0,0,0,0,0,0,0,0,0,0,0,0,0,0,0,0,0,0,0,0,0,0,0,0,0,0,0,0,
0,0,653,653,653,653,653,653,653,0,0,0,0,0,0,0,0,0,0,0,0,0,0,0,0,0,0,0,0,0,0,0,0,0,0,0,0,0,0,0,0,0,0,0,0,0,0,0,0,0,0,0,0,0,0,0,0,0,0,0,0,0,0,0,0,0,
0,0,0,0,0,0,0,0,0,0,0,0,0,0,0,0,0,0,0,0,0,0,0,0,0,0,0,0,0,0,0,0,0,0,0,0,0,0,0,0,0,0,0,0,0,0,0,0,0,0,0,0,0,0,0,0,0,0,0,0,0,0,0,0,0,0,
0,0,0,0,0,0,0,0,0,0,0,0,0,0,0,0,0,0,0,0,0,0,0,0,0,0,0,0,0,0,0,0,0,0,0,0,0,0,0,0,0,0,0,0,0,0,0,0,0,0,0,0,0,0,0,0,0,0,0,0,0,0,0,0,0,0,
0,0,0,0,0,0,0,0,0,0,0,0,0,0,0,0,0,0,0,0,0,0,0,0,0,0,0,0,0,0,0,0,654,654,654,654,0,0,0,0,0,0,0,0,0,0,0,0,0,0,0,0,0,0,0,0,0,0,0,0,0,0,0,0,0,0,
0,0,0,0,0,0,0,0,0,0,0,0,0,0,0,0,0,0,0,0,0,0,0,0,0,0,0,0,0,0,0,0,654,654,654,654,654,654,654,0,0,0,0,0,0,0,0,0,0,0,0,0,0,0,0,0,0,0,0,0,0,0,0,0,0,0,
0,0,0,0,0,0,0,0,0,0,0,0,0,0,0,0,0,0,0,0,0,0,0,0,0,0,0,0,0,0,0,0,654,654,654,654,654,654,654,0,0,0,0,0,0,0,0,0,0,0,0,0,0,0,0,0,0,0,0,0,0,0,0,0,0,0,
0,0,0,0,0,0,0,0,0,0,0,0,0,0,0,0,0,0,0,0,0,0,0,0,0,0,0,0,0,0,0,0,654,654,654,654,654,654,654,0,0,0,0,0,0,0,0,0,0,0,0,0,0,0,0,0,0,0,0,0,0,0,0,0,0,0,
0,0,0,0,0,0,0,0,0,0,0,0,0,0,0,0,0,0,0,0,0,0,0,0,0,0,0,0,0,0,0,0,0,0,0,0,0,0,0,0,0,0,0,0,0,0,0,0,0,0,0,0,0,0,0,0,0,0,0,0,0,0,0,0,0,0,
0,0,0,0,0,0,0,0,0,0,0,0,0,0,0,0,0,0,0,0,0,0,0,0,0,0,0,0,0,0,0,0,0,0,0,0,0,0,0,0,0,0,0,0,0,0,0,0,0,0,0,0,0,0,0,0,0,0,0,0,0,0,0,0,0,0,
0,0,0,0,0,0,0,0,0,0,0,0,0,0,0,0,0,0,0,0,0,0,0,0,0,0,0,0,0,0,0,0,0,0,0,0,0,0,0,0,0,0,0,0,0,0,0,0,0,0,0,0,0,0,0,0,0,0,0,0,0,0,0,0,0,0,
0,0,0,0,0,0,0,0,0,0,0,0,0,0,0,0,0,0,0,0,0,0,0,0,0,0,0,0,0,0,0,0,0,0,0,0,0,0,0,0,0,0,0,0,0,0,0,0,0,0,0,0,0,0,0,0,0,0,0,0,0,0,0,0,0,0,
0,0,0,0,0,0,0,0,0,0,0,0,0,0,0,0,0,0,0,0,0,0,0,0,0,0,0,0,0,0,0,0,0,0,0,0,0,0,0,0,0,0,0,0,0,0,0,0,0,0,0,0,0,0,0,0,0,0,0,0,0,0,0,0,0,0,
0,0,0,0,0,0,0,0,0,0,0,0,0,0,0,0,0,0,0,0,0,0,0,0,0,0,0,0,0,0,0,0,0,0,0,0,0,0,0,0,0,0,0,0,0,0,0,0,0,0,0,0,0,0,0,0,0,0,0,0,0,0,0,0,0,0,
0,0,0,0,0,0,0,0,0,0,0,0,0,0,0,0,0,0,0,0,0,0,0,0,0,0,0,0,0,0,0,0,0,0,0,0,0,0,0,0,0,0,0,0,0,0,0,0,0,0,0,0,0,0,0,0,0,0,0,0,0,0,0,0,0,0,
0,0,0,0,0,0,0,0,0,0,0,0,0,0,0,0,0,0,0,0,0,0,0,0,0,0,0,0,0,0,0,0,0,0,0,0,0,0,0,0,0,0,0,0,0,0,0,0,0,0,0,0,0,0,0,0,0,0,0,0,0,0,0,0,0,0,
0,0,0,0,0,0,0,0,0,0,0,0,0,0,0,0,0,0,0,0,0,0,0,0,0,0,0,0,0,0,0,0,0,0,0,0,0,0,0,0,0,0,0,0,0,0,0,0,0,0,0,0,0,0,0,0,0,0,0,0,0,0,0,0,0,0,
0,0,0,0,0,0,0,0,0,0,0,0,0,0,0,0,0,0,0,0,0,0,0,0,0,0,0,0,0,0,0,0,0,0,0,0,0,0,0,0,0,0,0,0,0,0,0,0,0,0,0,0,0,0,0,0,0,0,0,0,0,0,0,0,0,0,
0,0,0,0,0,0,0,0,0,0,0,0,0,0,0,0,0,0,0,0,0,0,0,0,0,0,0,0,0,0,0,0,0,0,0,0,0,0,0,0,0,0,0,0,0,0,0,0,0,0,0,0,0,0,0,0,0,0,0,0,0,0,0,0,0,0,
0,0,0,0,0,0,0,0,0,0,0,0,0,0,0,0,0,0,0,0,0,0,0,0,0,0,0,0,0,0,0,0,0,0,0,0,0,0,0,0,0,0,0,0,0,0,0,0,0,0,0,0,0,0,0,0,0,0,0,0,0,0,0,0,0,0,
0,0,0,0,0,0,0,0,0,0,0,0,0,0,0,0,0,0,0,0,0,0,0,0,0,0,0,0,0,0,0,0,0,0,0,0,0,0,0,0,0,0,0,0,0,0,0,0,0,0,0,0,0,0,0,0,0,0,0,0,0,0,0,0,0,0,
0,0,0,0,0,0,0,0,0,0,0,0,0,0,0,0,0,0,0,0,0,0,0,0,0,0,0,0,0,0,0,0,0,0,0,0,0,0,0,0,0,0,0,0,0,0,0,0,0,0,0,0,0,0,0,0,0,0,0,0,0,0,0,0,0,0,
0,0,0,0,0,0,0,0,0,0,0,0,0,0,0,0,0,0,0,0,0,0,0,0,0,0,0,0,0,0,0,0,0,0,0,0,0,0,0,0,0,0,0,0,0,0,0,0,0,0,0,0,0,0,0,0,0,0,0,0,0,0,0,0,0,0,
0,0,0,0,0,0,0,0,0,0,0,0,0,0,0,0,0,0,0,0,0,0,0,0,0,0,0,0,0,0,0,0,0,0,0,0,0,0,0,0,0,0,0,0,0,0,0,0,0,0,0,0,0,0,0,0,0,0,0,0,0,0,0,0,0,0,
0,0,0,0,0,0,0,0,0,0,0,0,0,0,0,0,0,0,0,0,0,0,0,0,0,0,0,0,0,0,0,0,0,0,0,0,0,0,0,0,0,0,0,0,0,0,0,0,0,0,0,0,0,0,0,0,0,0,0,0,0,0,0,0,0,0,
0,0,0,0,0,0,0,0,0,0,0,0,0,0,0,0,0,0,0,0,0,0,0,0,0,0,0,0,0,0,0,0,0,0,0,0,0,0,0,0,0,0,0,0,0,0,0,0,0,0,0,0,0,0,0,0,0,0,0,0,0,0,0,0,0,0,
0,0,0,0,0,0,0,0,0,0,0,0,0,0,0,0,0,0,0,0,0,0,0,0,0,0,0,0,0,0,0,0,0,0,0,0,0,0,0,0,0,0,0,0,0,0,0,0,0,0,0,0,0,0,0,0,0,0,0,0,0,0,0,0,0,0,
0,0,0,0,0,0,0,0,0,0,0,0,0,0,0,0,0,0,0,0,0,0,0,0,0,0,0,0,0,0,0,0,0,0,0,0,0,0,0,0,0,0,0,0,0,0,0,0,0,0,0,0,0,0,0,0,0,0,0,0,0,0,0,0,0,0,
0,0,0,0,0,0,0,0,0,0,0,0,0,0,0,0,651,651,651,651,651,0,0,0,0,0,0,0,0,0,0,0,0,0,0,0,0,0,0,0,0,0,0,0,0,0,0,0,0,0,0,0,0,0,0,0,0,0,0,0,0,0,0,0,0,0,
0,0,0,0,0,0,0,0,0,0,0,0,0,0,0,0,651,651,651,651,651,0,0,0,0,0,0,0,0,0,0,0,0,0,0,0,0,0,0,0,0,0,0,0,0,0,0,0,0,0,0,0,0,0,0,0,0,0,0,0,0,0,0,0,0,0,
0,0,0,0,0,0,0,0,0,0,0,0,0,0,0,0,0,0,0,0,0,0,0,0,0,0,0,0,0,0,0,0,0,0,0,0,0,0,0,0,0,0,0,0,0,0,0,0,0,0,0,0,0,0,0,0,0,0,0,0,0,0,0,0,0,0,
0,0,0,0,0,0,0,0,0,0,0,0,0,0,0,0,0,0,0,0,0,0,0,0,0,0,0,0,0,0,0,0,0,0,0,0,0,0,0,0,0,0,0,0,0,0,0,0,0,0,0,0,0,0,0,0,0,0,0,0,0,0,0,0,0,0,
0,0,0,0,0,0,0,0,0,0,0,0,0,0,0,0,0,0,0,0,0,0,0,0,0,0,0,0,0,0,0,0,0,0,0,0,0,0,0,0,0,0,0,0,0,0,0,0,0,0,0,0,0,0,0,0,0,0,0,0,0,0,0,0,0,0,
0,0,0,0,0,0,0,0,0,0,0,0,0,0,0,0,0,0,0,0,0,0,0,0,0,0,0,0,0,0,0,0,0,0,0,0,0,0,0,0,0,0,0,0,0,0,0,0,0,0,0,0,0,0,0,0,0,0,0,0,0,0,0,0,0,0,
0,0,0,0,0,0,0,0,0,0,0,0,0,0,0,0,0,0,0,0,0,0,0,0,0,0,0,0,0,0,0,0,0,0,0,0,0,0,0,0,0,0,0,0,0,0,0,0,0,0,0,0,0,0,0,0,0,0,0,0,0,0,0,0,0,0,
0,0,0,0,0,0,0,0,0,0,0,0,0,0,0,0,0,0,0,0,0,0,0,0,0,0,0,0,0,0,0,0,0,0,0,0,0,0,0,0,0,0,0,0,0,0,0,0,0,0,0,0,0,0,0,0,0,0,0,0,0,0,0,0,0,0,
0,0,0,0,0,0,0,0,0,0,0,0,0,0,0,0,0,0,0,0,0,0,0,0,0,0,0,0,0,0,0,0,0,0,0,0,0,0,0,0,0,0,0,0,649,649,649,649,649,0,0,0,0,0,0,0,0,0,0,0,0,0,0,0,0,0,
0,0,0,0,0,0,0,0,0,0,0,0,0,0,0,0,0,0,0,0,0,0,0,0,0,0,0,0,0,0,0,0,0,0,0,0,0,0,0,0,0,0,0,0,649,649,649,649,649,0,0,0,0,0,0,0,0,0,0,0,0,0,0,0,0,0,
0,0,0,0,0,0,0,0,0,0,0,0,0,0,0,0,0,0,0,0,0,0,0,0,0,0,0,0,0,0,0,0,0,0,0,0,0,0,0,0,0,0,0,0,0,0,0,0,0,0,0,0,0,0,0,0,0,0,0,0,0,0,0,0,0,0,
0,0,0,0,0,0,0,0,0,0,0,0,0,0,0,0,0,0,0,0,0,0,0,0,0,0,0,0,0,0,0,0,0,0,0,0,0,0,0,0,0,0,0,0,0,0,0,0,0,0,0,0,0,0,0,0,0,0,0,0,0,0,0,0,0,0,
0,0,0,0,0,0,0,0,0,0,0,0,0,0,0,0,0,0,0,0,0,0,0,0,0,0,0,0,0,0,0,0,0,0,0,0,0,0,0,0,0,0,0,0,0,0,0,0,0,0,0,0,0,0,0,0,0,0,0,0,0,0,0,0,0,0,
0,0,0,0,0,0,0,0,0,0,0,0,0,0,0,0,0,0,0,0,0,0,0,0,0,0,0,0,0,0,0,0,0,0,0,0,0,0,0,0,0,0,0,0,0,0,0,0,0,0,0,0,0,0,0,0,0,0,0,0,0,0,0,0,0,0,
0,0,0,0,0,0,0,0,0,0,0,0,0,0,0,0,0,0,0,0,0,0,0,0,0,0,0,0,0,0,0,0,0,0,0,0,0,0,0,0,0,0,0,0,0,0,0,0,0,0,0,0,0,0,0,0,0,0,0,0,0,0,0,0,0,0,
0,0,0,0,0,0,0,0,0,0,0,0,0,0,0,0,0,0,0,0,0,0,0,0,0,0,0,0,0,0,0,0,0,0,0,0,0,0,0,0,0,0,0,0,0,0,0,0,0,0,0,0,0,0,0,0,0,0,0,0,0,0,0,0,0,0,
0,0,0,0,0,0,0,0,0,0,0,0,0,0,0,0,0,0,0,0,0,0,0,0,0,0,0,0,0,0,0,0,0,0,0,0,0,0,0,0,0,0,0,0,0,0,0,0,0,0,0,0,0,0,0,0,0,0,0,0,0,0,0,0,0,0,
0,0,0,0,0,0,0,0,0,0,0,0,0,0,0,0,0,0,0,0,0,0,0,0,0,0,0,0,0,0,0,0,0,0,0,0,0,0,0,0,0,0,0,0,0,0,0,0,0,0,0,0,0,0,0,0,0,0,0,0,0,0,0,0,0,0,
0,0,0,0,0,0,0,0,0,0,0,0,0,0,0,0,0,0,0,0,0,0,0,0,0,0,0,0,0,0,0,0,0,0,0,0,0,0,0,0,0,0,0,0,0,0,0,0,0,0,0,0,0,0,0,0,0,0,0,0,0,0,0,0,0,0,
0,0,0,0,0,0,0,0,0,0,0,0,0,0,0,0,0,0,0,0,0,0,0,0,0,0,0,0,0,0,0,0,0,0,0,0,0,0,0,0,0,0,0,0,0,0,0,0,0,0,0,0,0,0,0,0,0,0,0,0,0,0,0,0,0,0,
0,0,0,0,0,0,0,0,0,0,0,0,0,0,0,0,0,0,650,650,650,650,650,0,0,0,0,0,0,0,0,0,0,0,0,0,0,0,0,0,0,0,0,0,0,0,0,0,0,0,0,0,0,0,0,0,0,0,0,0,0,0,0,0,0,0,
0,0,0,0,0,0,0,0,0,0,0,0,0,0,0,0,0,0,650,650,650,650,650,0,0,0,0,0,0,0,0,0,0,0,0,0,0,0,0,0,0,0,0,0,0,0,0,0,0,0,0,0,0,0,0,0,0,0,0,0,0,0,0,0,0,0,
0,0,0,0,0,0,0,0,0,0,0,0,0,0,0,0,0,0,0,0,0,0,0,0,0,0,0,0,0,0,0,0,0,0,0,0,0,0,0,0,0,0,0,0,0,0,0,0,0,0,0,0,0,0,0,0,0,0,0,0,0,0,0,0,0,0,
0,0,0,0,0,0,0,0,0,0,0,0,0,0,0,0,0,0,0,0,0,0,0,0,0,0,0,0,0,0,0,0,0,0,0,0,0,0,0,0,0,0,0,0,0,0,0,0,0,0,0,0,0,0,0,0,0,0,0,0,0,0,0,0,0,0,
0,0,0,0,0,0,0,0,0,0,0,0,0,0,0,0,0,0,0,0,0,0,0,0,0,0,0,0,0,0,0,0,0,0,0,0,0,0,0,0,0,0,0,0,0,0,0,0,0,0,0,0,0,0,0,0,0,0,0,0,0,0,0,0,0,0,
0,0,0,0,0,0,0,0,0,0,0,0,0,0,0,0,0,0,0,0,0,0,0,0,0,0,0,0,0,0,0,0,0,0,0,0,0,0,0,0,0,0,0,0,0,0,0,0,0,0,0,0,0,0,0,0,0,0,0,0,0,0,0,0,0,0,
0,0,0,0,0,0,0,0,0,0,0,0,0,0,0,0,0,0,0,0,0,0,0,0,0,0,0,0,0,0,0,0,0,0,0,0,0,0,0,0,0,0,0,0,0,0,0,0,0,0,0,0,0,0,0,0,0,0,0,0,0,0,0,0,0,0,
0,0,0,0,0,0,0,0,0,0,0,0,0,0,0,0,0,0,0,0,0,0,0,0,0,0,0,0,0,0,0,0,0,0,0,0,0,0,0,0,0,0,0,0,0,0,0,0,0,0,0,0,0,0,0,0,0,0,0,0,0,0,0,0,0,0,
0,0,0,0,0,0,0,0,0,0,0,0,0,0,0,0,0,0,0,0,0,0,0,0,0,0,0,0,0,0,0,0,0,0,0,0,0,0,0,0,0,0,0,0,0,0,0,0,0,0,0,0,0,0,0,0,0,0,0,0,0,0,0,0,0,0,
0,0,0,0,0,0,0,0,0,0,0,0,0,0,0,0,0,0,0,0,0,0,0,0,0,0,0,0,0,0,0,0,0,0,0,0,0,0,0,0,0,0,0,0,0,0,0,0,0,0,0,0,0,0,0,0,0,0,0,0,0,0,0,0,0,0,
0,0,0,0,0,0,0,0,0,0,0,0,0,0,0,0,0,0,0,0,0,0,0,0,0,0,0,0,0,0,0,0,0,0,0,0,0,0,0,0,0,0,0,0,0,0,0,0,0,0,0,0,0,0,0,0,0,0,0,0,0,0,0,0,0,0
</data>
 </layer>
 <layer id="6" name="hspot" width="66" height="64" visible="0">
  <data encoding="csv">
0,0,0,0,0,0,0,0,0,0,0,0,0,0,0,0,0,0,0,0,0,0,0,0,0,0,0,0,0,0,0,0,0,0,0,0,0,0,0,0,0,0,0,0,0,0,0,0,0,0,0,0,0,0,0,0,0,0,0,0,0,0,0,0,0,0,
0,0,0,0,0,0,0,0,0,0,0,0,0,0,0,0,0,0,0,0,0,0,0,0,0,0,0,0,0,0,0,0,0,0,0,0,0,0,0,0,0,0,0,0,0,0,0,0,0,0,0,0,0,0,0,0,0,0,0,0,0,0,0,0,0,0,
0,0,0,0,0,0,0,0,0,0,0,0,0,0,0,0,0,0,0,0,0,0,0,0,0,0,0,0,0,0,0,0,0,0,0,0,0,0,0,0,0,0,0,0,0,0,0,0,0,0,0,0,0,0,0,0,0,0,0,0,0,0,0,0,0,0,
0,0,0,0,0,0,0,0,0,0,0,0,0,0,0,0,0,0,0,0,0,0,0,0,0,0,0,0,0,0,0,0,0,0,0,0,0,0,0,0,0,0,0,0,0,0,0,0,0,0,0,0,0,0,0,0,0,0,0,0,0,0,0,0,0,0,
0,0,0,0,0,0,0,0,0,0,0,0,0,0,0,0,0,0,0,0,0,0,0,0,0,0,0,0,0,0,0,0,0,0,0,0,0,0,0,0,0,0,0,0,0,0,0,0,0,0,0,0,0,0,0,0,0,0,0,0,0,0,0,0,0,0,
0,0,0,0,0,0,0,0,0,0,0,0,0,0,0,0,0,0,0,0,0,0,0,0,0,0,0,0,0,0,0,0,0,0,0,0,0,0,0,0,0,0,0,0,0,0,0,0,0,0,0,0,0,0,0,0,0,0,0,0,0,0,0,0,0,0,
0,0,0,0,0,0,0,0,0,0,0,0,0,0,0,0,0,0,0,0,0,0,0,0,0,0,0,0,0,0,0,0,0,0,0,0,0,0,0,0,0,0,0,0,0,0,0,0,0,0,0,0,0,0,0,0,0,0,0,0,0,0,0,0,0,0,
0,0,0,0,0,0,0,0,0,0,0,0,0,0,0,0,0,0,0,0,0,0,0,0,0,0,0,0,0,0,0,0,0,0,0,0,0,0,0,0,0,0,0,0,0,0,0,0,0,0,0,0,0,0,0,0,0,0,0,0,0,0,0,0,0,0,
0,0,0,0,0,0,0,0,0,0,0,0,0,0,0,0,0,0,0,0,0,0,0,0,0,0,0,0,0,0,0,0,0,0,0,0,0,0,0,0,0,0,0,0,0,0,0,0,0,0,0,0,0,0,0,0,0,0,0,0,0,0,0,0,0,0,
0,0,0,0,0,0,0,0,0,0,0,0,0,0,0,0,0,0,0,0,0,0,0,0,0,0,0,0,0,0,0,0,0,0,0,0,0,0,0,0,0,0,0,0,0,0,0,0,0,0,0,0,0,0,0,0,0,0,0,0,0,0,0,0,0,0,
0,0,0,0,0,0,0,0,0,0,0,0,0,0,0,0,0,0,0,0,0,0,0,0,0,0,0,0,0,0,0,0,0,0,0,0,0,0,0,0,0,0,0,0,0,0,0,0,0,0,0,0,0,0,0,0,0,0,0,0,0,0,0,0,0,0,
0,0,0,0,0,0,0,0,0,0,0,0,0,0,0,0,0,0,0,0,0,0,0,0,0,0,0,0,0,0,0,0,0,0,0,0,0,0,0,0,0,0,0,0,0,0,0,0,0,0,0,0,0,0,0,0,0,0,0,0,0,0,0,0,0,0,
0,0,0,0,0,0,0,0,0,0,0,0,0,0,0,0,0,0,0,0,0,0,0,0,0,0,0,0,0,0,0,0,0,0,0,0,0,0,0,0,0,0,0,0,0,0,0,0,0,0,0,0,0,0,0,0,0,0,0,0,0,0,0,0,0,0,
0,0,0,0,0,0,0,0,0,0,0,0,0,0,0,0,0,0,0,0,0,0,0,0,0,0,0,0,0,0,0,0,0,0,0,0,0,0,0,0,0,0,0,0,0,0,0,0,0,0,0,0,0,0,0,0,0,0,0,0,0,0,0,0,0,0,
0,0,0,0,0,0,0,0,0,0,0,0,0,0,0,0,0,0,0,0,0,0,0,0,0,0,0,0,0,0,0,0,0,0,0,0,0,0,0,0,0,0,0,0,0,0,0,0,0,0,0,0,0,0,0,0,0,0,0,0,0,0,0,0,0,0,
0,0,0,0,0,0,0,0,0,0,0,0,0,0,0,0,0,0,0,0,0,0,0,0,0,0,0,0,0,0,0,0,0,0,0,0,0,0,0,0,0,0,0,0,0,0,0,0,0,0,0,0,0,0,0,0,0,0,0,0,0,0,0,0,0,0,
0,0,0,0,0,0,0,0,0,0,0,0,0,0,0,0,0,0,0,0,0,0,0,0,0,0,0,0,0,0,0,0,0,0,0,0,0,0,0,0,0,0,0,0,0,0,0,0,0,0,0,0,0,0,0,0,0,0,0,0,0,0,0,0,0,0,
0,0,0,0,0,0,0,0,0,0,0,0,0,0,0,0,0,0,0,0,0,0,0,0,0,0,0,0,0,0,0,0,0,0,0,0,0,0,0,0,0,0,0,0,0,0,0,0,0,0,0,0,0,0,0,0,0,0,0,0,0,0,0,0,0,0,
0,0,0,0,0,0,0,0,0,0,0,0,0,0,0,0,0,0,0,0,0,0,0,0,0,0,0,0,0,0,0,0,0,0,0,0,0,0,0,0,0,0,0,0,0,0,0,0,0,0,0,0,0,0,0,0,0,0,0,0,0,0,0,0,0,0,
0,0,0,0,0,0,0,0,0,0,0,0,0,0,0,0,0,0,0,0,0,0,0,0,0,0,0,0,0,0,0,0,0,0,0,0,0,0,0,0,0,0,0,0,0,0,0,0,0,0,0,0,0,0,0,0,0,0,0,0,0,0,0,0,0,0,
0,0,0,0,0,0,0,0,0,0,0,0,0,0,0,0,0,0,0,0,0,0,0,0,0,0,0,0,0,0,0,0,0,0,0,0,0,0,0,0,0,0,0,0,0,0,0,0,0,0,0,0,0,0,0,0,0,0,0,0,0,0,0,0,0,0,
0,0,0,0,0,0,0,0,0,0,0,0,0,0,0,0,0,0,0,0,0,0,0,0,0,0,0,0,0,0,0,0,0,0,0,0,0,0,0,0,0,0,0,0,0,0,0,0,0,0,0,0,0,0,0,0,0,0,0,0,0,0,0,0,0,0,
0,0,0,0,0,0,0,0,0,0,0,0,0,0,0,0,0,0,0,0,0,0,0,0,0,0,0,0,0,0,0,0,0,0,0,0,0,0,0,0,0,0,0,0,0,0,0,0,0,0,0,0,0,0,0,0,0,0,0,0,0,0,0,0,0,0,
0,0,0,0,0,0,0,0,0,0,0,0,0,0,0,0,0,0,0,0,0,0,0,0,0,0,0,0,0,0,0,0,0,0,0,0,0,0,0,0,0,0,0,0,0,0,0,0,0,0,0,0,0,0,0,0,0,0,0,0,0,0,0,0,0,0,
0,0,0,0,0,0,0,0,0,0,0,0,0,0,0,0,0,0,0,0,0,0,0,0,0,0,0,0,0,0,0,0,0,0,0,0,0,0,0,0,0,0,0,0,0,0,0,0,0,0,0,0,0,0,0,0,0,0,0,0,0,0,0,0,0,0,
0,0,0,0,0,0,0,0,0,0,0,0,0,0,0,0,0,0,0,0,0,0,0,0,0,0,0,0,0,0,0,0,0,0,0,0,0,0,0,0,0,0,0,0,0,0,0,0,0,0,0,0,0,0,0,0,0,0,0,0,0,0,0,0,0,0,
0,0,0,0,0,0,0,0,0,0,0,0,0,0,0,0,0,0,0,0,0,0,0,0,0,0,0,0,0,0,0,0,0,0,0,0,0,0,0,0,0,0,0,0,0,0,0,0,0,0,0,0,0,0,0,0,0,0,0,0,0,0,0,0,0,0,
0,0,0,0,0,0,0,0,0,0,0,0,0,0,0,0,0,0,0,0,0,0,0,0,0,0,0,0,0,0,0,0,0,0,0,0,0,0,0,0,0,0,0,0,0,0,0,0,0,0,0,0,0,0,0,0,0,0,0,0,0,0,0,0,0,0,
0,0,0,0,0,0,0,0,0,0,0,0,0,0,0,0,0,0,0,0,0,0,0,0,0,0,0,0,0,0,0,0,0,0,0,0,0,0,0,0,0,0,0,0,0,0,0,0,0,0,0,0,0,0,0,0,0,0,0,0,0,0,0,0,0,0,
0,0,0,0,0,0,0,0,0,0,0,0,0,0,0,0,0,0,0,0,0,0,0,0,0,0,0,0,0,0,0,0,0,0,0,0,0,0,0,0,0,0,0,0,0,0,0,0,0,0,0,0,0,0,0,0,0,0,0,0,0,0,0,0,0,0,
0,0,0,0,0,0,0,0,0,0,0,0,0,0,0,0,0,0,0,0,0,0,0,0,0,0,0,0,0,0,0,0,0,0,0,0,0,0,0,0,0,0,0,0,0,0,0,0,0,0,0,0,0,0,0,0,0,0,0,0,0,0,0,0,0,0,
0,0,0,0,0,0,0,0,0,0,0,0,0,0,0,0,0,0,0,0,0,0,0,0,0,0,0,0,0,0,0,0,0,0,0,0,0,0,0,0,0,0,0,0,0,0,0,0,0,0,0,0,0,0,0,0,0,0,0,0,0,0,0,0,0,0,
0,0,0,0,0,0,0,0,0,0,0,0,0,0,0,0,0,0,0,0,0,0,0,0,0,0,0,0,0,0,0,0,0,0,0,0,0,0,0,0,0,0,0,0,0,0,0,0,0,0,0,0,0,0,0,0,0,0,0,0,0,0,0,0,0,0,
0,0,0,0,0,0,0,0,0,0,0,0,0,0,0,0,0,0,0,0,0,0,0,0,0,0,0,0,0,0,0,0,0,0,0,0,0,0,0,0,0,0,0,0,0,0,0,0,0,0,0,0,0,0,0,0,0,0,0,0,0,0,0,0,0,0,
0,0,0,0,0,0,0,0,0,0,0,0,0,0,0,0,0,0,0,0,0,0,0,0,0,0,0,0,0,0,0,0,0,0,0,0,0,0,0,0,0,0,0,0,0,0,0,0,0,0,0,0,0,0,0,0,0,0,0,0,0,0,0,0,0,0,
0,0,0,0,0,0,0,0,0,0,0,0,0,0,0,0,0,0,0,0,0,0,0,0,0,0,0,0,0,0,0,0,0,0,0,0,0,0,0,0,0,0,0,0,0,0,0,0,0,0,0,0,0,0,0,0,0,0,0,0,0,0,0,0,0,0,
0,0,0,0,0,0,0,0,0,0,0,0,0,0,0,0,0,0,0,0,0,0,0,0,0,0,0,0,0,0,0,0,0,0,0,0,0,0,0,0,0,0,0,0,0,0,0,0,0,0,0,0,0,0,0,0,0,0,0,0,0,0,0,0,0,0,
0,0,0,0,0,0,0,0,0,0,0,0,0,0,0,0,0,0,0,0,0,0,0,0,0,0,0,0,0,0,0,0,0,0,0,0,0,0,0,0,0,0,0,0,0,0,0,0,0,0,0,0,0,0,0,0,0,0,0,0,0,0,0,0,0,0,
0,0,0,0,0,0,0,0,0,0,0,0,0,0,0,0,0,0,0,0,0,0,0,0,0,0,0,0,0,0,0,0,0,0,0,0,0,0,0,0,0,0,0,0,0,0,0,0,0,0,0,0,0,0,0,0,0,0,0,0,0,0,0,0,0,0,
0,0,0,0,0,0,0,0,0,0,0,0,0,0,0,0,0,0,0,0,0,0,0,0,0,0,0,0,0,0,0,0,0,0,0,0,0,0,0,0,0,0,0,0,0,0,0,0,0,0,0,0,0,0,0,0,0,0,0,0,0,0,0,0,0,0,
0,0,0,0,0,0,0,0,0,0,0,0,0,0,0,0,0,0,0,0,0,0,0,0,0,0,0,0,0,0,0,0,0,0,0,0,0,0,0,0,0,0,0,0,0,0,0,0,0,0,0,0,0,0,0,0,0,0,0,0,0,0,0,0,0,0,
0,0,0,0,0,0,0,0,0,0,0,0,0,0,0,0,0,0,0,0,0,0,0,0,0,0,0,0,0,0,0,0,0,0,0,0,0,0,0,0,0,0,0,0,0,0,0,0,0,0,0,0,0,0,0,0,0,0,0,0,0,0,0,0,0,0,
0,0,0,0,0,0,0,0,0,0,0,0,0,0,0,0,0,0,0,0,0,0,0,0,0,0,0,0,0,0,0,0,0,0,0,0,0,0,0,0,0,0,0,0,0,0,0,0,0,0,0,0,0,0,0,0,0,0,0,0,0,0,0,0,0,0,
0,0,0,0,0,0,0,0,0,0,0,0,0,0,0,0,0,0,0,0,0,0,0,0,0,0,0,0,0,0,0,0,0,0,0,0,0,0,0,0,0,0,0,0,0,0,0,0,0,0,0,0,0,0,0,0,0,0,0,0,0,0,0,0,0,0,
0,0,0,0,0,0,0,0,0,0,0,0,0,0,0,0,0,0,0,0,0,0,0,0,0,0,0,0,0,0,0,0,0,0,0,0,0,0,0,0,0,0,0,0,0,0,0,0,0,0,0,0,0,0,0,0,0,0,0,0,0,0,0,0,0,0,
0,0,0,0,0,0,0,0,0,0,0,0,0,0,0,0,0,0,0,0,0,0,0,0,0,0,0,0,0,0,0,0,0,0,0,0,0,0,0,0,0,0,0,0,0,0,0,0,0,0,0,0,0,0,0,0,0,0,0,0,0,0,0,0,0,0,
0,0,0,0,0,0,0,0,0,0,0,0,0,0,0,0,0,0,0,0,0,0,0,0,0,0,0,0,0,0,0,0,0,0,0,0,0,0,0,0,0,0,0,0,0,0,0,0,0,0,0,0,0,0,0,0,0,0,0,0,0,0,0,0,0,0,
0,0,0,0,0,0,0,0,0,0,0,0,0,0,0,0,0,0,0,0,0,0,0,0,0,0,0,0,0,0,0,0,0,0,0,0,0,0,0,0,0,0,0,0,0,0,0,0,0,0,0,0,0,0,0,0,0,0,0,0,0,0,0,0,0,0,
0,0,0,0,0,0,0,0,0,0,0,0,0,0,0,0,0,0,0,0,0,0,0,0,0,0,0,0,0,0,0,0,0,0,0,0,0,0,0,0,0,0,0,0,0,0,0,0,0,0,0,0,0,0,0,0,0,0,0,0,0,0,0,0,0,0,
0,0,0,0,0,0,0,0,0,0,0,0,0,0,0,0,0,0,0,0,0,0,0,0,0,0,0,0,0,0,0,0,0,0,0,0,0,0,0,0,0,0,0,0,0,0,0,0,0,0,0,0,0,0,0,0,0,0,0,0,0,0,0,0,0,0,
0,0,0,0,0,0,0,0,0,0,0,0,0,0,0,0,0,0,0,0,0,0,0,0,0,0,0,0,0,0,0,0,0,0,0,0,0,0,0,0,0,0,0,0,0,0,0,0,0,0,0,0,0,0,0,0,0,0,0,0,0,0,0,0,0,0,
0,0,0,0,0,0,0,0,0,0,0,0,0,0,0,0,0,0,0,0,0,0,0,0,0,0,0,0,0,0,0,0,0,0,0,0,0,0,0,0,0,0,0,0,0,0,0,0,0,0,0,0,0,0,0,0,0,0,0,0,0,0,0,0,0,0,
0,0,0,0,0,0,0,0,0,0,0,0,0,0,0,0,0,0,0,0,0,0,0,0,0,0,0,0,0,0,0,0,0,0,0,0,0,0,0,0,0,0,0,0,0,0,0,0,0,0,0,0,0,0,0,0,0,0,0,0,0,0,0,0,0,0,
0,0,0,0,0,0,0,0,0,0,0,0,0,0,0,0,0,0,0,0,0,0,0,0,0,0,0,0,0,0,0,0,0,0,0,0,0,0,0,0,0,0,0,0,0,0,0,0,0,0,0,0,0,0,0,0,0,0,0,0,0,0,0,0,0,0,
0,0,0,0,0,0,0,0,0,0,0,0,0,0,0,0,0,0,0,0,0,0,0,0,0,0,0,0,0,0,0,0,0,0,0,0,0,0,0,0,0,0,0,0,0,0,0,0,0,0,0,0,0,0,0,0,0,0,0,0,0,0,0,0,0,0,
0,0,0,0,0,0,0,0,0,0,0,0,0,0,0,0,0,0,0,0,0,0,0,0,0,0,0,0,0,0,0,0,0,0,0,0,0,0,0,0,0,0,0,0,0,0,0,0,0,0,0,0,0,0,0,0,0,0,0,0,0,0,0,0,0,0,
0,0,0,0,0,0,0,0,0,0,0,0,0,0,0,0,0,0,0,0,0,0,0,0,0,0,0,0,0,0,0,0,0,0,0,0,0,0,0,0,0,0,0,0,0,0,0,0,0,0,0,0,0,0,0,0,0,0,0,0,0,0,0,0,0,0,
0,0,0,0,0,0,0,0,0,0,0,0,0,0,0,0,0,0,0,0,0,0,0,0,0,0,0,0,0,0,0,0,0,0,0,0,0,0,0,0,0,0,0,0,0,0,0,0,0,0,0,0,0,0,0,0,0,0,0,0,0,0,0,0,0,0,
0,0,0,0,0,0,0,0,0,0,0,0,0,0,0,0,0,0,0,0,0,0,0,0,0,0,0,0,0,0,0,0,0,0,0,0,0,0,0,0,0,0,0,0,0,0,0,0,0,0,0,0,0,0,0,0,0,0,0,0,0,0,0,0,0,0,
0,0,0,0,0,0,0,0,0,0,0,0,0,0,0,0,0,0,0,0,0,0,0,0,0,0,0,0,0,0,0,0,0,0,0,0,0,0,0,0,0,0,0,0,0,0,0,0,0,0,0,0,0,0,0,0,0,0,0,0,0,0,0,0,0,0,
0,0,0,0,0,0,0,0,0,0,0,0,0,0,0,0,0,0,0,0,0,0,0,0,0,0,0,0,0,0,0,0,0,0,0,0,0,0,0,0,0,0,0,0,0,0,0,0,0,0,0,0,0,0,0,0,0,0,0,0,0,0,0,0,0,0,
0,0,0,0,0,0,0,0,0,0,0,0,0,0,0,0,0,0,0,0,0,0,0,0,0,0,0,0,0,0,0,0,0,0,0,0,0,0,0,0,0,0,0,0,0,0,0,0,0,0,0,0,0,0,0,0,0,0,0,0,0,0,0,0,0,0,
0,0,0,0,0,0,0,0,0,0,0,0,0,0,0,0,0,0,0,0,0,0,0,0,0,0,0,0,0,0,0,0,0,0,0,0,0,0,0,0,0,0,0,0,0,0,0,0,0,0,0,0,0,0,0,0,0,0,0,0,0,0,0,0,0,0,
0,0,0,0,0,0,0,0,0,0,0,0,0,0,0,0,0,0,0,0,0,0,0,0,0,0,0,0,0,0,0,0,0,0,0,0,0,0,0,0,0,0,0,0,0,0,0,0,0,0,0,0,0,0,0,0,0,0,0,0,0,0,0,0,0,0
</data>
 </layer>
</map>
